(1020)
(T1  D=3. CR=0. - ZMIN=-18.997 - flat end mill)
G90
G53 G0 Z0.

(Adaptive2)
T1 M6 (flat end mill D=3. 3mm Flat Endmill)
S12000 M3
G64
G54
M8
G43 H1
G0 X0.629 Y-1.274
Z15.
Z5.
Z2.5
G3 X1.265 Y0.638 Z2.422 I-0.638 J1.274 F1206
X-0.647 Y1.274 Z2.344 I-1.274 J-0.638
X-1.283 Y-0.638 Z2.266 I0.638 J-1.274
X0.629 Y-1.274 Z2.187 I1.274 J0.638
X1.265 Y0.638 Z2.109 I-0.638 J1.274
X-0.647 Y1.274 Z2.031 I-1.274 J-0.638
X-1.283 Y-0.638 Z1.953 I0.638 J-1.274
X0.629 Y-1.274 Z1.875 I1.274 J0.638
X1.265 Y0.638 Z1.797 I-0.638 J1.274
X-0.647 Y1.274 Z1.718 I-1.274 J-0.638
X-1.283 Y-0.638 Z1.64 I0.638 J-1.274
X0.629 Y-1.274 Z1.562 I1.274 J0.638
X1.265 Y0.638 Z1.484 I-0.638 J1.274
X-0.647 Y1.274 Z1.406 I-1.274 J-0.638
X-1.283 Y-0.638 Z1.328 I0.638 J-1.274
X0.629 Y-1.274 Z1.249 I1.274 J0.638
X1.265 Y0.638 Z1.171 I-0.638 J1.274
X-0.647 Y1.274 Z1.093 I-1.274 J-0.638
X-1.283 Y-0.638 Z1.015 I0.638 J-1.274
X0.629 Y-1.274 Z0.937 I1.274 J0.638
X1.265 Y0.638 Z0.859 I-0.638 J1.274
X-0.647 Y1.274 Z0.78 I-1.274 J-0.638
X-1.283 Y-0.638 Z0.702 I0.638 J-1.274
X0.629 Y-1.274 Z0.624 I1.274 J0.638
X1.265 Y0.638 Z0.546 I-0.638 J1.274
X-0.647 Y1.274 Z0.468 I-1.274 J-0.638
X-1.283 Y-0.638 Z0.39 I0.638 J-1.274
X0.629 Y-1.274 Z0.311 I1.274 J0.638
X1.265 Y0.638 Z0.233 I-0.638 J1.274
X-0.647 Y1.274 Z0.155 I-1.274 J-0.638
X-1.283 Y-0.638 Z0.077 I0.638 J-1.274
X0.629 Y-1.274 Z-0.001 I1.274 J0.638
X1.265 Y0.638 Z-0.079 I-0.638 J1.274
X-0.647 Y1.274 Z-0.158 I-1.274 J-0.638
X-1.283 Y-0.638 Z-0.236 I0.638 J-1.274
X0.629 Y-1.274 Z-0.314 I1.274 J0.638
X1.265 Y0.638 Z-0.392 I-0.638 J1.274
X-0.647 Y1.274 Z-0.47 I-1.274 J-0.638
X-1.283 Y-0.638 Z-0.548 I0.638 J-1.274
X0.629 Y-1.274 Z-0.627 I1.274 J0.638
X1.265 Y0.638 Z-0.705 I-0.638 J1.274
X-0.647 Y1.274 Z-0.783 I-1.274 J-0.638
X-1.283 Y-0.638 Z-0.861 I0.638 J-1.274
X0.629 Y-1.274 Z-0.939 I1.274 J0.638
X1.265 Y0.638 Z-1.017 I-0.638 J1.274
X-0.647 Y1.274 Z-1.096 I-1.274 J-0.638
X-1.283 Y-0.638 Z-1.174 I0.638 J-1.274
X0.629 Y-1.274 Z-1.252 I1.274 J0.638
X1.265 Y0.638 Z-1.33 I-0.638 J1.274
X-0.647 Y1.274 Z-1.408 I-1.274 J-0.638
X-1.283 Y-0.638 Z-1.486 I0.638 J-1.274
X0.629 Y-1.274 Z-1.565 I1.274 J0.638
X1.265 Y0.638 Z-1.643 I-0.638 J1.274
X-0.647 Y1.274 Z-1.721 I-1.274 J-0.638
X-1.283 Y-0.638 Z-1.799 I0.638 J-1.274
X0.629 Y-1.274 Z-1.877 I1.274 J0.638
X1.265 Y0.638 Z-1.955 I-0.638 J1.274
X-0.647 Y1.274 Z-2.034 I-1.274 J-0.638
X-1.283 Y-0.638 Z-2.112 I0.638 J-1.274
X0.629 Y-1.274 Z-2.19 I1.274 J0.638
X1.265 Y0.638 Z-2.268 I-0.638 J1.274
X-0.647 Y1.274 Z-2.346 I-1.274 J-0.638
X-1.283 Y-0.638 Z-2.424 I0.638 J-1.274
X0.629 Y-1.274 Z-2.503 I1.274 J0.638
X1.265 Y0.638 Z-2.581 I-0.638 J1.274
X-0.647 Y1.274 Z-2.659 I-1.274 J-0.638
X-1.283 Y-0.638 Z-2.737 I0.638 J-1.274
X0.629 Y-1.274 Z-2.815 I1.274 J0.638
X1.265 Y0.638 Z-2.893 I-0.638 J1.274
X-0.647 Y1.274 Z-2.972 I-1.274 J-0.638
X-1.283 Y-0.638 Z-3.05 I0.638 J-1.274
X0.629 Y-1.274 Z-3.128 I1.274 J0.638
X1.265 Y0.638 Z-3.206 I-0.638 J1.274
X-0.647 Y1.274 Z-3.284 I-1.274 J-0.638
X-1.283 Y-0.638 Z-3.362 I0.638 J-1.274
X0.629 Y-1.274 Z-3.441 I1.274 J0.638
X1.265 Y0.638 Z-3.519 I-0.638 J1.274
X-0.647 Y1.274 Z-3.597 I-1.274 J-0.638
X-1.283 Y-0.638 Z-3.675 I0.638 J-1.274
X0.629 Y-1.274 Z-3.753 I1.274 J0.638
X1.265 Y0.638 Z-3.831 I-0.638 J1.274
X-0.647 Y1.274 Z-3.91 I-1.274 J-0.638
X-1.283 Y-0.638 Z-3.988 I0.638 J-1.274
X0.629 Y-1.274 Z-4.066 I1.274 J0.638
X1.265 Y0.638 Z-4.144 I-0.638 J1.274
X-0.647 Y1.274 Z-4.222 I-1.274 J-0.638
X-1.283 Y-0.638 Z-4.3 I0.638 J-1.274
X0.629 Y-1.274 Z-4.379 I1.274 J0.638
X1.265 Y0.638 Z-4.457 I-0.638 J1.274
X-0.647 Y1.274 Z-4.535 I-1.274 J-0.638
X-1.283 Y-0.638 Z-4.613 I0.638 J-1.274
X0.629 Y-1.274 Z-4.691 I1.274 J0.638
X1.265 Y0.638 Z-4.769 I-0.638 J1.274
X-0.647 Y1.274 Z-4.848 I-1.274 J-0.638
X-1.283 Y-0.638 Z-4.926 I0.638 J-1.274
X0.629 Y-1.274 Z-5.004 I1.274 J0.638
X1.265 Y0.638 Z-5.082 I-0.638 J1.274
X-0.647 Y1.274 Z-5.16 I-1.274 J-0.638
X-1.283 Y-0.638 Z-5.238 I0.638 J-1.274
X0.629 Y-1.274 Z-5.317 I1.274 J0.638
X1.265 Y0.638 Z-5.395 I-0.638 J1.274
X-0.647 Y1.274 Z-5.473 I-1.274 J-0.638
X-1.283 Y-0.638 Z-5.551 I0.638 J-1.274
X0.629 Y-1.274 Z-5.629 I1.274 J0.638
X1.265 Y0.638 Z-5.707 I-0.638 J1.274
X-0.647 Y1.274 Z-5.786 I-1.274 J-0.638
X-1.283 Y-0.638 Z-5.864 I0.638 J-1.274
X0.629 Y-1.274 Z-5.942 I1.274 J0.638
X1.416 Y0. Z-5.997 I-0.638 J1.274
X-0.009 Y1.425 I-1.425 J0.
X-1.434 Y0. I0. J-1.425
X-0.009 Y-1.425 I1.425 J0.
X1.416 Y0. I0. J1.425
G1 X1.418 Y0.039
X1.43 Y0.076
X1.451 Y0.109
X1.911 Y0.53
X2.11 Y0.7
X2.284 Y0.949
X2.405 Y1.273
X2.445 Y1.662
X2.38 Y2.098
X2.186 Y2.555
X1.845 Y3.001
X1.353 Y3.386
X0.783 Y3.638
X0.172 Y3.763
X-0.452 Y3.766
X-1.067 Y3.656
X-1.653 Y3.442
X-2.194 Y3.132
X-2.676 Y2.736
X-3.087 Y2.267
X-3.416 Y1.736
X-3.653 Y1.159
X-3.793 Y0.551
X-3.833 Y-0.071
X-3.77 Y-0.692
X-3.608 Y-1.295
X-3.35 Y-1.863
X-3.002 Y-2.381
X-2.575 Y-2.836
X-2.08 Y-3.215
X-1.53 Y-3.509
X-0.939 Y-3.71
X-0.323 Y-3.812
X0.301
X0.916 Y-3.711
X1.507 Y-3.511
X2.058 Y-3.218
X2.554 Y-2.839
X2.981 Y-2.384
X3.329 Y-1.866
X3.688 Y-1.356
X4.058 Y-0.853
X4.374 Y-0.315
X4.62 Y0.258
X4.781 Y0.861
X4.845 Y1.482
X4.823 Y2.105
X4.701 Y2.717
X4.498 Y3.307
X4.21 Y3.86
X3.85 Y4.37
X3.425 Y4.827
X2.945 Y5.226
X2.417 Y5.559
X1.853 Y5.824
X1.261 Y6.023
X0.649 Y6.146
X0.029 Y6.208
X-0.595 Y6.193
X-1.214 Y6.117
X-1.822 Y5.973
X-2.41 Y5.766
X-2.977 Y5.506
X-3.511 Y5.182
X-4.012 Y4.811
X-4.472 Y4.389
X-4.886 Y3.923
X-5.257 Y3.421
X-5.568 Y2.88
X-5.829 Y2.313
X-6.031 Y1.723
X-6.17 Y1.115
X-6.255 Y0.497
X-6.27 Y-0.127
X-6.227 Y-0.75
X-6.124 Y-1.365
X-5.954 Y-1.966
X-5.733 Y-2.549
X-5.449 Y-3.104
X-5.112 Y-3.63
X-4.728 Y-4.122
X-4.292 Y-4.568
X-3.818 Y-4.974
X-3.304 Y-5.327
X-2.757 Y-5.627
X-2.185 Y-5.876
X-1.589 Y-6.06
X-1.518 Y-6.093
X-1.38 Y-6.152
X-1.24 Y-6.205
X-1.097 Y-6.252
X-0.953 Y-6.293
X-0.807 Y-6.329
X-0.661 Y-6.361
X-0.513 Y-6.387
X-0.365 Y-6.408
X-0.215 Y-6.424
X-0.066 Y-6.434
X0.084 Y-6.44
X0.248 Y-6.441
X0.422 Y-6.438
X0.572 Y-6.432
X0.722 Y-6.421
X0.871 Y-6.405
X1.02 Y-6.385
X1.188 Y-6.358
X1.382 Y-6.321
X1.563 Y-6.281
X1.709 Y-6.245
X1.853 Y-6.205
X1.998 Y-6.16
X2.161 Y-6.105
X2.349 Y-6.036
X2.543 Y-5.958
X2.682 Y-5.898
X2.818 Y-5.835
X2.954 Y-5.767
X3.106 Y-5.686
X3.28 Y-5.587
X3.467 Y-5.474
X3.598 Y-5.389
X3.722 Y-5.305
X3.846 Y-5.215
X3.982 Y-5.111
X4.138 Y-4.985
X4.306 Y-4.841
X4.424 Y-4.734
X4.533 Y-4.63
X4.64 Y-4.522
X4.758 Y-4.397
X4.891 Y-4.247
X5.065 Y-4.041
X5.321 Y-3.72
X5.696 Y-3.222
X5.882 Y-2.971
X6.051 Y-2.733
X6.268 Y-2.41
X6.38 Y-2.233
X6.485 Y-2.057
X6.606 Y-1.841
X6.744 Y-1.579
X6.823 Y-1.417
X6.893 Y-1.265
X6.969 Y-1.087
X7.054 Y-0.872
X7.14 Y-0.637
X7.192 Y-0.483
X7.236 Y-0.339
X7.28 Y-0.178
X7.327 Y0.01
X7.376 Y0.237
X7.414 Y0.433
X7.438 Y0.582
X7.461 Y0.745
X7.481 Y0.934
X7.5 Y1.16
X7.512 Y1.384
X7.516 Y1.537
X7.517 Y1.687
X7.512 Y1.852
X7.502 Y2.042
X7.484 Y2.268
X7.464 Y2.464
X7.444 Y2.613
X7.418 Y2.774
X7.383 Y2.96
X7.335 Y3.179
X7.281 Y3.398
X7.241 Y3.546
X7.196 Y3.693
X7.141 Y3.859
X7.072 Y4.05
X6.985 Y4.273
X6.916 Y4.436
X6.852 Y4.576
X6.775 Y4.734
X6.68 Y4.915
X6.56 Y5.13
X6.464 Y5.293
X6.382 Y5.423
X6.287 Y5.566
X6.171 Y5.729
X6.027 Y5.922
X5.963 Y6.002
X5.911 Y6.068
X5.81 Y6.189
X5.695 Y6.321
X5.556 Y6.472
X5.382 Y6.65
X5.236 Y6.792
X5.12 Y6.899
X4.986 Y7.016
X4.825 Y7.15
X4.625 Y7.306
X4.471 Y7.421
X4.337 Y7.515
X4.179 Y7.619
X3.989 Y7.738
X3.767 Y7.868
X3.614 Y7.952
X3.454 Y8.035
X3.263 Y8.127
X3.026 Y8.234
X2.827 Y8.318
X2.672 Y8.378
X2.493 Y8.442
X2.278 Y8.512
X2.026 Y8.587
X1.85 Y8.635
X1.657 Y8.681
X1.423 Y8.731
X1.146 Y8.782
X0.968 Y8.81
X0.79 Y8.833
X0.58 Y8.855
X0.321 Y8.874
X0.098 Y8.885
X-0.076 Y8.889
X-0.083 Y8.888
X-0.709 Y8.859
X-0.993 Y8.833
X-1.134 Y8.82
X-1.276 Y8.802
X-1.702 Y8.728
X-2.127 Y8.625
X-2.411 Y8.556
X-2.552 Y8.517
X-2.694 Y8.473
X-3.12 Y8.335
X-3.261 Y8.278
X-3.688 Y8.083
X-3.829 Y8.017
X-4.112 Y7.883
X-4.273 Y7.799
X-4.538 Y7.657
X-4.679 Y7.575
X-5.361 Y7.09
X-5.388 Y7.07
X-5.548 Y6.948
X-5.672 Y6.85
X-5.956 Y6.617
X-6.056 Y6.523
X-6.097 Y6.481
X-6.523 Y6.036
X-6.598 Y5.956
X-6.848 Y5.672
X-6.967 Y5.53
X-7.083 Y5.388
X-7.232 Y5.178
X-7.283 Y5.105
X-7.556 Y4.679
X-7.657 Y4.511
X-7.807 Y4.254
X-7.887 Y4.112
X-8.035 Y3.829
X-8.083 Y3.721
X-8.267 Y3.261
X-8.322 Y3.12
X-8.478 Y2.694
X-8.521 Y2.552
X-8.605 Y2.269
X-8.641 Y2.127
X-8.804 Y1.276
X-8.824 Y1.134
X-8.854 Y0.851
X-8.868 Y0.709
X-8.885 Y0.284
X-8.887 Y0.142
Y-0.142
X-8.885 Y-0.284
X-8.868 Y-0.709
X-8.854 Y-0.851
X-8.824 Y-1.134
X-8.804 Y-1.276
X-8.641 Y-2.127
X-8.605 Y-2.269
X-8.508 Y-2.597
X-8.478 Y-2.694
X-8.322 Y-3.12
X-8.267 Y-3.261
X-8.083 Y-3.721
X-8.035 Y-3.829
X-7.887 Y-4.112
X-7.799 Y-4.268
X-7.641 Y-4.538
X-7.556 Y-4.679
X-7.283 Y-5.105
X-7.183 Y-5.247
X-7.083 Y-5.388
X-6.948 Y-5.554
X-6.848 Y-5.672
X-6.598 Y-5.956
X-6.329 Y-6.239
X-6.097 Y-6.481
X-6.056 Y-6.523
X-5.956 Y-6.617
X-5.672 Y-6.85
X-5.53 Y-6.962
X-5.388 Y-7.07
X-4.764 Y-7.515
X-4.679 Y-7.575
X-4.538 Y-7.657
X-4.254 Y-7.809
X-4.112 Y-7.883
X-3.829 Y-8.017
X-3.687 Y-8.083
X-3.261 Y-8.278
X-3.12 Y-8.335
X-2.694 Y-8.473
X-2.552 Y-8.517
X-2.411 Y-8.556
X-1.843 Y-8.694
X-1.702 Y-8.728
X-1.276 Y-8.802
X-1.134 Y-8.82
X-0.851 Y-8.846
X-0.709 Y-8.859
X0.142 Y-8.899
X0.284 Y-8.9
X0.709 Y-8.861
X0.851 Y-8.844
X1.258 Y-8.792
X1.702 Y-8.728
X2.127 Y-8.634
X2.269 Y-8.597
X2.411 Y-8.554
X2.694 Y-8.464
X3.12 Y-8.317
X3.261 Y-8.265
X3.545 Y-8.159
X3.687 Y-8.102
X4.112 Y-7.875
X4.254 Y-7.795
X4.679 Y-7.549
X5.105 Y-7.295
X5.187 Y-7.232
X5.532 Y-6.948
X5.7 Y-6.806
X6.097 Y-6.462
X6.381 Y-6.193
X6.481 Y-6.097
X6.598 Y-5.956
X6.828 Y-5.672
X6.948 Y-5.521
X7.232 Y-5.161
X7.273 Y-5.105
X7.561 Y-4.679
X7.657 Y-4.501
X7.862 Y-4.112
X8.083 Y-3.685
X8.145 Y-3.545
X8.27 Y-3.261
X8.325 Y-3.12
X8.454 Y-2.694
X8.704 Y-1.843
X8.743 Y-1.702
X8.772 Y-1.418
X8.882 Y-0.284
X8.895 Y-0.142
X8.907 Y0.
X8.895 Y0.142
X8.786 Y1.276
X8.758 Y1.56
X8.743 Y1.702
X8.704 Y1.843
X8.454 Y2.694
X8.325 Y3.12
X8.27 Y3.261
X8.145 Y3.545
X8.082 Y3.687
X7.862 Y4.112
X7.638 Y4.538
X7.561 Y4.679
X7.273 Y5.105
X7.232 Y5.161
X6.941 Y5.53
X6.851 Y5.643
G3 X6.639 Y5.748 I-0.228 J-0.195
X6.417 Y5.666 I-0.016 J-0.3
G1 X6.389 Y5.622 Z-5.992
X6.362 Y5.578 Z-5.978
X6.337 Y5.538 Z-5.955
X6.329 Y5.489 Z-5.917
X6.323 Y5.448 Z-5.871
X6.326 Y5.418 Z-5.817
X6.328 Y5.399 Z-5.758
Y5.393 Z-5.697
G0 Z5.
X0.127 Y-1.419
Z-3.497
G3 X1.419 Y0.127 Z-3.575 I-0.127 J1.419 F1206
X-0.127 Y1.419 Z-3.653 I-1.419 J-0.127
X-1.419 Y-0.127 Z-3.731 I0.127 J-1.419
X0.127 Y-1.419 Z-3.81 I1.419 J0.127
X1.419 Y0.127 Z-3.888 I-0.127 J1.419
X-0.127 Y1.419 Z-3.966 I-1.419 J-0.127
X-1.419 Y-0.127 Z-4.044 I0.127 J-1.419
X0.127 Y-1.419 Z-4.122 I1.419 J0.127
X1.419 Y0.127 Z-4.2 I-0.127 J1.419
X-0.127 Y1.419 Z-4.279 I-1.419 J-0.127
X-1.419 Y-0.127 Z-4.357 I0.127 J-1.419
X0.127 Y-1.419 Z-4.435 I1.419 J0.127
X1.419 Y0.127 Z-4.513 I-0.127 J1.419
X-0.127 Y1.419 Z-4.591 I-1.419 J-0.127
X-1.419 Y-0.127 Z-4.669 I0.127 J-1.419
X0.127 Y-1.419 Z-4.748 I1.419 J0.127
X1.419 Y0.127 Z-4.826 I-0.127 J1.419
X-0.127 Y1.419 Z-4.904 I-1.419 J-0.127
X-1.419 Y-0.127 Z-4.982 I0.127 J-1.419
X0.127 Y-1.419 Z-5.06 I1.419 J0.127
X1.419 Y0.127 Z-5.138 I-0.127 J1.419
X-0.127 Y1.419 Z-5.217 I-1.419 J-0.127
X-1.419 Y-0.127 Z-5.295 I0.127 J-1.419
X0.127 Y-1.419 Z-5.373 I1.419 J0.127
X1.419 Y0.127 Z-5.451 I-0.127 J1.419
X-0.127 Y1.419 Z-5.529 I-1.419 J-0.127
X-1.419 Y-0.127 Z-5.607 I0.127 J-1.419
X0.127 Y-1.419 Z-5.686 I1.419 J0.127
X1.419 Y0.127 Z-5.764 I-0.127 J1.419
X-0.127 Y1.419 Z-5.842 I-1.419 J-0.127
X-1.419 Y-0.127 Z-5.92 I0.127 J-1.419
X0.127 Y-1.419 Z-5.998 I1.419 J0.127
X1.419 Y0.127 Z-6.076 I-0.127 J1.419
X-0.127 Y1.419 Z-6.155 I-1.419 J-0.127
X-1.419 Y-0.127 Z-6.233 I0.127 J-1.419
X0.127 Y-1.419 Z-6.311 I1.419 J0.127
X1.419 Y0.127 Z-6.389 I-0.127 J1.419
X-0.127 Y1.419 Z-6.467 I-1.419 J-0.127
X-1.419 Y-0.127 Z-6.545 I0.127 J-1.419
X0.127 Y-1.419 Z-6.624 I1.419 J0.127
X1.419 Y0.127 Z-6.702 I-0.127 J1.419
X-0.127 Y1.419 Z-6.78 I-1.419 J-0.127
X-1.419 Y-0.127 Z-6.858 I0.127 J-1.419
X0.127 Y-1.419 Z-6.936 I1.419 J0.127
X1.419 Y0.127 Z-7.014 I-0.127 J1.419
X-0.127 Y1.419 Z-7.093 I-1.419 J-0.127
X-1.419 Y-0.127 Z-7.171 I0.127 J-1.419
X0.127 Y-1.419 Z-7.249 I1.419 J0.127
X1.419 Y0.127 Z-7.327 I-0.127 J1.419
X-0.127 Y1.419 Z-7.405 I-1.419 J-0.127
X-1.419 Y-0.127 Z-7.483 I0.127 J-1.419
X0.127 Y-1.419 Z-7.562 I1.419 J0.127
X1.419 Y0.127 Z-7.64 I-0.127 J1.419
X-0.127 Y1.419 Z-7.718 I-1.419 J-0.127
X-1.419 Y-0.127 Z-7.796 I0.127 J-1.419
X0.127 Y-1.419 Z-7.874 I1.419 J0.127
X1.419 Y0.127 Z-7.952 I-0.127 J1.419
X-0.127 Y1.419 Z-8.031 I-1.419 J-0.127
X-1.419 Y-0.127 Z-8.109 I0.127 J-1.419
X0.127 Y-1.419 Z-8.187 I1.419 J0.127
X1.419 Y0.127 Z-8.265 I-0.127 J1.419
X-0.127 Y1.419 Z-8.343 I-1.419 J-0.127
X-1.419 Y-0.127 Z-8.421 I0.127 J-1.419
X0.127 Y-1.419 Z-8.5 I1.419 J0.127
X1.419 Y0.127 Z-8.578 I-0.127 J1.419
X-0.127 Y1.419 Z-8.656 I-1.419 J-0.127
X-1.419 Y-0.127 Z-8.734 I0.127 J-1.419
X0.127 Y-1.419 Z-8.812 I1.419 J0.127
X1.419 Y0.127 Z-8.89 I-0.127 J1.419
X-0.127 Y1.419 Z-8.969 I-1.419 J-0.127
X-1.419 Y-0.127 Z-9.047 I0.127 J-1.419
X0.127 Y-1.419 Z-9.125 I1.419 J0.127
X1.419 Y0.127 Z-9.203 I-0.127 J1.419
X-0.127 Y1.419 Z-9.281 I-1.419 J-0.127
X-1.419 Y-0.127 Z-9.359 I0.127 J-1.419
X0.127 Y-1.419 Z-9.438 I1.419 J0.127
X1.419 Y0.127 Z-9.516 I-0.127 J1.419
X-0.127 Y1.419 Z-9.594 I-1.419 J-0.127
X-1.419 Y-0.127 Z-9.672 I0.127 J-1.419
X0.127 Y-1.419 Z-9.75 I1.419 J0.127
X1.419 Y0.127 Z-9.828 I-0.127 J1.419
X-0.127 Y1.419 Z-9.907 I-1.419 J-0.127
X-1.419 Y-0.127 Z-9.985 I0.127 J-1.419
X0.127 Y-1.419 Z-10.063 I1.419 J0.127
X1.419 Y0.127 Z-10.141 I-0.127 J1.419
X-0.127 Y1.419 Z-10.219 I-1.419 J-0.127
X-1.419 Y-0.127 Z-10.297 I0.127 J-1.419
X0.127 Y-1.419 Z-10.376 I1.419 J0.127
X1.419 Y0.127 Z-10.454 I-0.127 J1.419
X-0.127 Y1.419 Z-10.532 I-1.419 J-0.127
X-1.419 Y-0.127 Z-10.61 I0.127 J-1.419
X0.127 Y-1.419 Z-10.688 I1.419 J0.127
X1.419 Y0.127 Z-10.766 I-0.127 J1.419
X-0.127 Y1.419 Z-10.845 I-1.419 J-0.127
X-1.419 Y-0.127 Z-10.923 I0.127 J-1.419
X0.127 Y-1.419 Z-11.001 I1.419 J0.127
X1.419 Y0.127 Z-11.079 I-0.127 J1.419
X-0.127 Y1.419 Z-11.157 I-1.419 J-0.127
X-1.419 Y-0.127 Z-11.235 I0.127 J-1.419
X0.127 Y-1.419 Z-11.314 I1.419 J0.127
X1.419 Y0.127 Z-11.392 I-0.127 J1.419
X-0.127 Y1.419 Z-11.47 I-1.419 J-0.127
X-1.419 Y-0.127 Z-11.548 I0.127 J-1.419
X0.127 Y-1.419 Z-11.626 I1.419 J0.127
X1.425 Y0. Z-11.7 I-0.127 J1.419
X0. Y1.425 I-1.425 J0.
X-1.425 Y0. I0. J-1.425
X0. Y-1.425 I1.425 J0.
X1.425 Y0. I0. J1.425
G1 X1.427 Y0.039
X1.439 Y0.076
X1.46 Y0.109
X1.92 Y0.53
X2.119 Y0.7
X2.293 Y0.949
X2.414 Y1.273
X2.455 Y1.662
X2.389 Y2.098
X2.196 Y2.555
X1.854 Y3.001
X1.363 Y3.386
X0.792 Y3.638
X0.181 Y3.763
X-0.443 Y3.766
X-1.057 Y3.657
X-1.643 Y3.442
X-2.185 Y3.132
X-2.667 Y2.737
X-3.078 Y2.267
X-3.406 Y1.736
X-3.644 Y1.159
X-3.784 Y0.551
X-3.824 Y-0.071
X-3.761 Y-0.692
X-3.599 Y-1.294
X-3.34 Y-1.862
X-2.993 Y-2.381
X-2.566 Y-2.836
X-2.071 Y-3.215
X-1.521 Y-3.509
X-0.93 Y-3.71
X-0.314 Y-3.812
X0.31
X0.926 Y-3.711
X1.517 Y-3.511
X2.067 Y-3.218
X2.563 Y-2.839
X2.99 Y-2.384
X3.338 Y-1.866
X3.697 Y-1.356
X4.067 Y-0.853
X4.383 Y-0.315
X4.629 Y0.258
X4.791 Y0.861
X4.854 Y1.482
X4.832 Y2.105
X4.71 Y2.717
X4.507 Y3.307
X4.219 Y3.86
X3.86 Y4.371
X3.434 Y4.827
X2.954 Y5.226
X2.426 Y5.559
X1.862 Y5.824
X1.27 Y6.023
X0.659 Y6.146
X0.038 Y6.208
X-0.586 Y6.193
X-1.205 Y6.117
X-1.812 Y5.973
X-2.401 Y5.767
X-2.968 Y5.506
X-3.502 Y5.183
X-4.003 Y4.811
X-4.463 Y4.39
X-4.877 Y3.923
X-5.248 Y3.421
X-5.559 Y2.88
X-5.82 Y2.313
X-6.022 Y1.723
X-6.161 Y1.115
X-6.246 Y0.497
X-6.261 Y-0.127
X-6.217 Y-0.749
X-6.114 Y-1.365
X-5.945 Y-1.965
X-5.724 Y-2.549
X-5.44 Y-3.104
X-5.103 Y-3.63
X-4.719 Y-4.122
X-4.283 Y-4.568
X-3.809 Y-4.974
X-3.295 Y-5.327
X-2.748 Y-5.627
X-2.176 Y-5.876
X-1.579 Y-6.06
X-0.969 Y-6.188
X-0.348 Y-6.254
X0.276 Y-6.255
X0.897 Y-6.201
X1.509 Y-6.078
X2.106 Y-5.898
X2.683 Y-5.661
X3.232 Y-5.363
X3.752 Y-5.018
X4.23 Y-4.618
X4.668 Y-4.174
X5.064 Y-3.691
X5.44 Y-3.194
X5.813 Y-2.693
X6.158 Y-2.173
X6.468 Y-1.632
X6.742 Y-1.071
X6.962 Y-0.487
X7.129 Y0.114
X7.244 Y0.727
X7.295 Y1.349
X7.293 Y1.973
X7.231 Y2.594
X7.108 Y3.205
X6.934 Y3.805
X6.703 Y4.384
X6.419 Y4.94
X6.092 Y5.471
X5.714 Y5.968
X5.294 Y6.429
X4.84 Y6.857
X4.347 Y7.24
X4.261 Y7.296
X4.158 Y7.361
X4.152 Y7.364
X3.339 Y7.799
X3.261 Y7.839
X3.12 Y7.886
X1.702 Y8.316
X1.631 Y8.332
X0.142 Y8.479
X0. Y8.491
X-0.142 Y8.479
X-1.631 Y8.332
X-1.702 Y8.316
X-3.12 Y7.886
X-3.261 Y7.839
X-3.403 Y7.764
X-4.679 Y7.082
X-4.715 Y7.061
X-4.75 Y7.035
X-5.956 Y6.046
X-6.006 Y6.001
X-6.046 Y5.956
X-7.035 Y4.75
X-7.061 Y4.715
X-7.082 Y4.679
X-7.799 Y3.339
X-7.839 Y3.261
X-7.886 Y3.12
X-8.316 Y1.702
X-8.332 Y1.631
X-8.479 Y0.142
X-8.491 Y0.
X-8.479 Y-0.142
X-8.332 Y-1.631
X-8.316 Y-1.702
X-7.886 Y-3.12
X-7.839 Y-3.261
X-7.764 Y-3.403
X-7.082 Y-4.679
X-7.061 Y-4.715
X-7.035 Y-4.75
X-6.046 Y-5.956
X-6.006 Y-6.001
X-5.956 Y-6.046
X-4.75 Y-7.035
X-4.715 Y-7.061
X-4.679 Y-7.082
X-3.339 Y-7.799
X-3.261 Y-7.839
X-3.12 Y-7.886
X-1.702 Y-8.316
X-1.631 Y-8.332
X-0.142 Y-8.479
X0. Y-8.491
X0.142 Y-8.479
X1.631 Y-8.332
X1.702 Y-8.316
X3.12 Y-7.886
X3.261 Y-7.839
X3.403 Y-7.764
X4.679 Y-7.082
X4.715 Y-7.061
X4.75 Y-7.035
X5.956 Y-6.046
X6.001 Y-6.006
X6.046 Y-5.956
X7.035 Y-4.75
X7.061 Y-4.715
X7.082 Y-4.679
X7.799 Y-3.339
X7.839 Y-3.261
X7.886 Y-3.12
X8.316 Y-1.702
X8.332 Y-1.631
X8.479 Y-0.142
X8.491 Y0.
X8.479 Y0.142
X8.332 Y1.631
X8.316 Y1.702
X7.886 Y3.12
X7.839 Y3.261
X7.764 Y3.403
X7.082 Y4.679
X7.061 Y4.715
X7.035 Y4.75
X6.046 Y5.956
X6.006 Y6.001
X5.956 Y6.046
X4.75 Y7.035
X4.715 Y7.061
X4.679 Y7.082
X4.152 Y7.364
G3 X3.916 Y7.376 I-0.132 J-0.269
X3.744 Y7.214 I0.104 J-0.281
G1 X3.732 Y7.153 Z-11.693
X3.72 Y7.095 Z-11.674
X3.732 Y7.048 Z-11.646
X3.743 Y7.007 Z-11.61
X3.751 Y6.973 Z-11.566
X3.758 Y6.948 Z-11.517
X3.767 Y6.933 Z-11.46
X3.771 Y6.928 Z-11.4
G0 Z5.
X-1.284 Y-0.617
Z-9.2
G3 X0.617 Y-1.284 Z-9.278 I1.284 J0.617 F1206
X1.284 Y0.617 Z-9.356 I-0.617 J1.284
X-0.617 Y1.284 Z-9.434 I-1.284 J-0.617
X-1.284 Y-0.617 Z-9.513 I0.617 J-1.284
X0.617 Y-1.284 Z-9.591 I1.284 J0.617
X1.284 Y0.617 Z-9.669 I-0.617 J1.284
X-0.617 Y1.284 Z-9.747 I-1.284 J-0.617
X-1.284 Y-0.617 Z-9.825 I0.617 J-1.284
X0.617 Y-1.284 Z-9.903 I1.284 J0.617
X1.284 Y0.617 Z-9.982 I-0.617 J1.284
X-0.617 Y1.284 Z-10.06 I-1.284 J-0.617
X-1.284 Y-0.617 Z-10.138 I0.617 J-1.284
X0.617 Y-1.284 Z-10.216 I1.284 J0.617
X1.284 Y0.617 Z-10.294 I-0.617 J1.284
X-0.617 Y1.284 Z-10.372 I-1.284 J-0.617
X-1.284 Y-0.617 Z-10.451 I0.617 J-1.284
X0.617 Y-1.284 Z-10.529 I1.284 J0.617
X1.284 Y0.617 Z-10.607 I-0.617 J1.284
X-0.617 Y1.284 Z-10.685 I-1.284 J-0.617
X-1.284 Y-0.617 Z-10.763 I0.617 J-1.284
X0.617 Y-1.284 Z-10.841 I1.284 J0.617
X1.284 Y0.617 Z-10.92 I-0.617 J1.284
X-0.617 Y1.284 Z-10.998 I-1.284 J-0.617
X-1.284 Y-0.617 Z-11.076 I0.617 J-1.284
X0.617 Y-1.284 Z-11.154 I1.284 J0.617
X1.284 Y0.617 Z-11.232 I-0.617 J1.284
X-0.617 Y1.284 Z-11.31 I-1.284 J-0.617
X-1.284 Y-0.617 Z-11.389 I0.617 J-1.284
X0.617 Y-1.284 Z-11.467 I1.284 J0.617
X1.284 Y0.617 Z-11.545 I-0.617 J1.284
X-0.617 Y1.284 Z-11.623 I-1.284 J-0.617
X-1.284 Y-0.617 Z-11.701 I0.617 J-1.284
X0.617 Y-1.284 Z-11.779 I1.284 J0.617
X1.284 Y0.617 Z-11.858 I-0.617 J1.284
X-0.617 Y1.284 Z-11.936 I-1.284 J-0.617
X-1.284 Y-0.617 Z-12.014 I0.617 J-1.284
X0.617 Y-1.284 Z-12.092 I1.284 J0.617
X1.284 Y0.617 Z-12.17 I-0.617 J1.284
X-0.617 Y1.284 Z-12.248 I-1.284 J-0.617
X-1.284 Y-0.617 Z-12.327 I0.617 J-1.284
X0.617 Y-1.284 Z-12.405 I1.284 J0.617
X1.284 Y0.617 Z-12.483 I-0.617 J1.284
X-0.617 Y1.284 Z-12.561 I-1.284 J-0.617
X-1.284 Y-0.617 Z-12.639 I0.617 J-1.284
X0.617 Y-1.284 Z-12.717 I1.284 J0.617
X1.284 Y0.617 Z-12.796 I-0.617 J1.284
X-0.617 Y1.284 Z-12.874 I-1.284 J-0.617
X-1.284 Y-0.617 Z-12.952 I0.617 J-1.284
X0.617 Y-1.284 Z-13.03 I1.284 J0.617
X1.284 Y0.617 Z-13.108 I-0.617 J1.284
X-0.617 Y1.284 Z-13.186 I-1.284 J-0.617
X-1.284 Y-0.617 Z-13.265 I0.617 J-1.284
X0.617 Y-1.284 Z-13.343 I1.284 J0.617
X1.284 Y0.617 Z-13.421 I-0.617 J1.284
X-0.617 Y1.284 Z-13.499 I-1.284 J-0.617
X-1.284 Y-0.617 Z-13.577 I0.617 J-1.284
X0.617 Y-1.284 Z-13.655 I1.284 J0.617
X1.284 Y0.617 Z-13.734 I-0.617 J1.284
X-0.617 Y1.284 Z-13.812 I-1.284 J-0.617
X-1.284 Y-0.617 Z-13.89 I0.617 J-1.284
X0.617 Y-1.284 Z-13.968 I1.284 J0.617
X1.284 Y0.617 Z-14.046 I-0.617 J1.284
X-0.617 Y1.284 Z-14.124 I-1.284 J-0.617
X-1.284 Y-0.617 Z-14.203 I0.617 J-1.284
X0.617 Y-1.284 Z-14.281 I1.284 J0.617
X1.284 Y0.617 Z-14.359 I-0.617 J1.284
X-0.617 Y1.284 Z-14.437 I-1.284 J-0.617
X-1.284 Y-0.617 Z-14.515 I0.617 J-1.284
X0.617 Y-1.284 Z-14.593 I1.284 J0.617
X1.284 Y0.617 Z-14.672 I-0.617 J1.284
X-0.617 Y1.284 Z-14.75 I-1.284 J-0.617
X-1.284 Y-0.617 Z-14.828 I0.617 J-1.284
X0.617 Y-1.284 Z-14.906 I1.284 J0.617
X1.284 Y0.617 Z-14.984 I-0.617 J1.284
X-0.617 Y1.284 Z-15.062 I-1.284 J-0.617
X-1.284 Y-0.617 Z-15.141 I0.617 J-1.284
X0.617 Y-1.284 Z-15.219 I1.284 J0.617
X1.284 Y0.617 Z-15.297 I-0.617 J1.284
X-0.617 Y1.284 Z-15.375 I-1.284 J-0.617
X-1.284 Y-0.617 Z-15.453 I0.617 J-1.284
X0.617 Y-1.284 Z-15.531 I1.284 J0.617
X1.284 Y0.617 Z-15.61 I-0.617 J1.284
X-0.617 Y1.284 Z-15.688 I-1.284 J-0.617
X-1.284 Y-0.617 Z-15.766 I0.617 J-1.284
X0.617 Y-1.284 Z-15.844 I1.284 J0.617
X1.425 Y0. Z-15.9 I-0.617 J1.284
X0. Y1.425 I-1.425 J0.
X-1.425 Y0. I0. J-1.425
X0. Y-1.425 I1.425 J0.
X1.425 Y0. I0. J1.425
G1 X1.427 Y0.039
X1.439 Y0.076
X1.46 Y0.109
X1.92 Y0.53
X2.119 Y0.7
X2.293 Y0.949
X2.414 Y1.273
X2.455 Y1.662
X2.389 Y2.098
X2.196 Y2.555
X1.854 Y3.001
X1.363 Y3.386
X0.792 Y3.638
X0.181 Y3.763
X-0.443 Y3.766
X-1.057 Y3.657
X-1.643 Y3.442
X-2.185 Y3.132
X-2.667 Y2.737
X-3.078 Y2.267
X-3.406 Y1.736
X-3.644 Y1.159
X-3.784 Y0.551
X-3.824 Y-0.071
X-3.761 Y-0.692
X-3.599 Y-1.294
X-3.34 Y-1.862
X-2.993 Y-2.381
X-2.566 Y-2.836
X-2.071 Y-3.215
X-1.521 Y-3.509
X-0.93 Y-3.71
X-0.314 Y-3.812
X0.31
X0.926 Y-3.711
X1.517 Y-3.511
X2.067 Y-3.218
X2.563 Y-2.839
X2.99 Y-2.384
X3.338 Y-1.866
X3.697 Y-1.356
X4.067 Y-0.853
X4.383 Y-0.315
X4.629 Y0.258
X4.791 Y0.861
X4.854 Y1.482
X4.832 Y2.105
X4.71 Y2.717
X4.507 Y3.307
X4.219 Y3.86
X3.86 Y4.371
X3.434 Y4.827
X2.954 Y5.226
X2.426 Y5.559
X1.862 Y5.824
X1.27 Y6.023
X0.659 Y6.146
X0.038 Y6.208
X-0.586 Y6.193
X-1.205 Y6.117
X-1.812 Y5.973
X-2.401 Y5.767
X-2.968 Y5.506
X-3.502 Y5.183
X-4.003 Y4.811
X-4.463 Y4.39
X-4.877 Y3.923
X-5.248 Y3.421
X-5.559 Y2.88
X-5.82 Y2.313
X-6.022 Y1.723
X-6.161 Y1.115
X-6.246 Y0.497
X-6.261 Y-0.127
X-6.217 Y-0.749
X-6.114 Y-1.365
X-5.945 Y-1.965
X-5.724 Y-2.549
X-5.44 Y-3.104
X-5.103 Y-3.63
X-4.719 Y-4.122
X-4.283 Y-4.568
X-3.809 Y-4.974
X-3.295 Y-5.327
X-2.748 Y-5.627
X-2.176 Y-5.876
X-1.579 Y-6.06
X-0.969 Y-6.188
X-0.348 Y-6.254
X0.276 Y-6.255
X0.897 Y-6.201
X1.509 Y-6.078
X2.106 Y-5.898
X2.683 Y-5.661
X3.232 Y-5.363
X3.752 Y-5.018
X4.23 Y-4.618
X4.668 Y-4.174
X5.064 Y-3.691
X5.44 Y-3.194
X5.813 Y-2.693
X6.158 Y-2.173
X6.468 Y-1.632
X6.742 Y-1.071
X6.962 Y-0.487
X7.129 Y0.114
X7.244 Y0.727
X7.295 Y1.349
X7.293 Y1.973
X7.231 Y2.594
X7.108 Y3.205
X6.934 Y3.805
X6.703 Y4.384
X6.419 Y4.94
X6.092 Y5.471
X5.714 Y5.968
X5.294 Y6.429
X4.84 Y6.857
X4.347 Y7.24
X4.261 Y7.296
X4.158 Y7.361
X4.152 Y7.364
X3.339 Y7.799
X3.261 Y7.839
X3.12 Y7.886
X1.702 Y8.316
X1.631 Y8.332
X0.142 Y8.479
X0. Y8.491
X-0.142 Y8.479
X-1.631 Y8.332
X-1.702 Y8.316
X-3.12 Y7.886
X-3.261 Y7.839
X-3.403 Y7.764
X-4.679 Y7.082
X-4.715 Y7.061
X-4.75 Y7.035
X-5.956 Y6.046
X-6.006 Y6.001
X-6.046 Y5.956
X-7.035 Y4.75
X-7.061 Y4.715
X-7.082 Y4.679
X-7.799 Y3.339
X-7.839 Y3.261
X-7.886 Y3.12
X-8.316 Y1.702
X-8.332 Y1.631
X-8.479 Y0.142
X-8.491 Y0.
X-8.479 Y-0.142
X-8.332 Y-1.631
X-8.316 Y-1.702
X-7.886 Y-3.12
X-7.839 Y-3.261
X-7.764 Y-3.403
X-7.082 Y-4.679
X-7.061 Y-4.715
X-7.035 Y-4.75
X-6.046 Y-5.956
X-6.006 Y-6.001
X-5.956 Y-6.046
X-4.75 Y-7.035
X-4.715 Y-7.061
X-4.679 Y-7.082
X-3.339 Y-7.799
X-3.261 Y-7.839
X-3.12 Y-7.886
X-1.702 Y-8.316
X-1.631 Y-8.332
X-0.142 Y-8.479
X0. Y-8.491
X0.142 Y-8.479
X1.631 Y-8.332
X1.702 Y-8.316
X3.12 Y-7.886
X3.261 Y-7.839
X3.403 Y-7.764
X4.679 Y-7.082
X4.715 Y-7.061
X4.75 Y-7.035
X5.956 Y-6.046
X6.001 Y-6.006
X6.046 Y-5.956
X7.035 Y-4.75
X7.061 Y-4.715
X7.082 Y-4.679
X7.799 Y-3.339
X7.839 Y-3.261
X7.886 Y-3.12
X8.316 Y-1.702
X8.332 Y-1.631
X8.479 Y-0.142
X8.491 Y0.
X8.479 Y0.142
X8.332 Y1.631
X8.316 Y1.702
X7.886 Y3.12
X7.839 Y3.261
X7.764 Y3.403
X7.082 Y4.679
X7.061 Y4.715
X7.035 Y4.75
X6.046 Y5.956
X6.006 Y6.001
X5.956 Y6.046
X4.75 Y7.035
X4.715 Y7.061
X4.679 Y7.082
X4.152 Y7.364
G3 X3.75 Y7.227 I-0.132 J-0.269
X3.771 Y6.928 I0.269 J-0.132
G1 X3.808 Y6.872 Z-15.892
X3.843 Y6.82 Z-15.87
X3.875 Y6.772 Z-15.835
X3.901 Y6.733 Z-15.787
X3.921 Y6.703 Z-15.73
X3.934 Y6.685 Z-15.667
X3.938 Y6.679 Z-15.6
G0 Z15.
M9

(Adaptive4)
G64
X-26.309 Y-29.53
Z15.
Z5.
Z-5.397
G1 Z-5.697 F1206
X-26.307 Y-29.522 Z-5.764
X-26.302 Y-29.501 Z-5.827
X-26.293 Y-29.466 Z-5.884
X-26.281 Y-29.42 Z-5.932
X-26.267 Y-29.365 Z-5.967
X-26.251 Y-29.304 Z-5.989
X-26.235 Y-29.239 Z-5.997
G3 X-26. Y-27.606 I-7.419 J1.9
G1 Y-27.456
X-26.119 Y-26.843
X-26.195 Y-26.224
X-26.208 Y-26.039
X-26.222 Y-25.939
X-26.251 Y-25.842
X-26.294 Y-25.75
X-26.34 Y-25.666
X-26.375 Y-25.6
X-26.402 Y-25.524
X-26.45 Y-25.382
X-26.477 Y-25.24
X-26.489 Y-25.098
X-26.498 Y-24.815
X-26.5 Y-24.673
Y24.673
X-26.498 Y24.815
X-26.489 Y25.098
X-26.477 Y25.24
X-26.45 Y25.382
X-26.402 Y25.524
X-26.375 Y25.6
X-26.34 Y25.666
X-26.262 Y25.807
X-26.158 Y25.949
X-26.091 Y26.023
X-26.023 Y26.091
X-25.949 Y26.158
X-25.807 Y26.262
X-25.666 Y26.34
X-25.6 Y26.375
X-25.524 Y26.402
X-25.382 Y26.45
X-25.24 Y26.477
X-25.098 Y26.489
X-24.815 Y26.498
X-24.673 Y26.5
X24.673
X24.815 Y26.498
X25.098 Y26.489
X25.24 Y26.477
X25.382 Y26.45
X25.524 Y26.402
X25.6 Y26.375
X25.666 Y26.34
X25.807 Y26.262
X25.949 Y26.158
X26.023 Y26.091
X26.091 Y26.023
X26.158 Y25.949
X26.262 Y25.807
X26.34 Y25.666
X26.375 Y25.6
X26.402 Y25.524
X26.45 Y25.382
X26.477 Y25.24
X26.489 Y25.098
X26.498 Y24.815
X26.5 Y24.673
Y-24.673
X26.498 Y-24.815
X26.489 Y-25.098
X26.477 Y-25.24
X26.45 Y-25.382
X26.402 Y-25.524
X26.375 Y-25.6
X26.34 Y-25.666
X26.262 Y-25.807
X26.158 Y-25.949
X26.091 Y-26.023
X26.023 Y-26.091
X25.949 Y-26.158
X25.807 Y-26.262
X25.666 Y-26.34
X25.6 Y-26.375
X25.524 Y-26.402
X25.382 Y-26.45
X25.24 Y-26.477
X25.098 Y-26.489
X24.815 Y-26.498
X24.673 Y-26.5
X-24.673
X-24.815 Y-26.498
X-25.035 Y-26.491
G3 X-25.251 Y-26.585 I0.001 J-0.3
X-25.333 Y-26.807 I0.218 J-0.206
G1 X-25.317 Y-26.857 Z-5.992
X-25.301 Y-26.906 Z-5.978
X-25.287 Y-26.952 Z-5.955
X-25.251 Y-26.986 Z-5.918
X-25.222 Y-27.014 Z-5.871
X-25.2 Y-27.035 Z-5.817
X-25.187 Y-27.047 Z-5.759
X-25.182 Y-27.052 Z-5.697
G0 Z5.
X15.43 Y-16.065
Z2.5
G3 X16.066 Y-14.153 Z2.422 I-0.638 J1.274 F1206
X14.154 Y-13.517 Z2.344 I-1.274 J-0.638
X13.518 Y-15.43 Z2.266 I0.638 J-1.274
X15.43 Y-16.065 Z2.187 I1.274 J0.638
X16.066 Y-14.153 Z2.109 I-0.638 J1.274
X14.154 Y-13.517 Z2.031 I-1.274 J-0.638
X13.518 Y-15.43 Z1.953 I0.638 J-1.274
X15.43 Y-16.065 Z1.875 I1.274 J0.638
X16.066 Y-14.153 Z1.797 I-0.638 J1.274
X14.154 Y-13.517 Z1.718 I-1.274 J-0.638
X13.518 Y-15.43 Z1.64 I0.638 J-1.274
X15.43 Y-16.065 Z1.562 I1.274 J0.638
X16.066 Y-14.153 Z1.484 I-0.638 J1.274
X14.154 Y-13.517 Z1.406 I-1.274 J-0.638
X13.518 Y-15.43 Z1.328 I0.638 J-1.274
X15.43 Y-16.065 Z1.249 I1.274 J0.638
X16.066 Y-14.153 Z1.171 I-0.638 J1.274
X14.154 Y-13.517 Z1.093 I-1.274 J-0.638
X13.518 Y-15.43 Z1.015 I0.638 J-1.274
X15.43 Y-16.065 Z0.937 I1.274 J0.638
X16.066 Y-14.153 Z0.859 I-0.638 J1.274
X14.154 Y-13.517 Z0.78 I-1.274 J-0.638
X13.518 Y-15.43 Z0.702 I0.638 J-1.274
X15.43 Y-16.065 Z0.624 I1.274 J0.638
X16.066 Y-14.153 Z0.546 I-0.638 J1.274
X14.154 Y-13.517 Z0.468 I-1.274 J-0.638
X13.518 Y-15.43 Z0.39 I0.638 J-1.274
X15.43 Y-16.065 Z0.311 I1.274 J0.638
X16.066 Y-14.153 Z0.233 I-0.638 J1.274
X14.154 Y-13.517 Z0.155 I-1.274 J-0.638
X13.518 Y-15.43 Z0.077 I0.638 J-1.274
X15.43 Y-16.065 Z-0.001 I1.274 J0.638
X16.066 Y-14.153 Z-0.079 I-0.638 J1.274
X14.154 Y-13.517 Z-0.158 I-1.274 J-0.638
X13.518 Y-15.43 Z-0.236 I0.638 J-1.274
X15.43 Y-16.065 Z-0.314 I1.274 J0.638
X16.066 Y-14.153 Z-0.392 I-0.638 J1.274
X14.154 Y-13.517 Z-0.47 I-1.274 J-0.638
X13.518 Y-15.43 Z-0.548 I0.638 J-1.274
X15.43 Y-16.065 Z-0.627 I1.274 J0.638
X16.066 Y-14.153 Z-0.705 I-0.638 J1.274
X14.154 Y-13.517 Z-0.783 I-1.274 J-0.638
X13.518 Y-15.43 Z-0.861 I0.638 J-1.274
X15.43 Y-16.065 Z-0.939 I1.274 J0.638
X16.066 Y-14.153 Z-1.017 I-0.638 J1.274
X14.154 Y-13.517 Z-1.096 I-1.274 J-0.638
X13.518 Y-15.43 Z-1.174 I0.638 J-1.274
X15.43 Y-16.065 Z-1.252 I1.274 J0.638
X16.066 Y-14.153 Z-1.33 I-0.638 J1.274
X14.154 Y-13.517 Z-1.408 I-1.274 J-0.638
X13.518 Y-15.43 Z-1.486 I0.638 J-1.274
X15.43 Y-16.065 Z-1.565 I1.274 J0.638
X16.066 Y-14.153 Z-1.643 I-0.638 J1.274
X14.154 Y-13.517 Z-1.721 I-1.274 J-0.638
X13.518 Y-15.43 Z-1.799 I0.638 J-1.274
X15.43 Y-16.065 Z-1.877 I1.274 J0.638
X16.066 Y-14.153 Z-1.955 I-0.638 J1.274
X14.154 Y-13.517 Z-2.034 I-1.274 J-0.638
X13.518 Y-15.43 Z-2.112 I0.638 J-1.274
X15.43 Y-16.065 Z-2.19 I1.274 J0.638
X16.066 Y-14.153 Z-2.268 I-0.638 J1.274
X14.154 Y-13.517 Z-2.346 I-1.274 J-0.638
X13.518 Y-15.43 Z-2.424 I0.638 J-1.274
X15.43 Y-16.065 Z-2.503 I1.274 J0.638
X16.066 Y-14.153 Z-2.581 I-0.638 J1.274
X14.154 Y-13.517 Z-2.659 I-1.274 J-0.638
X13.518 Y-15.43 Z-2.737 I0.638 J-1.274
X15.43 Y-16.065 Z-2.815 I1.274 J0.638
X16.066 Y-14.153 Z-2.893 I-0.638 J1.274
X14.154 Y-13.517 Z-2.972 I-1.274 J-0.638
X13.518 Y-15.43 Z-3.05 I0.638 J-1.274
X15.43 Y-16.065 Z-3.128 I1.274 J0.638
X16.066 Y-14.153 Z-3.206 I-0.638 J1.274
X14.154 Y-13.517 Z-3.284 I-1.274 J-0.638
X13.518 Y-15.43 Z-3.362 I0.638 J-1.274
X15.43 Y-16.065 Z-3.441 I1.274 J0.638
X16.066 Y-14.153 Z-3.519 I-0.638 J1.274
X14.154 Y-13.517 Z-3.597 I-1.274 J-0.638
X13.518 Y-15.43 Z-3.675 I0.638 J-1.274
X15.43 Y-16.065 Z-3.753 I1.274 J0.638
X16.066 Y-14.153 Z-3.831 I-0.638 J1.274
X14.154 Y-13.517 Z-3.91 I-1.274 J-0.638
X13.518 Y-15.43 Z-3.988 I0.638 J-1.274
X15.43 Y-16.065 Z-4.066 I1.274 J0.638
X16.066 Y-14.153 Z-4.144 I-0.638 J1.274
X14.154 Y-13.517 Z-4.222 I-1.274 J-0.638
X13.518 Y-15.43 Z-4.3 I0.638 J-1.274
X15.43 Y-16.065 Z-4.379 I1.274 J0.638
X16.066 Y-14.153 Z-4.457 I-0.638 J1.274
X14.154 Y-13.517 Z-4.535 I-1.274 J-0.638
X13.518 Y-15.43 Z-4.613 I0.638 J-1.274
X15.43 Y-16.065 Z-4.691 I1.274 J0.638
X16.066 Y-14.153 Z-4.769 I-0.638 J1.274
X14.154 Y-13.517 Z-4.848 I-1.274 J-0.638
X13.518 Y-15.43 Z-4.926 I0.638 J-1.274
X15.43 Y-16.065 Z-5.004 I1.274 J0.638
X16.066 Y-14.153 Z-5.082 I-0.638 J1.274
X14.154 Y-13.517 Z-5.16 I-1.274 J-0.638
X13.518 Y-15.43 Z-5.238 I0.638 J-1.274
X15.43 Y-16.065 Z-5.317 I1.274 J0.638
X16.066 Y-14.153 Z-5.395 I-0.638 J1.274
X14.154 Y-13.517 Z-5.473 I-1.274 J-0.638
X13.518 Y-15.43 Z-5.551 I0.638 J-1.274
X15.43 Y-16.065 Z-5.629 I1.274 J0.638
X16.066 Y-14.153 Z-5.707 I-0.638 J1.274
X14.154 Y-13.517 Z-5.786 I-1.274 J-0.638
X13.518 Y-15.43 Z-5.864 I0.638 J-1.274
X15.43 Y-16.065 Z-5.942 I1.274 J0.638
X16.217 Y-14.791 Z-5.997 I-0.638 J1.274
X14.792 Y-13.366 I-1.425 J0.
X13.367 Y-14.791 I0. J-1.425
X14.792 Y-16.216 I1.425 J0.
X16.217 Y-14.791 I0. J1.425
G1 X16.247 Y-14.168
X16.271 Y-14.094
X16.3 Y-13.947
X16.297 Y-13.797
X16.269 Y-13.649
X16.221 Y-13.508
X16.154 Y-13.373
X16.071 Y-13.248
X15.976 Y-13.132
X15.869 Y-13.027
X15.753 Y-12.933
X15.628 Y-12.849
X15.496 Y-12.778
X15.359 Y-12.717
X15.217 Y-12.669
X15.069 Y-12.632
X14.916 Y-12.606
X14.758 Y-12.592
X14.597 Y-12.59
X14.434 Y-12.602
X14.271 Y-12.628
X14.108 Y-12.666
X13.947 Y-12.719
X13.789 Y-12.784
X13.636 Y-12.863
X13.488 Y-12.955
X13.347 Y-13.059
X13.214 Y-13.174
X13.091 Y-13.3
X12.977 Y-13.437
X12.874 Y-13.582
X12.783 Y-13.736
X12.705 Y-13.898
X12.639 Y-14.065
X12.587 Y-14.238
X12.549 Y-14.415
X12.525 Y-14.594
X12.516 Y-14.775
X12.521 Y-14.957
X12.541 Y-15.137
X12.575 Y-15.316
X12.624 Y-15.492
X12.686 Y-15.663
X12.762 Y-15.829
X12.851 Y-15.988
X12.953 Y-16.139
X13.067 Y-16.283
X13.192 Y-16.416
X13.327 Y-16.539
X13.471 Y-16.651
X13.625 Y-16.751
X13.785 Y-16.838
X13.953 Y-16.913
X14.126 Y-16.973
X14.303 Y-17.02
X14.483 Y-17.052
X14.665 Y-17.069
X14.848 Y-17.072
X15.031 Y-17.06
X15.212 Y-17.034
X15.391 Y-16.993
X15.566 Y-16.938
X15.735 Y-16.869
X15.899 Y-16.786
X16.056 Y-16.691
X16.204 Y-16.584
X16.343 Y-16.464
X16.472 Y-16.335
X16.591 Y-16.195
X16.698 Y-16.046
X16.8 Y-15.876
X16.917 Y-15.641
X17.078 Y-15.24
X17.167 Y-14.951
X17.223 Y-14.703
X17.255 Y-14.478
X17.268 Y-14.263
X17.263 Y-14.053
X17.243 Y-13.85
X17.207 Y-13.656
X17.157 Y-13.469
X17.092 Y-13.285
X17.011 Y-13.105
X16.915 Y-12.931
X16.806 Y-12.765
X16.683 Y-12.607
X16.546 Y-12.458
X16.396 Y-12.319
X16.233 Y-12.191
X16.057 Y-12.075
X15.87 Y-11.971
X15.673 Y-11.881
X15.465 Y-11.807
X15.25 Y-11.748
X15.027 Y-11.707
X14.799 Y-11.683
X14.567 Y-11.677
X14.333 Y-11.69
X14.099 Y-11.723
X13.866 Y-11.774
X13.636 Y-11.845
X13.41 Y-11.934
X13.191 Y-12.042
X12.98 Y-12.168
X12.779 Y-12.311
X12.589 Y-12.471
X12.411 Y-12.647
X12.248 Y-12.837
X12.099 Y-13.04
X11.967 Y-13.256
X11.852 Y-13.482
X11.756 Y-13.717
X11.678 Y-13.96
X11.62 Y-14.209
X11.582 Y-14.463
X11.565 Y-14.719
X11.568 Y-14.976
X11.592 Y-15.232
X11.636 Y-15.486
X11.701 Y-15.736
X11.785 Y-15.98
X11.889 Y-16.217
X12.012 Y-16.445
X12.153 Y-16.662
X12.31 Y-16.868
X12.484 Y-17.06
X12.673 Y-17.238
X12.876 Y-17.4
X13.091 Y-17.545
X13.317 Y-17.673
X13.552 Y-17.782
X13.796 Y-17.872
X14.046 Y-17.942
X14.301 Y-17.992
X14.559 Y-18.021
X14.819 Y-18.029
X15.079 Y-18.017
X15.336 Y-17.983
X15.591 Y-17.929
X15.84 Y-17.855
X16.082 Y-17.761
X16.317 Y-17.648
X16.541 Y-17.517
X16.754 Y-17.367
X16.957 Y-17.2
X17.156 Y-17.006
X17.365 Y-16.767
X17.56 Y-16.505
X17.74 Y-16.217
X17.896 Y-15.916
X18.023 Y-15.613
X18.123 Y-15.309
X18.196 Y-15.006
X18.244 Y-14.706
X18.266 Y-14.409
X18.265 Y-14.116
X18.241 Y-13.827
X18.194 Y-13.544
X18.125 Y-13.267
X18.034 Y-12.998
X17.922 Y-12.738
X17.79 Y-12.487
X17.637 Y-12.248
X17.466 Y-12.02
X17.275 Y-11.806
X17.067 Y-11.607
X16.842 Y-11.424
X16.601 Y-11.258
X16.345 Y-11.111
X16.076 Y-10.983
X15.795 Y-10.877
X15.503 Y-10.793
X15.204 Y-10.732
X14.898 Y-10.694
X14.587 Y-10.682
X14.275 Y-10.694
X13.962 Y-10.732
X13.651 Y-10.796
X13.345 Y-10.884
X13.044 Y-10.998
X12.753 Y-11.136
X12.471 Y-11.298
X12.202 Y-11.482
X11.948 Y-11.689
X11.71 Y-11.917
X11.49 Y-12.164
X11.29 Y-12.429
X11.111 Y-12.709
X10.955 Y-13.005
X10.823 Y-13.312
X10.716 Y-13.63
X10.634 Y-13.957
X10.579 Y-14.289
X10.55 Y-14.626
X10.549 Y-14.964
X10.574 Y-15.302
X10.627 Y-15.637
X10.707 Y-15.967
X10.813 Y-16.289
X10.944 Y-16.603
X11.101 Y-16.905
X11.281 Y-17.194
X11.484 Y-17.468
X11.709 Y-17.724
X11.953 Y-17.962
X12.216 Y-18.179
X12.495 Y-18.375
X12.79 Y-18.548
X13.097 Y-18.697
X13.416 Y-18.82
X13.743 Y-18.918
X14.077 Y-18.989
X14.416 Y-19.032
X14.758 Y-19.049
X15.099 Y-19.038
X15.439 Y-19.
X15.774 Y-18.935
X16.104 Y-18.842
X16.425 Y-18.724
X16.735 Y-18.58
X17.038 Y-18.41
X17.336 Y-18.208
X17.626 Y-17.976
X17.906 Y-17.713
X18.17 Y-17.421
X18.412 Y-17.106
X18.63 Y-16.77
X18.819 Y-16.419
X18.978 Y-16.056
X19.107 Y-15.685
X19.205 Y-15.309
X19.271 Y-14.929
X19.306 Y-14.549
X19.311 Y-14.171
X19.286 Y-13.795
X19.231 Y-13.426
X19.146 Y-13.063
X19.033 Y-12.71
X18.893 Y-12.368
X18.726 Y-12.038
X18.532 Y-11.722
X18.313 Y-11.422
X18.071 Y-11.14
X17.805 Y-10.877
X17.517 Y-10.635
X17.21 Y-10.416
X16.884 Y-10.221
X16.541 Y-10.052
X16.184 Y-9.91
X15.814 Y-9.797
X15.434 Y-9.713
X15.046 Y-9.659
X14.653 Y-9.637
X14.257 Y-9.646
X13.86 Y-9.687
X13.467 Y-9.761
X13.078 Y-9.866
X12.697 Y-10.003
X12.327 Y-10.171
X12.049 Y-10.324
X11.945 Y-10.395
X11.855 Y-10.483
X11.782 Y-10.587
X10.035 Y-13.613
X9.897 Y-13.883
X9.814 Y-14.081
X9.743 Y-14.301
X9.683 Y-14.557
X9.642 Y-14.825
X9.62 Y-15.119
X9.623 Y-15.439
X9.653 Y-15.779
X9.713 Y-16.127
X9.802 Y-16.478
X9.924 Y-16.834
X10.079 Y-17.191
X10.267 Y-17.543
X10.487 Y-17.884
X10.736 Y-18.211
X11.013 Y-18.52
X11.316 Y-18.808
X11.643 Y-19.071
X11.992 Y-19.309
X12.166 Y-19.408
X12.276 Y-19.459
X12.392 Y-19.49
X12.513 Y-19.5
X16.165
X16.472 Y-19.485
X16.689 Y-19.456
X16.91 Y-19.409
X17.165 Y-19.333
X17.421 Y-19.233
X17.696 Y-19.099
X17.991 Y-18.926
X18.286 Y-18.719
X18.574 Y-18.48
X18.863 Y-18.198
X19.142 Y-17.878
X19.363 Y-17.579
X19.438 Y-17.451
X19.484 Y-17.31
X19.5 Y-17.163
G3 X19.19 Y-16.874 I-0.3 J-0.01
X19.033 Y-16.924 I0.01 J-0.3
G1 X18.911 Y-17.006
X16.034 Y-18.934
X16.008 Y-18.951
G3 X15.926 Y-19.367 I0.167 J-0.249
X16.165 Y-19.5 I0.249 J0.167
G1 X17.867
X18.08 Y-19.489
X18.229 Y-19.47
X18.396 Y-19.433
X18.573 Y-19.379
X18.769 Y-19.302
X18.979 Y-19.199
X19.158 Y-19.092
X19.3 Y-18.981
X19.408 Y-18.837
X19.477 Y-18.67
X19.5 Y-18.491
G3 X19.19 Y-18.201 I-0.3 J-0.01
X19.06 Y-18.236 I0.01 J-0.3
G1 X18.902 Y-18.319
X17.737 Y-18.935
G3 X17.612 Y-19.34 I0.14 J-0.265
X17.867 Y-19.5 I0.265 J0.14
G1 X19.143
X19.214 Y-19.499
X19.249 Y-19.494
X19.285 Y-19.484
X19.309 Y-19.474
X19.334 Y-19.461
X19.359 Y-19.446
X19.384 Y-19.426
X19.426 Y-19.384
X19.446 Y-19.359
X19.461 Y-19.334
X19.474 Y-19.309
X19.484 Y-19.285
X19.494 Y-19.249
X19.499 Y-19.214
X19.5 Y-19.143
Y-12.336
X19.49 Y-12.132
X19.465 Y-11.945
X19.424 Y-11.751
X19.358 Y-11.531
X19.268 Y-11.3
X19.151 Y-11.058
X18.996 Y-10.795
X18.813 Y-10.535
X18.596 Y-10.273
X18.338 Y-10.009
X18.043 Y-9.751
X17.713 Y-9.507
X17.353 Y-9.284
X16.97 Y-9.086
X16.563 Y-8.916
X16.134 Y-8.776
X15.687 Y-8.668
X15.225 Y-8.596
X14.753 Y-8.561
X14.276 Y-8.564
X13.796 Y-8.605
X13.319 Y-8.685
X13.092 Y-8.742
X12.92 Y-8.811
X12.771 Y-8.924
X12.657 Y-9.071
X11.782 Y-10.587
G3 X11.906 Y-10.992 I0.265 J-0.141
X11.982 Y-11.02 I0.141 J0.265
G1 X12.21 Y-11.071
X18.882 Y-12.562
X19.135 Y-12.619
G3 X19.493 Y-12.391 I0.065 J0.293
X19.5 Y-12.336 I-0.293 J0.065
G1 Y-10.777
X19.493 Y-10.627
X19.471 Y-10.478
X19.435 Y-10.325
X19.381 Y-10.156
X19.304 Y-9.97
X19.205 Y-9.775
X19.075 Y-9.563
X18.913 Y-9.341
X18.718 Y-9.115
X18.474 Y-8.874
X18.198 Y-8.642
X17.882 Y-8.418
X17.516 Y-8.199
X17.104 Y-7.996
X16.654 Y-7.817
X16.175 Y-7.671
X15.676 Y-7.561
X15.155 Y-7.489
X14.614 Y-7.459
X14.089 Y-7.472
X13.903 Y-7.491
X13.691 Y-7.548
X13.507 Y-7.667
X13.369 Y-7.837
X12.657 Y-9.071
G3 X12.781 Y-9.477 I0.265 J-0.141
X12.85 Y-9.503 I0.141 J0.265
G1 X13.083 Y-9.561
X18.884 Y-10.997
X19.128 Y-11.057
G3 X19.491 Y-10.838 I0.072 J0.291
X19.5 Y-10.777 I-0.291 J0.072
G1 Y-9.5
X19.493 Y-9.351
X19.471 Y-9.202
X19.435 Y-9.057
X19.381 Y-8.897
X19.312 Y-8.736
X19.214 Y-8.549
X19.098 Y-8.366
X18.94 Y-8.157
X18.759 Y-7.953
X18.53 Y-7.733
X18.254 Y-7.508
X17.946 Y-7.295
X17.574 Y-7.08
X17.145 Y-6.877
X16.681 Y-6.7
X16.185 Y-6.556
X15.64 Y-6.445
X15.087 Y-6.377
X14.716 Y-6.361
X14.596 Y-6.366
X14.423 Y-6.395
X14.262 Y-6.466
X14.124 Y-6.575
X14.017 Y-6.716
X13.369 Y-7.837
G3 X13.493 Y-8.243 I0.265 J-0.141
X13.556 Y-8.268 I0.141 J0.265
G1 X13.794 Y-8.333
X18.885 Y-9.715
X19.122 Y-9.78
G3 X19.49 Y-9.569 I0.079 J0.29
X19.5 Y-9.5 I-0.29 J0.079
G1 Y-8.288
X19.493 Y-8.138
X19.469 Y-7.99
X19.43 Y-7.845
X19.378 Y-7.697
X19.305 Y-7.536
X19.21 Y-7.362
X19.09 Y-7.18
X18.936 Y-6.984
X18.75 Y-6.781
X18.523 Y-6.572
X18.241 Y-6.349
X17.933 Y-6.145
X17.558 Y-5.937
X17.114 Y-5.736
X16.639 Y-5.566
X16.123 Y-5.426
X15.711 Y-5.349
X15.386 Y-5.315
X15.248 Y-5.312
X15.063 Y-5.332
X14.889 Y-5.401
X14.74 Y-5.514
X14.626 Y-5.662
X14.017 Y-6.716
G3 X14.141 Y-7.121 I0.265 J-0.141
X14.199 Y-7.145 I0.141 J0.265
G1 X14.441 Y-7.215
X18.886 Y-8.499
X19.117 Y-8.566
G3 X19.488 Y-8.361 I0.083 J0.288
X19.5 Y-8.288 I-0.288 J0.083
G1 Y-7.09
X19.493 Y-6.94
X19.464 Y-6.793
X19.421 Y-6.649
X19.364 Y-6.502
X19.285 Y-6.338
X19.184 Y-6.168
X19.055 Y-5.984
X18.896 Y-5.792
X18.698 Y-5.588
X18.463 Y-5.383
X18.167 Y-5.163
X17.846 Y-4.963
X17.456 Y-4.762
X17.034 Y-4.585
X16.612 Y-4.447
X16.283 Y-4.368
X16.012 Y-4.325
X15.862 Y-4.314
X15.666 Y-4.327
X15.482 Y-4.393
X15.323 Y-4.508
X15.203 Y-4.662
X14.626 Y-5.662
G3 X14.75 Y-6.067 I0.265 J-0.141
X14.805 Y-6.09 I0.141 J0.265
G1 X15.049 Y-6.162
X18.887 Y-7.299
X19.115 Y-7.367
G3 X19.488 Y-7.165 I0.085 J0.288
X19.5 Y-7.09 I-0.288 J0.085
G1 Y-5.956
X19.493 Y-5.806
X19.464 Y-5.658
X19.422 Y-5.515
X19.362 Y-5.36
X19.287 Y-5.207
X19.182 Y-5.029
X19.06 Y-4.857
X18.895 Y-4.658
X18.71 Y-4.469
X18.471 Y-4.262
X18.197 Y-4.06
X17.888 Y-3.868
X17.552 Y-3.695
X17.212 Y-3.554
X16.929 Y-3.462
X16.674 Y-3.402
X16.469 Y-3.37
X16.408 Y-3.365
X16.213 Y-3.378
X16.029 Y-3.445
X15.871 Y-3.56
X15.75 Y-3.713
X15.203 Y-4.662
G3 X15.327 Y-5.068 I0.265 J-0.141
X15.38 Y-5.09 I0.141 J0.265
G1 X15.625 Y-5.165
X18.887 Y-6.163
X19.112 Y-6.232
G3 X19.487 Y-6.033 I0.088 J0.287
X19.5 Y-5.956 I-0.287 J0.088
G1 Y-4.821
X19.493 Y-4.671
X19.464 Y-4.524
X19.42 Y-4.38
X19.361 Y-4.231
X19.285 Y-4.077
X19.183 Y-3.905
X19.06 Y-3.734
X18.904 Y-3.548
X18.719 Y-3.36
X18.507 Y-3.178
X18.264 Y-3.001
X18.002 Y-2.84
X17.731 Y-2.703
X17.503 Y-2.609
X17.271 Y-2.535
X17.084 Y-2.492
X16.977 Y-2.476
X16.769
X16.57 Y-2.537
X16.397 Y-2.655
X16.267 Y-2.818
X15.75 Y-3.713
G3 X15.874 Y-4.119 I0.265 J-0.141
X15.929 Y-4.142 I0.141 J0.265
G1 X16.173 Y-4.215
X18.887 Y-5.03
X19.114 Y-5.098
G3 X19.488 Y-4.897 I0.086 J0.287
X19.5 Y-4.821 I-0.287 J0.086
G1 Y-3.751
X19.493 Y-3.601
X19.469 Y-3.453
X19.43 Y-3.308
X19.377 Y-3.167
X19.309 Y-3.021
X19.22 Y-2.866
X19.109 Y-2.703
X18.978 Y-2.54
X18.822 Y-2.375
X18.643 Y-2.215
X18.448 Y-2.066
X18.247 Y-1.937
X18.059 Y-1.837
X17.858 Y-1.75
X17.69 Y-1.692
X17.521 Y-1.649
X17.475 Y-1.641
X17.263 Y-1.637
X17.059 Y-1.697
X16.883 Y-1.815
X16.751 Y-1.981
X16.267 Y-2.818
G3 X16.391 Y-3.224 I0.265 J-0.141
X16.448 Y-3.247 I0.141 J0.265
G1 X16.691 Y-3.318
X18.886 Y-3.961
X19.116 Y-4.028
G3 X19.488 Y-3.824 I0.084 J0.288
X19.5 Y-3.751 I-0.288 J0.084
G1 Y-2.694
X19.493 Y-2.544
X19.472 Y-2.396
X19.434 Y-2.251
X19.381 Y-2.11
X19.317 Y-1.975
X19.236 Y-1.835
X19.138 Y-1.693
X19.024 Y-1.555
X18.893 Y-1.418
X18.745 Y-1.288
X18.601 Y-1.18
X18.452 Y-1.085
X18.294 Y-1.003
X18.154 Y-0.943
X18.011 Y-0.895
X17.967 Y-0.885
X17.743 Y-0.867
X17.525 Y-0.92
X17.335 Y-1.04
X17.193 Y-1.214
X16.751 Y-1.981
G3 X16.875 Y-2.387 I0.265 J-0.141
X16.941 Y-2.412 I0.141 J0.265
G1 X17.176 Y-2.473
X18.884 Y-2.912
X19.125 Y-2.974
G3 X19.491 Y-2.758 I0.075 J0.291
X19.5 Y-2.694 I-0.291 J0.075
G1 Y-1.624
X19.493 Y-1.474
X19.463 Y-1.327
X19.415 Y-1.184
X19.353 Y-1.048
X19.279 Y-0.918
X19.193 Y-0.795
X19.097 Y-0.679
X18.992 Y-0.572
X18.878 Y-0.474
X18.757 Y-0.387
X18.628 Y-0.309
X18.493 Y-0.244
X18.426 Y-0.219
X18.225 Y-0.176
X18.019 Y-0.193
X17.827 Y-0.269
X17.666 Y-0.398
X17.549 Y-0.567
X17.479 Y-0.709
X17.441 Y-0.781
X17.403 Y-0.851
X17.193 Y-1.214
G3 X17.317 Y-1.62 I0.265 J-0.141
X17.414 Y-1.652 I0.141 J0.265
G1 X17.624 Y-1.683
X18.879 Y-1.869
X19.156 Y-1.91
G3 X19.392 Y-1.844 I0.044 J0.297
X19.5 Y-1.624 I-0.192 J0.231
G1 Y-0.709
X19.493 Y-0.559
X19.459 Y-0.413
X19.407 Y-0.272
X19.338 Y-0.139
X19.253 Y-0.015
X19.155 Y0.098
X19.046 Y0.201
X18.925 Y0.29
X18.796 Y0.366
X18.659 Y0.427
X18.543 Y0.463
X18.331 Y0.495
X18.119 Y0.46
X17.928 Y0.361
X17.777 Y0.209
X17.68 Y0.017
X17.647 Y-0.195
G3 X17.837 Y-0.487 I0.3 J-0.012
G1 X18.222 Y-0.638
X18.893 Y-0.9
X19.091 Y-0.978
G3 X19.48 Y-0.808 I0.109 J0.279
X19.5 Y-0.709 I-0.279 J0.109
G1 Y0.078
X19.493 Y0.228
X19.456 Y0.373
X19.397 Y0.511
X19.319 Y0.639
X19.224 Y0.756
X19.117 Y0.86
X18.997 Y0.95
X18.866 Y1.024
X18.728 Y1.083
X18.584 Y1.124
X18.436 Y1.149
X18.286 Y1.157
X18.26 Y1.155
X18.063 Y1.113
X17.887 Y1.015
X17.746 Y0.872
X17.651 Y0.695
X17.611 Y0.498
X17.628 Y0.297
G3 X17.852 Y0.083 I0.289 J0.079
G1 X18.301 Y-0.017
X18.882 Y-0.148
X19.135 Y-0.204
G3 X19.493 Y0.023 I0.066 J0.293
X19.5 Y0.078 I-0.293 J0.066
G1 Y0.787
X19.493 Y0.937
X19.452 Y1.081
X19.388 Y1.217
X19.305 Y1.342
X19.206 Y1.454
X19.094 Y1.554
X18.971 Y1.64
X18.839 Y1.71
X18.699 Y1.766
X18.554 Y1.805
X18.406 Y1.827
X18.256 Y1.833
X18.107 Y1.821
X17.959 Y1.794
X17.816 Y1.75
X17.787 Y1.738
X17.595 Y1.614
X17.454 Y1.434
X17.377 Y1.219
X17.374 Y0.99
X17.445 Y0.773
X17.479 Y0.709
X17.549 Y0.567
X17.598 Y0.425
X17.628 Y0.297
G3 X17.775 Y0.112 I0.289 J0.079
X18.011 Y0.091 I0.142 J0.264
G1 X18.295 Y0.184
X18.895 Y0.381
X19.294 Y0.512
G3 X19.5 Y0.787 I-0.094 J0.285
G1 Y1.461
X19.493 Y1.611
X19.452 Y1.755
X19.388 Y1.891
X19.305 Y2.016
X19.206 Y2.129
X19.094 Y2.229
X18.972 Y2.315
X18.841 Y2.389
X18.704 Y2.449
X18.561 Y2.496
X18.415 Y2.529
X18.266 Y2.548
X18.116 Y2.552
X17.967 Y2.543
X17.819 Y2.519
X17.674 Y2.48
X17.533 Y2.427
X17.399 Y2.361
X17.329 Y2.316
X17.169 Y2.175
X17.059 Y1.993
X17.009 Y1.787
X17.023 Y1.574
X17.1 Y1.376
X17.403 Y0.851
X17.445 Y0.773
G3 X17.81 Y0.639 I0.261 J0.148
G1 X18.15 Y0.765
X18.9 Y1.041
X19.304 Y1.19
G3 X19.5 Y1.461 I-0.104 J0.281
G1 Y2.127
X19.493 Y2.277
X19.455 Y2.422
X19.394 Y2.559
X19.315 Y2.686
X19.22 Y2.803
X19.113 Y2.907
X18.995 Y3.
X18.868 Y3.081
X18.735 Y3.149
X18.596 Y3.206
X18.453 Y3.25
X18.302 Y3.283
X18.149 Y3.305
X17.995 Y3.313
X17.845 Y3.31
X17.696 Y3.294
X17.541 Y3.265
X17.396 Y3.225
X17.255 Y3.173
X17.12 Y3.109
X16.991 Y3.033
X16.869 Y2.946
X16.852 Y2.931
X16.727 Y2.786
X16.646 Y2.613
X16.614 Y2.423
X16.636 Y2.233
X16.708 Y2.055
X17.1 Y1.376
G3 X17.447 Y1.25 I0.254 J0.159
G1 X17.815 Y1.37
X18.895 Y1.722
X19.293 Y1.852
G3 X19.5 Y2.127 I-0.093 J0.285
G1 Y2.836
X19.493 Y2.986
X19.455 Y3.131
X19.396 Y3.269
X19.319 Y3.397
X19.227 Y3.516
X19.123 Y3.624
X19.008 Y3.721
X18.886 Y3.807
X18.756 Y3.883
X18.617 Y3.95
X18.464 Y4.008
X18.302 Y4.056
X18.134 Y4.091
X17.961 Y4.113
X17.781 Y4.121
X17.597 Y4.114
X17.41 Y4.092
X17.243 Y4.059
X17.086 Y4.014
X16.928 Y3.955
X16.792 Y3.892
X16.662 Y3.817
X16.538 Y3.732
X16.422 Y3.638
X16.409 Y3.626
X16.296 Y3.481
X16.224 Y3.311
X16.198 Y3.128
X16.222 Y2.945
X16.292 Y2.775
X16.708 Y2.055
G3 X17.044 Y1.925 I0.254 J0.159
G1 X17.428 Y2.034
X18.89 Y2.447
X19.282 Y2.558
G3 X19.5 Y2.836 I-0.082 J0.289
G1 Y3.545
X19.493 Y3.695
X19.462 Y3.842
X19.409 Y3.982
X19.337 Y4.114
X19.251 Y4.237
X19.153 Y4.35
X19.045 Y4.454
X18.928 Y4.548
X18.798 Y4.635
X18.651 Y4.718
X18.492 Y4.791
X18.321 Y4.854
X18.138 Y4.905
X17.945 Y4.942
X17.743 Y4.965
X17.537 Y4.971
X17.33 Y4.961
X17.122 Y4.934
X16.915 Y4.889
X16.731 Y4.834
X16.561 Y4.768
X16.4 Y4.69
X16.267 Y4.612
X16.132 Y4.517
X16.015 Y4.42
X15.974 Y4.38
X15.86 Y4.235
X15.788 Y4.065
X15.763 Y3.883
X15.786 Y3.7
X15.857 Y3.529
X16.292 Y2.775
G3 X16.615 Y2.642 I0.254 J0.159
G1 X17.017 Y2.736
X18.885 Y3.174
X19.269 Y3.263
G3 X19.5 Y3.545 I-0.068 J0.292
G1 Y4.332
X19.493 Y4.482
X19.46 Y4.628
X19.406 Y4.768
X19.336 Y4.901
X19.252 Y5.025
X19.157 Y5.141
X19.051 Y5.247
X18.933 Y5.349
X18.799 Y5.446
X18.644 Y5.54
X18.475 Y5.625
X18.294 Y5.699
X18.095 Y5.762
X17.879 Y5.811
X17.654 Y5.845
X17.423 Y5.86
X17.188 Y5.856
X16.953 Y5.834
X16.721 Y5.792
X16.493 Y5.733
X16.287 Y5.661
X16.099 Y5.577
X15.928 Y5.485
X15.788 Y5.394
X15.647 Y5.284
X15.532 Y5.18
X15.498 Y5.144
X15.374 Y4.959
X15.314 Y4.745
X15.324 Y4.523
X15.403 Y4.315
X15.857 Y3.529
G3 X16.173 Y3.395 I0.254 J0.159
G1 X16.583 Y3.481
X18.884 Y3.969
X19.262 Y4.049
G3 X19.5 Y4.332 I-0.062 J0.293
G1 Y5.105
X19.493 Y5.255
X19.467 Y5.402
X19.42 Y5.545
X19.356 Y5.681
X19.278 Y5.809
X19.188 Y5.929
X19.088 Y6.041
X18.972 Y6.151
X18.834 Y6.262
X18.683 Y6.365
X18.512 Y6.463
X18.318 Y6.554
X18.109 Y6.632
X17.887 Y6.695
X17.647 Y6.743
X17.392 Y6.773
X17.129 Y6.783
X16.862 Y6.771
X16.596 Y6.738
X16.338 Y6.684
X16.087 Y6.611
X15.847 Y6.519
X15.653 Y6.426
X15.463 Y6.316
X15.304 Y6.206
X15.178 Y6.102
X15.048 Y5.978
X15.016 Y5.941
X14.899 Y5.757
X14.844 Y5.547
X14.856 Y5.33
X14.934 Y5.127
X15.403 Y4.315
G3 X15.711 Y4.179 I0.254 J0.159
G1 X16.132 Y4.255
X18.881 Y4.753
X19.254 Y4.82
G3 X19.5 Y5.105 I-0.053 J0.295
G1 Y5.956
X19.493 Y6.105
X19.466 Y6.253
X19.419 Y6.396
X19.356 Y6.532
X19.28 Y6.661
X19.192 Y6.782
X19.088 Y6.904
X18.97 Y7.019
X18.829 Y7.138
X18.668 Y7.253
X18.491 Y7.358
X18.287 Y7.459
X18.06 Y7.549
X17.822 Y7.622
X17.562 Y7.679
X17.284 Y7.717
X16.992 Y7.734
X16.692 Y7.727
X16.394 Y7.695
X16.099 Y7.64
X15.815 Y7.563
X15.548 Y7.467
X15.295 Y7.352
X15.098 Y7.243
X14.904 Y7.114
X14.753 Y6.995
X14.627 Y6.879
X14.543 Y6.787
X14.421 Y6.603
X14.362 Y6.39
X14.373 Y6.169
X14.452 Y5.963
X14.934 Y5.127
G3 X15.239 Y4.991 I0.254 J0.159
G1 X15.664 Y5.063
X18.881 Y5.608
X19.25 Y5.67
G3 X19.5 Y5.956 I-0.05 J0.296
G1 Y6.884
X19.493 Y7.034
X19.458 Y7.18
X19.406 Y7.321
X19.339 Y7.455
X19.26 Y7.583
X19.169 Y7.705
X19.056 Y7.834
X18.929 Y7.956
X18.776 Y8.083
X18.6 Y8.205
X18.407 Y8.317
X18.184 Y8.425
X17.934 Y8.521
X17.672 Y8.598
X17.385 Y8.658
X17.075 Y8.698
X16.751 Y8.712
X16.418 Y8.701
X16.082 Y8.662
X15.755 Y8.598
X15.439 Y8.508
X15.142 Y8.398
X14.868 Y8.27
X14.643 Y8.143
X14.433 Y8.
X14.272 Y7.871
X14.141 Y7.746
X14.006 Y7.596
X13.907 Y7.417
X13.864 Y7.216
X13.881 Y7.012
X13.956 Y6.821
X14.452 Y5.963
G3 X14.757 Y5.826 I0.254 J0.159
G1 X15.181 Y5.899
X18.881 Y6.535
X19.251 Y6.599
G3 X19.5 Y6.884 I-0.051 J0.296
G1 Y7.735
X19.493 Y7.885
X19.466 Y8.033
X19.422 Y8.176
X19.362 Y8.313
X19.288 Y8.444
X19.203 Y8.57
X19.099 Y8.7
X18.972 Y8.834
X18.829 Y8.963
X18.655 Y9.096
X18.462 Y9.22
X18.243 Y9.338
X17.99 Y9.449
X17.715 Y9.544
X17.42 Y9.619
X17.096 Y9.676
X16.748 Y9.707
X16.386 Y9.711
X16.016 Y9.685
X15.646 Y9.629
X15.288 Y9.545
X14.945 Y9.435
X14.627 Y9.304
X14.336 Y9.156
X14.088 Y9.003
X13.894 Y8.861
X13.725 Y8.715
X13.597 Y8.585
X13.521 Y8.495
X13.411 Y8.313
X13.361 Y8.106
X13.375 Y7.893
X13.452 Y7.695
X13.956 Y6.821
G3 X14.256 Y6.684 I0.254 J0.159
G1 X14.687 Y6.75
X18.88 Y7.393
X19.246 Y7.449
G3 X19.5 Y7.735 I-0.045 J0.297
G1 Y8.65
X19.493 Y8.8
X19.468 Y8.948
X19.426 Y9.091
X19.367 Y9.23
X19.297 Y9.362
X19.209 Y9.497
X19.107 Y9.627
X18.978 Y9.769
X18.833 Y9.905
X18.659 Y10.042
X18.454 Y10.18
X18.233 Y10.304
X17.972 Y10.423
X17.676 Y10.531
X17.366 Y10.616
X17.023 Y10.682
X16.65 Y10.722
X16.257 Y10.733
X15.852 Y10.712
X15.444 Y10.657
X15.042 Y10.57
X14.657 Y10.454
X14.299 Y10.313
X13.97 Y10.153
X13.685 Y9.984
X13.466 Y9.829
X13.271 Y9.666
X13.131 Y9.529
X12.997 Y9.375
X12.98 Y9.351
X12.885 Y9.173
X12.844 Y8.975
X12.862 Y8.774
X12.937 Y8.586
X13.452 Y7.695
G3 X13.75 Y7.557 I0.254 J0.159
G1 X14.183 Y7.621
X18.879 Y8.31
X19.244 Y8.363
G3 X19.5 Y8.65 I-0.044 J0.297
G1 Y9.642
X19.493 Y9.792
X19.462 Y9.939
X19.415 Y10.081
X19.354 Y10.218
X19.28 Y10.349
X19.186 Y10.489
X19.077 Y10.627
X18.939 Y10.773
X18.779 Y10.918
X18.595 Y11.06
X18.372 Y11.205
X18.132 Y11.335
X17.853 Y11.458
X17.531 Y11.57
X17.187 Y11.66
X16.817 Y11.725
X16.411 Y11.764
X15.98 Y11.77
X15.535 Y11.74
X15.087 Y11.674
X14.646 Y11.572
X14.224 Y11.438
X13.835 Y11.279
X13.48 Y11.1
X13.174 Y10.912
X12.945 Y10.746
X12.744 Y10.574
X12.597 Y10.425
X12.469 Y10.273
X12.451 Y10.249
X12.359 Y10.071
X12.321 Y9.876
X12.34 Y9.677
X12.414 Y9.492
X12.937 Y8.586
G3 X13.236 Y8.449 I0.254 J0.159
G1 X13.668 Y8.514
X18.88 Y9.301
X19.245 Y9.356
G3 X19.5 Y9.642 I-0.045 J0.297
G1 Y10.571
X19.493 Y10.721
X19.468 Y10.869
X19.426 Y11.013
X19.369 Y11.152
X19.299 Y11.287
X19.215 Y11.42
X19.106 Y11.567
X18.98 Y11.711
X18.822 Y11.863
X18.639 Y12.014
X18.429 Y12.161
X18.176 Y12.309
X17.903 Y12.44
X17.589 Y12.561
X17.227 Y12.668
X16.832 Y12.751
X16.42 Y12.804
X15.969 Y12.825
X15.492 Y12.809
X15.002 Y12.753
X14.514 Y12.657
X14.039 Y12.523
X13.59 Y12.356
X13.185 Y12.168
X12.836 Y11.97
X12.538 Y11.768
X12.325 Y11.597
X12.138 Y11.421
X12.005 Y11.273
X11.936 Y11.183
X11.837 Y11.003
X11.793 Y10.803
X11.81 Y10.598
X11.886 Y10.407
X12.414 Y9.492
G3 X12.711 Y9.354 I0.254 J0.159
G1 X13.146 Y9.416
X18.879 Y10.233
X19.243 Y10.285
G3 X19.5 Y10.571 I-0.042 J0.297
G1 Y11.564
X19.493 Y11.713
X19.467 Y11.861
X19.425 Y12.005
X19.368 Y12.144
X19.299 Y12.278
X19.21 Y12.421
X19.102 Y12.566
X18.967 Y12.721
X18.812 Y12.872
X18.617 Y13.034
X18.404 Y13.184
X18.144 Y13.337
X17.844 Y13.482
X17.524 Y13.607
X17.15 Y13.719
X16.726 Y13.809
X16.272 Y13.869
X15.799 Y13.892
X15.289 Y13.877
X14.758 Y13.818
X14.223 Y13.714
X13.701 Y13.569
X13.209 Y13.388
X12.761 Y13.182
X12.387 Y12.971
X12.064 Y12.753
X11.828 Y12.566
X11.628 Y12.377
X11.488 Y12.224
X11.402 Y12.112
X11.302 Y11.932
X11.258 Y11.731
X11.275 Y11.526
X11.35 Y11.335
X11.886 Y10.407
G3 X12.183 Y10.269 I0.254 J0.159
G1 X12.617 Y10.331
X18.879 Y11.225
X19.243 Y11.277
G3 X19.5 Y11.564 I-0.042 J0.297
G1 Y12.556
X19.493 Y12.706
X19.469 Y12.854
X19.427 Y12.998
X19.372 Y13.138
X19.302 Y13.277
X19.217 Y13.418
X19.105 Y13.572
X18.973 Y13.726
X18.813 Y13.886
X18.62 Y14.049
X18.401 Y14.206
X18.129 Y14.37
X17.837 Y14.515
X17.493 Y14.653
X17.096 Y14.777
X16.662 Y14.874
X16.201 Y14.939
X15.687 Y14.97
X15.133 Y14.959
X14.558 Y14.9
X13.978 Y14.794
X13.411 Y14.643
X12.878 Y14.453
X12.388 Y14.233
X11.962 Y13.999
X11.614 Y13.769
X11.346 Y13.56
X11.125 Y13.358
X10.975 Y13.195
X10.84 Y13.023
X10.831 Y13.011
X10.748 Y12.836
X10.715 Y12.645
X10.736 Y12.453
X10.808 Y12.273
X11.35 Y11.335
G3 X11.647 Y11.197 I0.254 J0.159
G1 X12.082 Y11.258
X18.879 Y12.218
X19.242 Y12.27
G3 X19.5 Y12.556 I-0.042 J0.297
G1 Y13.613
X19.493 Y13.762
X19.463 Y13.91
X19.418 Y14.053
X19.36 Y14.191
X19.286 Y14.332
X19.191 Y14.482
X19.075 Y14.636
X18.93 Y14.8
X18.762 Y14.962
X18.55 Y15.135
X18.318 Y15.295
X18.03 Y15.462
X17.705 Y15.617
X17.347 Y15.753
X16.923 Y15.877
X16.44 Y15.976
X15.939 Y16.038
X15.386 Y16.062
X14.788 Y16.039
X14.169 Y15.966
X13.557 Y15.843
X12.957 Y15.673
X12.383 Y15.46
X11.863 Y15.217
X11.422 Y14.967
X11.062 Y14.723
X10.773 Y14.491
X10.566 Y14.295
X10.409 Y14.121
X10.279 Y13.95
X10.198 Y13.777
X10.168 Y13.588
X10.189 Y13.398
X10.261 Y13.221
X10.808 Y12.273
G3 X11.106 Y12.136 I0.254 J0.159
G1 X11.54 Y12.199
X18.879 Y13.273
X19.244 Y13.326
G3 X19.5 Y13.613 I-0.043 J0.297
G1 Y14.605
X19.493 Y14.755
X19.468 Y14.903
X19.428 Y15.047
X19.373 Y15.187
X19.303 Y15.33
X19.215 Y15.478
X19.102 Y15.636
X18.966 Y15.798
X18.796 Y15.97
X18.604 Y16.135
X18.36 Y16.313
X18.095 Y16.476
X17.768 Y16.642
X17.385 Y16.799
X16.982 Y16.928
X16.509 Y17.038
X15.968 Y17.119
X15.373 Y17.159
X14.759 Y17.152
X14.138 Y17.094
X13.523 Y16.989
X12.917 Y16.839
X12.324 Y16.646
X11.746 Y16.41
X11.216 Y16.143
X10.785 Y15.881
X10.424 Y15.62
X10.161 Y15.395
X9.96 Y15.194
X9.817 Y15.025
X9.75 Y14.931
X9.657 Y14.754
X9.619 Y14.557
X9.638 Y14.358
X9.712 Y14.173
X10.261 Y13.221
G3 X10.558 Y13.083 I0.254 J0.159
G1 X10.993 Y13.145
X18.879 Y14.267
X19.242 Y14.319
G3 X19.5 Y14.605 I-0.042 J0.297
G1 Y15.676
X19.493 Y15.826
X19.465 Y15.973
X19.421 Y16.117
X19.365 Y16.256
X19.29 Y16.403
X19.198 Y16.552
X19.077 Y16.718
X18.936 Y16.881
X18.756 Y17.059
X18.548 Y17.233
X18.302 Y17.408
X17.999 Y17.589
X17.675 Y17.748
X17.275 Y17.906
X16.807 Y18.05
X16.317 Y18.157
X15.752 Y18.235
X15.129 Y18.269
X14.505 Y18.254
X13.884 Y18.192
X13.269 Y18.088
X12.662 Y17.944
X12.066 Y17.759
X11.484 Y17.533
X10.92 Y17.266
X10.435 Y16.989
X10.024 Y16.708
X9.711 Y16.455
X9.482 Y16.238
X9.319 Y16.056
X9.185 Y15.879
X9.144 Y15.816
X9.054 Y15.606
X9.036 Y15.379
X9.093 Y15.158
X9.217 Y14.967
X9.284 Y14.889
X9.377 Y14.747
X9.462 Y14.605
X9.712 Y14.173
G3 X10.01 Y14.035 I0.254 J0.159
G1 X10.443 Y14.098
X18.879 Y15.336
X19.244 Y15.389
G3 X19.5 Y15.676 I-0.044 J0.297
G1 Y16.732
X19.493 Y16.882
X19.464 Y17.029
X19.421 Y17.173
X19.364 Y17.312
X19.288 Y17.462
X19.194 Y17.615
X19.072 Y17.783
X18.93 Y17.948
X18.745 Y18.131
X18.539 Y18.304
X18.271 Y18.495
X17.981 Y18.668
X17.629 Y18.842
X17.205 Y19.01
X16.759 Y19.147
X16.23 Y19.264
X15.632 Y19.346
X15.01 Y19.382
X14.386 Y19.37
X13.764 Y19.316
X13.147 Y19.222
X12.538 Y19.088
X11.938 Y18.915
X11.351 Y18.706
X10.777 Y18.459
X10.223 Y18.174
X9.737 Y17.874
X9.357 Y17.596
X9.054 Y17.335
X8.847 Y17.125
X8.678 Y16.924
X8.563 Y16.761
X8.454 Y16.578
X8.372 Y16.412
X8.314 Y16.265
X8.298 Y16.21
X8.267 Y16.013
X8.293 Y15.816
X8.375 Y15.633
X8.504 Y15.481
X8.671 Y15.372
X8.719 Y15.356
X8.769 Y15.349
X8.819 Y15.35
X9.449 Y15.416
X18.877 Y16.407
X19.232 Y16.444
G3 X19.5 Y16.732 I-0.031 J0.298
G1 Y17.803
X19.493 Y17.953
X19.464 Y18.1
X19.419 Y18.243
X19.363 Y18.382
X19.286 Y18.533
X19.19 Y18.689
X19.068 Y18.857
X18.92 Y19.029
X18.734 Y19.212
X18.587 Y19.336
X18.451 Y19.425
X18.298 Y19.481
X18.136 Y19.5
G3 X17.847 Y19.19 I0.01 J-0.3
X17.908 Y19.019 I0.3 J0.01
G1 X17.986 Y18.915
X18.932 Y17.67
X18.961 Y17.632
G3 X19.382 Y17.574 I0.239 J0.181
X19.5 Y17.803 I-0.181 J0.239
G1 Y18.859
X19.493 Y19.009
X19.42 Y19.203
X19.287 Y19.361
X19.107 Y19.464
X18.903 Y19.5
G3 X18.614 Y19.19 I0.01 J-0.3
X18.687 Y19.004 I0.3 J0.01
G1 X18.759 Y18.92
X18.929 Y18.724
X18.974 Y18.673
G3 X19.397 Y18.643 I0.227 J0.197
X19.5 Y18.859 I-0.197 J0.227
G1 Y19.143
X19.499 Y19.214
X19.494 Y19.249
X19.484 Y19.285
X19.474 Y19.309
X19.461 Y19.334
X19.446 Y19.359
X19.426 Y19.384
X19.384 Y19.426
X19.359 Y19.446
X19.334 Y19.461
X19.309 Y19.474
X19.285 Y19.484
X19.249 Y19.494
X19.214 Y19.499
X19.143 Y19.5
X11.486
X11.197 Y19.486
X10.908 Y19.448
X10.599 Y19.382
X10.241 Y19.274
X9.853 Y19.123
X9.469 Y18.937
X9.1 Y18.719
X8.768 Y18.487
X8.48 Y18.248
X8.226 Y17.999
X8.009 Y17.751
X7.847 Y17.531
X7.714 Y17.318
X7.616 Y17.128
X7.544 Y16.955
X7.483 Y16.771
X7.446 Y16.613
X7.42 Y16.451
X7.408 Y16.288
X7.409 Y16.202
X7.442 Y15.991
X7.537 Y15.799
X7.685 Y15.644
X7.873 Y15.54
X8.083 Y15.497
X8.224 Y15.489
X8.398 Y15.461
X8.425 Y15.456
X8.508 Y15.431
X8.65 Y15.382
X8.671 Y15.372
G3 X9.027 Y15.467 I0.117 J0.276
G1 X9.261 Y15.776
X11.636 Y18.915
X11.714 Y19.019
G3 X11.656 Y19.439 I-0.239 J0.181
X11.486 Y19.5 I-0.181 J-0.239
G1 X9.359
X9.209 Y19.493
X9.03 Y19.464
X8.843 Y19.419
X8.63 Y19.349
X8.418 Y19.259
X8.186 Y19.138
X7.951 Y18.991
X7.724 Y18.822
X7.507 Y18.632
X7.306 Y18.425
X7.126 Y18.207
X6.967 Y17.98
X6.832 Y17.748
X6.718 Y17.511
X6.633 Y17.29
X6.568 Y17.073
X6.526 Y16.873
X6.504 Y16.703
X6.495 Y16.517
X6.501 Y16.351
X6.518 Y16.202
X6.55 Y16.043
X6.56 Y16.006
X6.656 Y15.802
X6.811 Y15.639
X7.011 Y15.533
X7.233 Y15.497
X8.083
G3 X8.353 Y15.691 I-0.01 J0.3
G1 X8.505 Y16.096
X9.553 Y18.892
X9.629 Y19.095
G3 X9.454 Y19.481 I-0.281 J0.105
X9.359 Y19.5 I-0.105 J-0.281
G1 X7.941
X7.791 Y19.493
X7.643 Y19.467
X7.498 Y19.428
X7.342 Y19.372
X7.178 Y19.298
X7.01 Y19.205
X6.831 Y19.087
X6.655 Y18.949
X6.482 Y18.789
X6.313 Y18.606
X6.153 Y18.402
X6.008 Y18.183
X5.882 Y17.955
X5.775 Y17.717
X5.688 Y17.475
X5.623 Y17.232
X5.578 Y16.988
X5.557 Y16.784
X5.552 Y16.57
X5.563 Y16.382
X5.585 Y16.223
X5.623 Y16.052
X5.642 Y15.991
X5.74 Y15.792
X5.895 Y15.634
X6.092 Y15.532
X6.311 Y15.497
X7.233
G3 X7.517 Y15.736 I-0.01 J0.3
G1 X7.595 Y16.114
X8.17 Y18.881
X8.224 Y19.139
G3 X7.991 Y19.494 I-0.294 J0.061
X7.941 Y19.5 I-0.061 J-0.294
G1 X6.806
X6.657 Y19.493
X6.508 Y19.469
X6.363 Y19.43
X6.223 Y19.378
X6.082 Y19.312
X5.93 Y19.225
X5.782 Y19.123
X5.625 Y18.996
X5.468 Y18.846
X5.319 Y18.68
X5.174 Y18.488
X5.037 Y18.273
X4.915 Y18.043
X4.81 Y17.8
X4.724 Y17.548
X4.661 Y17.295
X4.618 Y17.04
X4.598 Y16.81
X4.597 Y16.592
X4.612 Y16.388
X4.638 Y16.221
X4.679 Y16.048
X4.701 Y15.98
X4.801 Y15.785
X4.956 Y15.63
X5.151 Y15.531
X5.367 Y15.497
X6.311
G3 X6.597 Y15.754 I-0.01 J0.3
G1 X6.65 Y16.118
X7.052 Y18.879
X7.093 Y19.157
G3 X7.026 Y19.392 I-0.297 J0.043
X6.806 Y19.5 I-0.23 J-0.192
G1 X5.736
X5.586 Y19.493
X5.438 Y19.467
X5.294 Y19.425
X5.155 Y19.369
X5.021 Y19.301
X4.881 Y19.215
X4.734 Y19.107
X4.59 Y18.984
X4.442 Y18.833
X4.297 Y18.661
X4.162 Y18.471
X4.033 Y18.256
X3.918 Y18.022
X3.82 Y17.774
X3.741 Y17.516
X3.684 Y17.257
X3.648 Y16.995
X3.635 Y16.765
X3.64 Y16.54
X3.661 Y16.34
X3.692 Y16.174
X3.74 Y15.997
X3.754 Y15.96
X3.856 Y15.772
X4.01 Y15.624
X4.201 Y15.53
X4.412 Y15.497
X5.367
G3 X5.655 Y15.764 I-0.01 J0.3
G1 X5.693 Y16.119
X5.992 Y18.877
X6.024 Y19.168
G3 X5.952 Y19.397 I-0.298 J0.032
X5.736 Y19.5 I-0.227 J-0.196
G1 X4.743
X4.593 Y19.493
X4.445 Y19.469
X4.301 Y19.428
X4.162 Y19.372
X4.028 Y19.304
X3.889 Y19.217
X3.751 Y19.116
X3.608 Y18.992
X3.462 Y18.842
X3.325 Y18.678
X3.191 Y18.487
X3.063 Y18.27
X2.949 Y18.036
X2.852 Y17.789
X2.775 Y17.53
X2.718 Y17.266
X2.683 Y17.002
X2.671 Y16.763
X2.677 Y16.546
X2.7 Y16.337
X2.733 Y16.169
X2.781 Y15.995
X2.795 Y15.957
X2.897 Y15.77
X3.051 Y15.623
X3.242 Y15.529
X3.452 Y15.497
X4.412
G3 X4.7 Y15.768 I-0.01 J0.3
G1 X4.735 Y16.12
X5.003 Y18.877
X5.031 Y19.171
G3 X4.958 Y19.398 I-0.299 J0.029
X4.743 Y19.5 I-0.226 J-0.198
G1 X3.751
X3.601 Y19.493
X3.453 Y19.468
X3.309 Y19.425
X3.17 Y19.368
X3.037 Y19.299
X2.901 Y19.212
X2.762 Y19.108
X2.623 Y18.984
X2.478 Y18.833
X2.343 Y18.667
X2.211 Y18.476
X2.085 Y18.258
X1.973 Y18.021
X1.878 Y17.772
X1.803 Y17.512
X1.749 Y17.247
X1.716 Y16.982
X1.706 Y16.745
X1.715 Y16.526
X1.74 Y16.319
X1.774 Y16.152
X1.824 Y15.977
X1.834 Y15.95
X1.937 Y15.766
X2.091 Y15.621
X2.28 Y15.529
X2.489 Y15.497
X3.452
G3 X3.74 Y15.771 I-0.01 J0.3
G1 X3.771 Y16.12
X4.013 Y18.877
X4.039 Y19.174
G3 X3.965 Y19.399 I-0.299 J0.026
X3.751 Y19.5 I-0.225 J-0.199
G1 X2.758
X2.608 Y19.493
X2.461 Y19.465
X2.317 Y19.421
X2.18 Y19.362
X2.048 Y19.29
X1.911 Y19.201
X1.773 Y19.094
X1.634 Y18.968
X1.49 Y18.814
X1.356 Y18.645
X1.226 Y18.451
X1.102 Y18.23
X0.992 Y17.991
X0.901 Y17.74
X0.828 Y17.478
X0.777 Y17.212
X0.748 Y16.947
X0.742 Y16.713
X0.753 Y16.494
X0.78 Y16.292
X0.815 Y16.127
X0.868 Y15.952
X0.872 Y15.942
X0.976 Y15.761
X1.129 Y15.619
X1.318 Y15.528
X1.524 Y15.497
X2.489
G3 X2.778 Y15.773 I-0.01 J0.3
G1 X2.805 Y16.12
X3.023 Y18.877
X3.047 Y19.177
G3 X2.971 Y19.4 I-0.299 J0.024
X2.758 Y19.5 I-0.224 J-0.2
G1 X1.765
X1.616 Y19.493
X1.469 Y19.462
X1.326 Y19.415
X1.189 Y19.354
X1.058 Y19.281
X0.92 Y19.188
X0.783 Y19.079
X0.644 Y18.948
X0.501 Y18.791
X0.368 Y18.618
X0.239 Y18.42
X0.117 Y18.195
X0.01 Y17.954
X-0.079 Y17.699
X-0.147 Y17.436
X-0.195 Y17.17
X-0.22 Y16.904
X-0.223 Y16.676
X-0.209 Y16.457
X-0.18 Y16.261
X-0.142 Y16.098
X-0.107 Y15.986
X-0.008 Y15.789
X0.147 Y15.632
X0.343 Y15.532
X0.561 Y15.497
X1.524
G3 X1.813 Y15.776 I-0.01 J0.3
G1 X1.837 Y16.121
X2.033 Y18.876
X2.054 Y19.179
G3 X1.978 Y19.401 I-0.299 J0.021
X1.765 Y19.5 I-0.223 J-0.201
G1 X0.851
X0.701 Y19.493
X0.553 Y19.469
X0.409 Y19.428
X0.269 Y19.372
X0.136 Y19.303
X0.003 Y19.219
X-0.132 Y19.118
X-0.275 Y18.992
X-0.411 Y18.852
X-0.549 Y18.684
X-0.683 Y18.49
X-0.804 Y18.281
X-0.916 Y18.048
X-1.011 Y17.799
X-1.088 Y17.538
X-1.144 Y17.27
X-1.177 Y17.005
X-1.188 Y16.767
X-1.179 Y16.533
X-1.156 Y16.332
X-1.122 Y16.164
X-1.071 Y15.983
X-1.059 Y15.952
X-0.956 Y15.767
X-0.803 Y15.622
X-0.613 Y15.529
X-0.404 Y15.497
X0.561
G3 X0.849 Y15.771 I-0.01 J0.3
G1 X0.879 Y16.12
X1.114 Y18.877
X1.139 Y19.175
G3 X1.065 Y19.399 I-0.299 J0.025
X0.851 Y19.5 I-0.224 J-0.199
G1 X-0.142
X-0.292 Y19.493
X-0.439 Y19.466
X-0.583 Y19.421
X-0.72 Y19.363
X-0.853 Y19.291
X-0.986 Y19.204
X-1.126 Y19.097
X-1.262 Y18.973
X-1.404 Y18.821
X-1.539 Y18.651
X-1.668 Y18.459
X-1.791 Y18.239
X-1.901 Y18.001
X-1.993 Y17.748
X-2.066 Y17.486
X-2.117 Y17.22
X-2.146 Y16.953
X-2.153 Y16.719
X-2.142 Y16.498
X-2.115 Y16.295
X-2.079 Y16.129
X-2.026 Y15.954
X-2.022 Y15.942
X-1.917 Y15.761
X-1.764 Y15.619
X-1.576 Y15.528
X-1.37 Y15.497
X-0.404
G3 X-0.115 Y15.774 I-0.01 J0.3
G1 X-0.088 Y16.12
X0.124 Y18.876
X0.147 Y19.177
G3 X0.071 Y19.4 I-0.299 J0.023
X-0.142 Y19.5 I-0.224 J-0.2
G1 X-1.134
X-1.284 Y19.493
X-1.431 Y19.462
X-1.573 Y19.415
X-1.71 Y19.353
X-1.841 Y19.28
X-1.978 Y19.188
X-2.116 Y19.078
X-2.254 Y18.948
X-2.397 Y18.79
X-2.53 Y18.617
X-2.658 Y18.419
X-2.779 Y18.195
X-2.886 Y17.953
X-2.974 Y17.698
X-3.043 Y17.434
X-3.09 Y17.168
X-3.115 Y16.902
X-3.118 Y16.675
X-3.103 Y16.455
X-3.074 Y16.259
X-3.036 Y16.096
X-3.001 Y15.985
X-2.902 Y15.788
X-2.747 Y15.632
X-2.551 Y15.532
X-2.334 Y15.497
X-1.37
G3 X-1.081 Y15.776 I-0.01 J0.3
G1 X-1.057 Y16.121
X-0.867 Y18.876
X-0.846 Y19.179
G3 X-0.922 Y19.401 I-0.299 J0.021
X-1.134 Y19.5 I-0.223 J-0.201
G1 X-2.063
X-2.213 Y19.493
X-2.361 Y19.467
X-2.504 Y19.424
X-2.643 Y19.366
X-2.775 Y19.296
X-2.911 Y19.209
X-3.045 Y19.106
X-3.188 Y18.977
X-3.324 Y18.833
X-3.46 Y18.663
X-3.594 Y18.466
X-3.715 Y18.253
X-3.824 Y18.019
X-3.917 Y17.769
X-3.991 Y17.506
X-4.044 Y17.238
X-4.075 Y16.972
X-4.083 Y16.74
X-4.072 Y16.505
X-4.047 Y16.309
X-4.012 Y16.142
X-3.958 Y15.961
X-3.952 Y15.945
X-3.848 Y15.763
X-3.695 Y15.62
X-3.506 Y15.528
X-3.299 Y15.497
X-2.334
G3 X-2.045 Y15.773 I-0.01 J0.3
G1 X-2.017 Y16.12
X-1.798 Y18.877
X-1.775 Y19.176
G3 X-1.85 Y19.4 I-0.299 J0.024
X-2.063 Y19.5 I-0.224 J-0.2
G1 X-3.056
X-3.206 Y19.493
X-3.353 Y19.463
X-3.495 Y19.417
X-3.633 Y19.356
X-3.764 Y19.284
X-3.899 Y19.194
X-4.038 Y19.084
X-4.175 Y18.957
X-4.317 Y18.802
X-4.451 Y18.63
X-4.579 Y18.434
X-4.701 Y18.212
X-4.809 Y17.971
X-4.899 Y17.717
X-4.969 Y17.453
X-5.017 Y17.187
X-5.043 Y16.92
X-5.048 Y16.69
X-5.034 Y16.47
X-5.006 Y16.272
X-4.969 Y16.108
X-4.931 Y15.988
X-4.833 Y15.79
X-4.678 Y15.633
X-4.481 Y15.532
X-4.263 Y15.497
X-3.299
G3 X-3.01 Y15.775 I-0.01 J0.3
G1 X-2.985 Y16.121
X-2.789 Y18.876
X-2.767 Y19.179
G3 X-2.843 Y19.401 I-0.299 J0.021
X-3.056 Y19.5 I-0.223 J-0.201
G1 X-3.97
X-4.12 Y19.493
X-4.269 Y19.47
X-4.413 Y19.43
X-4.552 Y19.374
X-4.686 Y19.306
X-4.82 Y19.222
X-4.953 Y19.122
X-5.096 Y18.997
X-5.232 Y18.857
X-5.369 Y18.69
X-5.504 Y18.497
X-5.626 Y18.289
X-5.737 Y18.057
X-5.833 Y17.809
X-5.91 Y17.548
X-5.967 Y17.28
X-6.001 Y17.014
X-6.012 Y16.775
X-6.004 Y16.54
X-5.981 Y16.338
X-5.948 Y16.169
X-5.897 Y15.988
X-5.884 Y15.954
X-5.781 Y15.768
X-5.627 Y15.622
X-5.437 Y15.529
X-5.228 Y15.497
X-4.263
G3 X-3.975 Y15.771 I-0.01 J0.3
G1 X-3.945 Y16.12
X-3.708 Y18.877
X-3.682 Y19.174
G3 X-3.756 Y19.399 I-0.299 J0.026
X-3.97 Y19.5 I-0.225 J-0.199
G1 X-4.963
X-5.113 Y19.493
X-5.26 Y19.466
X-5.404 Y19.423
X-5.542 Y19.364
X-5.674 Y19.293
X-5.807 Y19.207
X-5.947 Y19.1
X-6.083 Y18.977
X-6.225 Y18.826
X-6.36 Y18.656
X-6.489 Y18.465
X-6.612 Y18.247
X-6.722 Y18.009
X-6.815 Y17.757
X-6.888 Y17.494
X-6.94 Y17.228
X-6.97 Y16.962
X-6.977 Y16.726
X-6.966 Y16.505
X-6.94 Y16.301
X-6.905 Y16.135
X-6.852 Y15.959
X-6.846 Y15.944
X-6.742 Y15.762
X-6.589 Y15.619
X-6.401 Y15.528
X-6.194 Y15.497
X-5.228
G3 X-4.939 Y15.774 I-0.01 J0.3
G1 X-4.912 Y16.12
X-4.698 Y18.876
X-4.674 Y19.177
G3 X-4.75 Y19.4 I-0.299 J0.023
X-4.963 Y19.5 I-0.224 J-0.2
G1 X-5.956
X-6.105 Y19.493
X-6.252 Y19.462
X-6.395 Y19.416
X-6.532 Y19.354
X-6.663 Y19.281
X-6.799 Y19.19
X-6.937 Y19.08
X-7.075 Y18.951
X-7.218 Y18.794
X-7.351 Y18.622
X-7.479 Y18.425
X-7.601 Y18.201
X-7.708 Y17.959
X-7.797 Y17.705
X-7.866 Y17.441
X-7.913 Y17.175
X-7.939 Y16.909
X-7.942 Y16.681
X-7.928 Y16.46
X-7.899 Y16.264
X-7.861 Y16.1
X-7.825 Y15.986
X-7.726 Y15.789
X-7.571 Y15.632
X-7.375 Y15.532
X-7.158 Y15.497
X-6.194
G3 X-5.905 Y15.776 I-0.01 J0.3
G1 X-5.881 Y16.121
X-5.688 Y18.876
X-5.667 Y19.179
G3 X-5.743 Y19.401 I-0.299 J0.021
X-5.956 Y19.5 I-0.223 J-0.201
G1 X-6.884
X-7.034 Y19.493
X-7.182 Y19.468
X-7.326 Y19.425
X-7.464 Y19.367
X-7.597 Y19.297
X-7.732 Y19.21
X-7.866 Y19.108
X-8.009 Y18.98
X-8.145 Y18.836
X-8.282 Y18.667
X-8.416 Y18.471
X-8.537 Y18.257
X-8.646 Y18.024
X-8.739 Y17.774
X-8.814 Y17.512
X-8.867 Y17.244
X-8.898 Y16.978
X-8.907 Y16.745
X-8.896 Y16.51
X-8.872 Y16.313
X-8.837 Y16.146
X-8.784 Y15.965
X-8.776 Y15.945
X-8.667 Y15.755
X-8.504 Y15.609
X-8.304 Y15.52
X-8.086 Y15.497
X-7.158
G3 X-6.869 Y15.773 I-0.01 J0.3
G1 X-6.841 Y16.12
X-6.62 Y18.877
X-6.596 Y19.176
G3 X-6.671 Y19.4 I-0.299 J0.024
X-6.884 Y19.5 I-0.224 J-0.2
G1 X-7.877
X-8.027 Y19.493
X-8.174 Y19.464
X-8.317 Y19.418
X-8.454 Y19.357
X-8.586 Y19.285
X-8.721 Y19.195
X-8.859 Y19.087
X-8.996 Y18.96
X-9.138 Y18.805
X-9.272 Y18.634
X-9.401 Y18.439
X-9.523 Y18.217
X-9.631 Y17.977
X-9.721 Y17.723
X-9.791 Y17.459
X-9.84 Y17.193
X-9.867 Y16.926
X-9.872 Y16.695
X-9.859 Y16.477
X-9.83 Y16.274
X-9.793 Y16.11
X-9.74 Y15.938
X-9.677 Y15.781
X-9.61 Y15.647
X-9.599 Y15.628
X-9.469 Y15.471
X-9.299 Y15.358
X-9.103 Y15.298
X-8.899
X-8.704 Y15.357
X-8.651 Y15.391
X-8.607 Y15.435
X-8.573 Y15.488
X-8.55 Y15.547
X-8.413 Y16.062
X-7.661 Y18.885
X-7.597 Y19.123
G3 X-7.81 Y19.49 I-0.29 J0.077
X-7.877 Y19.5 I-0.077 J-0.29
G1 X-8.792
X-8.941 Y19.493
X-9.09 Y19.471
X-9.234 Y19.431
X-9.374 Y19.375
X-9.507 Y19.307
X-9.641 Y19.223
X-9.775 Y19.124
X-9.918 Y18.999
X-10.053 Y18.86
X-10.191 Y18.694
X-10.325 Y18.501
X-10.448 Y18.293
X-10.559 Y18.062
X-10.655 Y17.814
X-10.733 Y17.553
X-10.79 Y17.285
X-10.824 Y17.019
X-10.837 Y16.753
X-10.829 Y16.491
X-10.802 Y16.25
X-10.762 Y16.048
X-10.705 Y15.844
X-10.646 Y15.682
X-10.572 Y15.524
X-10.488 Y15.375
X-10.404 Y15.251
X-10.308 Y15.131
X-10.203 Y15.02
X-10.152 Y14.974
X-9.97 Y14.855
X-9.759 Y14.798
X-9.542 Y14.809
X-9.338 Y14.886
X-9.167 Y15.022
X-9.135 Y15.067
X-9.112 Y15.118
X-9.099 Y15.172
X-9.008 Y15.783
X-8.547 Y18.879
X-8.505 Y19.156
G3 X-8.571 Y19.392 I-0.297 J0.044
X-8.792 Y19.5 I-0.231 J-0.192
G1 X-9.784
X-9.934 Y19.493
X-10.082 Y19.467
X-10.225 Y19.423
X-10.364 Y19.365
X-10.496 Y19.295
X-10.629 Y19.209
X-10.768 Y19.102
X-10.904 Y18.979
X-11.046 Y18.829
X-11.181 Y18.66
X-11.31 Y18.469
X-11.434 Y18.252
X-11.546 Y18.011
X-11.641 Y17.754
X-11.717 Y17.483
X-11.772 Y17.199
X-11.805 Y16.912
X-11.815 Y16.624
X-11.801 Y16.345
X-11.767 Y16.075
X-11.712 Y15.816
X-11.639 Y15.571
X-11.549 Y15.336
X-11.452 Y15.136
X-11.343 Y14.949
X-11.229 Y14.786
X-11.124 Y14.659
X-11. Y14.53
X-10.875 Y14.421
X-10.754 Y14.331
X-10.624 Y14.25
X-10.488 Y14.18
X-10.427 Y14.155
X-10.232 Y14.105
X-10.031 Y14.112
X-9.84 Y14.177
X-9.676 Y14.293
X-9.551 Y14.451
X-9.462 Y14.605
X-9.377 Y14.747
X-9.284 Y14.889
X-9.217 Y14.967
X-9.167 Y15.022
X-9.133 Y15.071
X-9.109 Y15.127
X-9.097 Y15.186
Y15.246
X-9.151 Y15.787
X-9.461 Y18.877
X-9.496 Y19.23
G3 X-9.784 Y19.5 I-0.299 J-0.03
G1 X-10.777
X-10.926 Y19.493
X-11.074 Y19.463
X-11.216 Y19.416
X-11.353 Y19.355
X-11.484 Y19.283
X-11.621 Y19.191
X-11.759 Y19.082
X-11.898 Y18.953
X-12.041 Y18.795
X-12.175 Y18.622
X-12.307 Y18.421
X-12.433 Y18.19
X-12.544 Y17.941
X-12.638 Y17.674
X-12.714 Y17.385
X-12.768 Y17.08
X-12.799 Y16.765
X-12.805 Y16.443
X-12.784 Y16.12
X-12.738 Y15.804
X-12.668 Y15.498
X-12.576 Y15.205
X-12.466 Y14.932
X-12.338 Y14.678
X-12.197 Y14.445
X-12.044 Y14.233
X-11.879 Y14.04
X-11.718 Y13.88
X-11.55 Y13.737
X-11.39 Y13.622
X-11.245 Y13.535
X-11.081 Y13.453
X-10.934 Y13.393
X-10.791 Y13.349
X-10.759 Y13.342
X-10.538 Y13.328
X-10.324 Y13.384
X-10.139 Y13.503
X-9.999 Y13.675
X-9.551 Y14.451
X-9.531 Y14.499
X-9.519 Y14.55
X-9.516 Y14.602
X-9.522 Y14.654
X-9.641 Y15.218
X-10.414 Y18.883
X-10.494 Y19.262
G3 X-10.777 Y19.5 I-0.294 J-0.062
G1 X-11.705
X-11.855 Y19.493
X-12.003 Y19.468
X-12.147 Y19.426
X-12.286 Y19.369
X-12.419 Y19.299
X-12.554 Y19.213
X-12.69 Y19.11
X-12.835 Y18.981
X-12.973 Y18.837
X-13.116 Y18.661
X-13.254 Y18.461
X-13.38 Y18.241
X-13.5 Y17.987
X-13.607 Y17.703
X-13.694 Y17.403
X-13.759 Y17.083
X-13.8 Y16.742
X-13.814 Y16.386
X-13.8 Y16.023
X-13.755 Y15.658
X-13.682 Y15.298
X-13.581 Y14.948
X-13.453 Y14.612
X-13.302 Y14.292
X-13.13 Y13.994
X-12.941 Y13.72
X-12.743 Y13.476
X-12.537 Y13.261
X-12.324 Y13.071
X-12.107 Y12.908
X-11.923 Y12.791
X-11.722 Y12.684
X-11.548 Y12.61
X-11.389 Y12.556
X-11.21 Y12.511
X-11.196 Y12.509
X-10.985 Y12.506
X-10.783 Y12.567
X-10.608 Y12.685
X-10.476 Y12.85
X-9.999 Y13.675
X-9.978 Y13.727
X-9.966 Y13.782
X-9.965 Y13.838
X-9.975 Y13.894
X-10.12 Y14.434
X-11.321 Y18.889
X-11.426 Y19.278
G3 X-11.705 Y19.5 I-0.29 J-0.078
G1 X-12.698
X-12.848 Y19.493
X-12.995 Y19.465
X-13.138 Y19.42
X-13.276 Y19.361
X-13.408 Y19.29
X-13.549 Y19.198
X-13.687 Y19.092
X-13.833 Y18.959
X-13.979 Y18.803
X-14.122 Y18.624
X-14.266 Y18.409
X-14.398 Y18.175
X-14.519 Y17.91
X-14.629 Y17.609
X-14.721 Y17.276
X-14.788 Y16.929
X-14.829 Y16.559
X-14.841 Y16.165
X-14.82 Y15.758
X-14.765 Y15.344
X-14.676 Y14.931
X-14.554 Y14.524
X-14.4 Y14.13
X-14.218 Y13.755
X-14.011 Y13.404
X-13.781 Y13.079
X-13.534 Y12.781
X-13.282 Y12.523
X-13.027 Y12.301
X-12.773 Y12.113
X-12.52 Y11.956
X-12.313 Y11.85
X-12.095 Y11.759
X-11.918 Y11.701
X-11.737 Y11.658
X-11.684 Y11.65
X-11.475 Y11.649
X-11.275 Y11.711
X-11.102 Y11.828
X-10.971 Y11.992
X-10.476 Y12.85
X-10.453 Y12.905
X-10.442 Y12.963
Y13.023
X-10.455 Y13.081
X-10.62 Y13.602
X-12.297 Y18.894
X-12.423 Y19.291
G3 X-12.698 Y19.5 I-0.286 J-0.091
G1 X-13.691
X-13.84 Y19.493
X-13.988 Y19.463
X-14.13 Y19.417
X-14.268 Y19.357
X-14.399 Y19.285
X-14.542 Y19.191
X-14.682 Y19.082
X-14.835 Y18.942
X-14.98 Y18.787
X-15.133 Y18.594
X-15.279 Y18.376
X-15.415 Y18.131
X-15.546 Y17.843
X-15.662 Y17.523
X-15.755 Y17.185
X-15.827 Y16.805
X-15.872 Y16.392
X-15.883 Y15.953
X-15.859 Y15.497
X-15.796 Y15.034
X-15.695 Y14.57
X-15.555 Y14.108
X-15.377 Y13.655
X-15.163 Y13.22
X-14.919 Y12.808
X-14.651 Y12.43
X-14.366 Y12.089
X-14.065 Y11.783
X-13.763 Y11.521
X-13.457 Y11.296
X-13.165 Y11.117
X-12.916 Y10.989
X-12.676 Y10.89
X-12.472 Y10.824
X-12.288 Y10.781
X-12.193 Y10.766
X-11.984
X-11.784 Y10.827
X-11.611 Y10.945
X-11.481 Y11.108
X-10.971 Y11.992
X-10.948 Y12.049
X-10.937 Y12.11
X-10.938 Y12.171
X-10.953 Y12.232
X-11.13 Y12.74
X-13.278 Y18.897
X-13.418 Y19.299
G3 X-13.691 Y19.5 I-0.283 J-0.099
G1 X-14.683
X-14.833 Y19.493
X-14.98 Y19.463
X-15.123 Y19.416
X-15.26 Y19.356
X-15.397 Y19.282
X-15.538 Y19.189
X-15.687 Y19.074
X-15.84 Y18.934
X-15.992 Y18.771
X-16.151 Y18.571
X-16.297 Y18.353
X-16.443 Y18.091
X-16.583 Y17.787
X-16.7 Y17.465
X-16.802 Y17.092
X-16.882 Y16.675
X-16.931 Y16.222
X-16.944 Y15.757
X-16.918 Y15.267
X-16.849 Y14.755
X-16.736 Y14.231
X-16.577 Y13.705
X-16.374 Y13.189
X-16.131 Y12.691
X-15.852 Y12.221
X-15.542 Y11.782
X-15.209 Y11.382
X-14.857 Y11.024
X-14.507 Y10.72
X-14.168 Y10.471
X-13.836 Y10.266
X-13.531 Y10.109
X-13.276 Y10.004
X-13.041 Y9.927
X-12.85 Y9.882
X-12.716 Y9.862
X-12.507 Y9.861
X-12.307 Y9.922
X-12.134 Y10.04
X-12.003 Y10.204
X-11.481 Y11.108
X-11.458 Y11.167
X-11.447 Y11.229
X-11.449 Y11.292
X-11.465 Y11.353
X-11.65 Y11.852
X-14.263 Y18.9
X-14.412 Y19.304
G3 X-14.683 Y19.5 I-0.281 J-0.104
G1 X-15.676
X-15.826 Y19.493
X-15.973 Y19.464
X-16.116 Y19.418
X-16.254 Y19.36
X-16.396 Y19.284
X-16.536 Y19.194
X-16.692 Y19.075
X-16.843 Y18.939
X-17.003 Y18.771
X-17.163 Y18.573
X-17.317 Y18.346
X-17.475 Y18.069
X-17.615 Y17.771
X-17.745 Y17.422
X-17.858 Y17.023
X-17.946 Y16.585
X-17.999 Y16.129
X-18.017 Y15.624
X-17.993 Y15.081
X-17.921 Y14.511
X-17.8 Y13.927
X-17.628 Y13.34
X-17.406 Y12.761
X-17.137 Y12.2
X-16.826 Y11.665
X-16.479 Y11.164
X-16.103 Y10.707
X-15.711 Y10.3
X-15.308 Y9.945
X-14.907 Y9.644
X-14.539 Y9.412
X-14.194 Y9.232
X-13.907 Y9.11
X-13.637 Y9.02
X-13.432 Y8.97
X-13.219 Y8.935
X-13.198 Y8.934
X-13.002 Y8.946
X-12.817 Y9.012
X-12.657 Y9.127
X-12.536 Y9.281
X-12.003 Y10.204
X-11.979 Y10.263
X-11.969 Y10.326
X-11.972 Y10.39
X-11.988 Y10.452
X-12.179 Y10.945
X-15.25 Y18.902
X-15.406 Y19.308
G3 X-15.676 Y19.5 I-0.28 J-0.108
G1 X-16.668
X-16.818 Y19.493
X-16.966 Y19.466
X-17.11 Y19.423
X-17.249 Y19.367
X-17.393 Y19.293
X-17.534 Y19.205
X-17.693 Y19.088
X-17.845 Y18.956
X-18.013 Y18.784
X-18.172 Y18.593
X-18.338 Y18.357
X-18.501 Y18.082
X-18.649 Y17.778
X-18.79 Y17.417
X-18.914 Y17.004
X-19.007 Y16.573
X-19.072 Y16.079
X-19.101 Y15.531
X-19.084 Y14.939
X-19.016 Y14.318
X-18.898 Y13.705
X-18.734 Y13.104
X-18.524 Y12.516
X-18.272 Y11.945
X-17.979 Y11.394
X-17.649 Y10.865
X-17.281 Y10.361
X-16.877 Y9.886
X-16.438 Y9.442
X-15.99 Y9.058
X-15.548 Y8.735
X-15.146 Y8.489
X-14.772 Y8.3
X-14.447 Y8.167
X-14.179 Y8.082
X-13.955 Y8.03
X-13.752 Y7.999
X-13.729 Y7.998
X-13.535 Y8.012
X-13.353 Y8.079
X-13.195 Y8.193
X-13.076 Y8.346
X-12.536 Y9.281
G3 X-12.522 Y9.533 I-0.265 J0.141
G1 X-12.716 Y10.021
X-16.239 Y18.904
X-16.4 Y19.311
G3 X-16.668 Y19.5 I-0.279 J-0.111
G1 X-17.725
X-17.875 Y19.493
X-18.022 Y19.462
X-18.164 Y19.416
X-18.302 Y19.357
X-18.449 Y19.279
X-18.596 Y19.185
X-18.757 Y19.063
X-18.918 Y18.919
X-19.087 Y18.741
X-19.258 Y18.53
X-19.378 Y18.355
X-19.445 Y18.232
X-19.486 Y18.099
X-19.5 Y17.96
G3 X-19.19 Y17.67 I0.3 J0.01
X-19.007 Y17.74 I-0.01 J0.3
G1 X-18.919 Y17.814
X-17.591 Y18.93
X-17.542 Y18.97
G3 X-17.506 Y19.393 I-0.193 J0.23
X-17.725 Y19.5 I-0.23 J-0.193
G1 X-18.717
X-18.867 Y19.493
X-18.916 Y19.484
X-19.103 Y19.425
X-19.266 Y19.316
X-19.392 Y19.167
X-19.473 Y18.988
X-19.5 Y18.794
G3 X-19.19 Y18.505 I0.3 J0.01
X-19.008 Y18.574 I-0.01 J0.3
G1 X-18.919 Y18.649
X-18.583 Y18.93
X-18.535 Y18.97
G3 X-18.498 Y19.393 I-0.193 J0.23
X-18.717 Y19.5 I-0.23 J-0.193
G1 X-19.143
X-19.214 Y19.499
X-19.249 Y19.494
X-19.285 Y19.484
X-19.309 Y19.474
X-19.334 Y19.461
X-19.359 Y19.446
X-19.384 Y19.426
X-19.426 Y19.384
X-19.446 Y19.359
X-19.461 Y19.334
X-19.474 Y19.309
X-19.484 Y19.285
X-19.494 Y19.249
X-19.499 Y19.214
X-19.5 Y19.143
Y13.045
X-19.484 Y12.726
X-19.445 Y12.43
X-19.367 Y12.062
X-19.248 Y11.665
X-19.072 Y11.215
X-18.827 Y10.71
X-18.512 Y10.175
X-18.154 Y9.665
X-17.758 Y9.182
X-17.327 Y8.731
X-16.863 Y8.314
X-16.397 Y7.956
X-15.945 Y7.664
X-15.517 Y7.433
X-15.138 Y7.267
X-14.854 Y7.168
X-14.588 Y7.1
X-14.383 Y7.064
X-14.291 Y7.055
X-14.093 Y7.065
X-13.905 Y7.131
X-13.743 Y7.246
X-13.621 Y7.402
X-13.076 Y8.346
G3 X-13.157 Y8.724 I-0.265 J0.141
G1 X-13.445 Y8.948
X-18.916 Y13.194
X-19.016 Y13.272
G3 X-19.437 Y13.219 I-0.184 J-0.237
X-19.5 Y13.045 I0.237 J-0.184
G1 Y10.777
X-19.492 Y10.607
X-19.464 Y10.401
X-19.414 Y10.166
X-19.338 Y9.913
X-19.218 Y9.603
X-19.065 Y9.288
X-18.846 Y8.916
X-18.56 Y8.509
X-18.229 Y8.11
X-17.827 Y7.698
X-17.379 Y7.308
X-16.907 Y6.959
X-16.442 Y6.669
X-16.029 Y6.456
X-15.651 Y6.298
X-15.36 Y6.203
X-15.104 Y6.141
X-14.896 Y6.109
X-14.828 Y6.104
X-14.633 Y6.117
X-14.449 Y6.183
X-14.29 Y6.298
X-14.169 Y6.452
X-13.621 Y7.402
G3 X-13.73 Y7.8 I-0.265 J0.141
G1 X-14.013 Y7.971
X-18.907 Y10.939
X-19.045 Y11.023
G3 X-19.457 Y10.922 I-0.156 J-0.257
X-19.5 Y10.777 I0.257 J-0.156
G1 Y9.075
X-19.492 Y8.907
X-19.47 Y8.739
X-19.429 Y8.548
X-19.369 Y8.349
X-19.274 Y8.106
X-19.155 Y7.86
X-18.984 Y7.569
X-18.777 Y7.275
X-18.497 Y6.937
X-18.173 Y6.605
X-17.799 Y6.279
X-17.385 Y5.973
X-16.955 Y5.705
X-16.558 Y5.5
X-16.19 Y5.346
X-15.905 Y5.253
X-15.648 Y5.192
X-15.442 Y5.159
X-15.376 Y5.155
X-15.181 Y5.167
X-14.997 Y5.234
X-14.838 Y5.348
X-14.717 Y5.503
X-14.169 Y6.452
G3 X-14.148 Y6.682 I-0.265 J0.141
X-14.296 Y6.859 I-0.286 J-0.089
G1 X-14.572 Y7.002
X-18.901 Y9.248
X-19.062 Y9.331
G3 X-19.466 Y9.203 I-0.138 J-0.266
X-19.5 Y9.075 I0.266 J-0.138
G1 Y7.515
X-19.493 Y7.366
X-19.468 Y7.216
X-19.423 Y7.037
X-19.362 Y6.855
X-19.272 Y6.646
X-19.152 Y6.42
X-18.997 Y6.176
X-18.802 Y5.917
X-18.551 Y5.634
X-18.271 Y5.366
X-17.942 Y5.099
X-17.579 Y4.848
X-17.21 Y4.636
X-16.853 Y4.467
X-16.563 Y4.357
X-16.293 Y4.279
X-16.082 Y4.236
X-15.949 Y4.22
X-15.746 Y4.225
X-15.552 Y4.289
X-15.385 Y4.405
X-15.259 Y4.565
X-14.717 Y5.503
G3 X-14.699 Y5.742 I-0.265 J0.141
X-14.861 Y5.918 I-0.283 J-0.098
G1 X-15.129 Y6.036
X-18.896 Y7.699
X-19.079 Y7.779
G3 X-19.475 Y7.626 I-0.121 J-0.274
X-19.5 Y7.515 I0.274 J-0.121
G1 Y6.239
X-19.491 Y6.056
X-19.471 Y5.907
X-19.436 Y5.751
X-19.387 Y5.594
X-19.313 Y5.411
X-19.217 Y5.22
X-19.09 Y5.011
X-18.934 Y4.794
X-18.733 Y4.558
X-18.508 Y4.334
X-18.241 Y4.106
X-17.948 Y3.895
X-17.638 Y3.708
X-17.33 Y3.554
X-17.071 Y3.449
X-16.821 Y3.371
X-16.625 Y3.327
X-16.492 Y3.308
X-16.285 Y3.309
X-16.087 Y3.371
X-15.916 Y3.488
X-15.787 Y3.651
X-15.259 Y4.565
G3 X-15.241 Y4.807 I-0.265 J0.141
X-15.409 Y4.983 I-0.282 J-0.101
G1 X-15.673 Y5.092
X-18.894 Y6.427
X-19.085 Y6.506
G3 X-19.477 Y6.343 I-0.115 J-0.277
X-19.5 Y6.239 I0.277 J-0.115
G1 Y4.963
X-19.492 Y4.798
X-19.472 Y4.65
X-19.438 Y4.504
X-19.389 Y4.35
X-19.322 Y4.19
X-19.231 Y4.012
X-19.118 Y3.83
X-18.976 Y3.638
X-18.802 Y3.436
X-18.606 Y3.245
X-18.384 Y3.059
X-18.139 Y2.886
X-17.884 Y2.736
X-17.655 Y2.624
X-17.422 Y2.532
X-17.231 Y2.475
X-17.045 Y2.435
X-16.993 Y2.428
X-16.787 Y2.431
X-16.591 Y2.493
X-16.422 Y2.61
X-16.294 Y2.771
X-15.787 Y3.651
G3 X-15.771 Y3.898 I-0.265 J0.141
X-15.948 Y4.073 I-0.28 J-0.107
G1 X-16.204 Y4.167
X-18.891 Y5.158
X-19.096 Y5.234
G3 X-19.482 Y5.056 I-0.104 J-0.281
X-19.5 Y4.963 I0.281 J-0.104
G1 Y3.687
X-19.493 Y3.537
X-19.463 Y3.39
X-19.42 Y3.246
X-19.361 Y3.095
X-19.286 Y2.945
X-19.186 Y2.777
X-19.07 Y2.614
X-18.93 Y2.448
X-18.765 Y2.281
X-18.583 Y2.123
X-18.385 Y1.979
X-18.193 Y1.861
X-18.008 Y1.767
X-17.82 Y1.69
X-17.66 Y1.639
X-17.484 Y1.598
X-17.276
X-17.076 Y1.66
X-16.904 Y1.777
X-16.774 Y1.94
X-16.294 Y2.771
G3 X-16.418 Y3.177 I-0.265 J0.141
X-16.476 Y3.201 I-0.141 J-0.265
G1 X-16.718 Y3.271
X-18.886 Y3.898
X-19.117 Y3.964
G3 X-19.488 Y3.76 I-0.083 J-0.288
X-19.5 Y3.687 I0.288 J-0.083
G1 Y2.616
X-19.493 Y2.466
X-19.467 Y2.319
X-19.425 Y2.174
X-19.37 Y2.035
X-19.303 Y1.901
X-19.217 Y1.759
X-19.117 Y1.619
X-19. Y1.481
X-18.866 Y1.347
X-18.715 Y1.218
X-18.576 Y1.117
X-18.426 Y1.026
X-18.273 Y0.949
X-18.134 Y0.893
X-17.988 Y0.847
X-17.975 Y0.845
X-17.754 Y0.83
X-17.54 Y0.886
X-17.354 Y1.006
X-17.215 Y1.177
X-16.774 Y1.94
G3 X-16.898 Y2.346 I-0.265 J0.141
X-16.968 Y2.373 I-0.141 J-0.265
G1 X-17.201 Y2.429
X-18.883 Y2.838
X-19.129 Y2.897
G3 X-19.492 Y2.676 I-0.071 J-0.292
X-19.5 Y2.616 I0.292 J-0.071
G1 Y1.56
X-19.493 Y1.41
X-19.46 Y1.264
X-19.411 Y1.122
X-19.347 Y0.986
X-19.27 Y0.857
X-19.183 Y0.735
X-19.086 Y0.621
X-18.979 Y0.515
X-18.864 Y0.419
X-18.741 Y0.333
X-18.611 Y0.258
X-18.475 Y0.196
X-18.332 Y0.146
X-18.138 Y0.126
X-17.947 Y0.164
X-17.776 Y0.257
X-17.639 Y0.395
X-17.549 Y0.567
X-17.479 Y0.709
X-17.441 Y0.781
X-17.403 Y0.851
X-17.215 Y1.177
G3 X-17.339 Y1.583 I-0.265 J0.141
X-17.44 Y1.615 I-0.141 J-0.265
G1 X-17.645 Y1.643
X-18.878 Y1.809
X-19.16 Y1.847
G3 X-19.394 Y1.779 I-0.04 J-0.297
X-19.5 Y1.56 I0.194 J-0.229
G1 Y0.709
X-19.493 Y0.559
X-19.466 Y0.411
X-19.42 Y0.269
X-19.355 Y0.134
X-19.275 Y0.007
X-19.182 Y-0.111
X-19.075 Y-0.217
X-18.959 Y-0.311
X-18.832 Y-0.391
X-18.697 Y-0.457
X-18.556 Y-0.508
X-18.505 Y-0.52
X-18.297 Y-0.536
X-18.093 Y-0.49
X-17.912 Y-0.386
X-17.769 Y-0.233
X-17.678 Y-0.045
X-17.647 Y0.162
G3 X-17.827 Y0.427 I-0.3 J-0.01
G1 X-18.237 Y0.606
X-18.896 Y0.893
X-19.08 Y0.973
G3 X-19.475 Y0.818 I-0.12 J-0.275
X-19.5 Y0.709 I0.275 J-0.12
G1 Y-0.113
X-19.493 Y-0.263
X-19.458 Y-0.409
X-19.4 Y-0.547
X-19.324 Y-0.676
X-19.23 Y-0.794
X-19.123 Y-0.898
X-19.003 Y-0.989
X-18.873 Y-1.064
X-18.735 Y-1.123
X-18.592 Y-1.165
X-18.444 Y-1.19
X-18.294 Y-1.198
X-18.254 Y-1.196
X-18.057 Y-1.154
X-17.88 Y-1.057
X-17.738 Y-0.914
X-17.642 Y-0.736
X-17.601 Y-0.538
X-17.619 Y-0.337
G3 X-17.842 Y-0.123 I-0.289 J-0.079
G1 X-18.291 Y-0.022
X-18.882 Y0.112
X-19.134 Y0.169
G3 X-19.493 Y-0.057 I-0.066 J-0.293
X-19.5 Y-0.113 I0.293 J-0.066
G1 Y-0.822
X-19.493 Y-0.972
X-19.454 Y-1.117
X-19.391 Y-1.253
X-19.308 Y-1.378
X-19.21 Y-1.491
X-19.099 Y-1.592
X-18.976 Y-1.678
X-18.844 Y-1.749
X-18.705 Y-1.806
X-18.56 Y-1.846
X-18.412 Y-1.869
X-18.262 Y-1.876
X-18.113 Y-1.866
X-17.965 Y-1.84
X-17.821 Y-1.798
X-17.774 Y-1.778
X-17.607 Y-1.678
X-17.474 Y-1.537
X-17.386 Y-1.364
X-17.348 Y-1.174
X-17.363 Y-0.981
X-17.431 Y-0.799
X-17.479 Y-0.709
X-17.549 Y-0.567
X-17.598 Y-0.425
X-17.619 Y-0.337
G3 X-17.765 Y-0.152 I-0.289 J-0.079
X-18. Y-0.13 I-0.143 J-0.264
G1 X-18.286 Y-0.223
X-18.894 Y-0.419
X-19.292 Y-0.547
G3 X-19.5 Y-0.822 I0.092 J-0.286
G1 Y-1.496
X-19.493 Y-1.646
X-19.453 Y-1.791
X-19.39 Y-1.927
X-19.308 Y-2.052
X-19.21 Y-2.166
X-19.099 Y-2.266
X-18.977 Y-2.354
X-18.847 Y-2.428
X-18.71 Y-2.489
X-18.568 Y-2.537
X-18.422 Y-2.572
X-18.273 Y-2.592
X-18.123 Y-2.598
X-17.973 Y-2.591
X-17.825 Y-2.568
X-17.68 Y-2.531
X-17.538 Y-2.481
X-17.403 Y-2.416
X-17.275 Y-2.338
X-17.259 Y-2.327
X-17.118 Y-2.183
X-17.023 Y-2.005
X-16.983 Y-1.807
X-17.001 Y-1.606
X-17.075 Y-1.418
X-17.403 Y-0.851
X-17.431 Y-0.799
G3 X-17.793 Y-0.67 I-0.258 J-0.152
G1 X-18.139 Y-0.797
X-18.9 Y-1.076
X-19.304 Y-1.225
G3 X-19.5 Y-1.496 I0.103 J-0.282
G1 Y-2.17
X-19.493 Y-2.32
X-19.455 Y-2.465
X-19.394 Y-2.602
X-19.314 Y-2.729
X-19.22 Y-2.845
X-19.113 Y-2.95
X-18.995 Y-3.044
X-18.869 Y-3.125
X-18.736 Y-3.193
X-18.597 Y-3.251
X-18.454 Y-3.296
X-18.304 Y-3.33
X-18.15 Y-3.352
X-17.993 Y-3.361
X-17.831 Y-3.358
X-17.682 Y-3.343
X-17.534 Y-3.316
X-17.388 Y-3.277
X-17.247 Y-3.226
X-17.111 Y-3.163
X-16.981 Y-3.088
X-16.858 Y-3.002
X-16.833 Y-2.981
X-16.705 Y-2.836
X-16.622 Y-2.661
X-16.589 Y-2.471
X-16.61 Y-2.278
X-16.682 Y-2.099
X-17.075 Y-1.418
G3 X-17.422 Y-1.292 I-0.254 J-0.159
G1 X-17.791 Y-1.411
X-18.894 Y-1.767
X-19.292 Y-1.895
G3 X-19.5 Y-2.17 I0.092 J-0.286
G1 Y-2.879
X-19.493 Y-3.029
X-19.456 Y-3.174
X-19.397 Y-3.312
X-19.32 Y-3.441
X-19.228 Y-3.559
X-19.124 Y-3.668
X-19.01 Y-3.765
X-18.888 Y-3.852
X-18.759 Y-3.928
X-18.618 Y-3.996
X-18.466 Y-4.056
X-18.303 Y-4.104
X-18.133 Y-4.141
X-17.959 Y-4.163
X-17.779 Y-4.172
X-17.594 Y-4.167
X-17.405 Y-4.146
X-17.236 Y-4.113
X-17.077 Y-4.068
X-16.916 Y-4.009
X-16.78 Y-3.947
X-16.648 Y-3.872
X-16.523 Y-3.787
X-16.406 Y-3.694
X-16.386 Y-3.675
X-16.271 Y-3.53
X-16.198 Y-3.36
X-16.172 Y-3.176
X-16.195 Y-2.992
X-16.266 Y-2.821
X-16.682 Y-2.099
G3 X-17.017 Y-1.969 I-0.254 J-0.159
G1 X-17.403 Y-2.077
X-18.889 Y-2.491
X-19.281 Y-2.6
G3 X-19.5 Y-2.879 I0.081 J-0.289
G1 Y-3.623
X-19.493 Y-3.773
X-19.456 Y-3.918
X-19.399 Y-4.057
X-19.324 Y-4.187
X-19.236 Y-4.308
X-19.135 Y-4.42
X-19.025 Y-4.521
X-18.907 Y-4.614
X-18.775 Y-4.7
X-18.626 Y-4.782
X-18.461 Y-4.855
X-18.286 Y-4.917
X-18.101 Y-4.966
X-17.906 Y-5.001
X-17.702 Y-5.022
X-17.494 Y-5.025
X-17.285 Y-5.012
X-17.075 Y-4.982
X-16.867 Y-4.935
X-16.687 Y-4.879
X-16.512 Y-4.808
X-16.355 Y-4.73
X-16.223 Y-4.65
X-16.087 Y-4.552
X-15.973 Y-4.455
X-15.94 Y-4.422
X-15.807 Y-4.237
X-15.741 Y-4.019
X-15.749 Y-3.791
X-15.829 Y-3.577
X-16.266 Y-2.821
G3 X-16.591 Y-2.688 I-0.254 J-0.159
G1 X-16.99 Y-2.785
X-18.886 Y-3.248
X-19.271 Y-3.342
G3 X-19.5 Y-3.623 I0.071 J-0.291
G1 Y-4.396
X-19.493 Y-4.546
X-19.458 Y-4.691
X-19.403 Y-4.831
X-19.331 Y-4.963
X-19.247 Y-5.087
X-19.15 Y-5.201
X-19.043 Y-5.308
X-18.925 Y-5.408
X-18.787 Y-5.507
X-18.63 Y-5.601
X-18.462 Y-5.685
X-18.277 Y-5.759
X-18.074 Y-5.822
X-17.856 Y-5.871
X-17.629 Y-5.903
X-17.397 Y-5.917
X-17.16 Y-5.912
X-16.923 Y-5.888
X-16.689 Y-5.846
X-16.46 Y-5.784
X-16.251 Y-5.71
X-16.075 Y-5.631
X-15.892 Y-5.531
X-15.747 Y-5.435
X-15.625 Y-5.339
X-15.496 Y-5.221
X-15.467 Y-5.19
X-15.344 Y-5.006
X-15.285 Y-4.792
X-15.296 Y-4.571
X-15.375 Y-4.364
X-15.829 Y-3.577
G3 X-16.146 Y-3.443 I-0.254 J-0.159
G1 X-16.555 Y-3.531
X-18.884 Y-4.031
X-19.263 Y-4.113
G3 X-19.5 Y-4.396 I0.063 J-0.293
G1 Y-5.183
X-19.493 Y-5.333
X-19.463 Y-5.48
X-19.413 Y-5.621
X-19.346 Y-5.756
X-19.266 Y-5.882
X-19.175 Y-6.001
X-19.072 Y-6.113
X-18.953 Y-6.223
X-18.811 Y-6.335
X-18.656 Y-6.438
X-18.482 Y-6.535
X-18.284 Y-6.624
X-18.07 Y-6.701
X-17.844 Y-6.763
X-17.601 Y-6.808
X-17.343 Y-6.835
X-17.076 Y-6.842
X-16.809 Y-6.827
X-16.541 Y-6.79
X-16.28 Y-6.732
X-16.031 Y-6.656
X-15.791 Y-6.561
X-15.601 Y-6.467
X-15.411 Y-6.353
X-15.256 Y-6.243
X-15.131 Y-6.138
X-15.002 Y-6.011
X-14.98 Y-5.986
X-14.867 Y-5.803
X-14.814 Y-5.594
X-14.827 Y-5.379
X-14.904 Y-5.179
X-15.375 Y-4.364
G3 X-15.684 Y-4.229 I-0.254 J-0.159
G1 X-16.103 Y-4.307
X-18.882 Y-4.828
X-19.255 Y-4.898
G3 X-19.5 Y-5.183 I0.055 J-0.295
G1 Y-6.034
X-19.493 Y-6.183
X-19.462 Y-6.33
X-19.413 Y-6.472
X-19.348 Y-6.607
X-19.27 Y-6.735
X-19.18 Y-6.855
X-19.074 Y-6.976
X-18.953 Y-7.093
X-18.807 Y-7.213
X-18.646 Y-7.325
X-18.463 Y-7.431
X-18.254 Y-7.532
X-18.026 Y-7.62
X-17.784 Y-7.691
X-17.519 Y-7.746
X-17.236 Y-7.782
X-16.941 Y-7.795
X-16.638 Y-7.785
X-16.338 Y-7.75
X-16.043 Y-7.691
X-15.759 Y-7.611
X-15.492 Y-7.512
X-15.24 Y-7.394
X-15.045 Y-7.284
X-14.854 Y-7.153
X-14.706 Y-7.034
X-14.581 Y-6.916
X-14.507 Y-6.834
X-14.388 Y-6.65
X-14.331 Y-6.439
X-14.343 Y-6.22
X-14.421 Y-6.016
X-14.904 Y-5.179
G3 X-15.211 Y-5.042 I-0.254 J-0.159
G1 X-15.634 Y-5.116
X-18.881 Y-5.684
X-19.252 Y-5.748
G3 X-19.5 Y-6.034 I0.052 J-0.296
G1 Y-6.884
X-19.493 Y-7.034
X-19.467 Y-7.182
X-19.422 Y-7.325
X-19.361 Y-7.462
X-19.287 Y-7.592
X-19.199 Y-7.718
X-19.099 Y-7.84
X-18.976 Y-7.967
X-18.833 Y-8.093
X-18.671 Y-8.214
X-18.479 Y-8.334
X-18.269 Y-8.444
X-18.037 Y-8.542
X-17.774 Y-8.629
X-17.488 Y-8.699
X-17.188 Y-8.747
X-16.875 Y-8.772
X-16.546 Y-8.771
X-16.21 Y-8.744
X-15.872 Y-8.689
X-15.548 Y-8.608
X-15.236 Y-8.504
X-14.948 Y-8.381
X-14.698 Y-8.25
X-14.491 Y-8.119
X-14.303 Y-7.978
X-14.165 Y-7.856
X-14.031 Y-7.716
X-13.99 Y-7.667
X-13.883 Y-7.485
X-13.834 Y-7.28
X-13.849 Y-7.07
X-13.926 Y-6.874
X-14.421 Y-6.016
G3 X-14.723 Y-5.878 I-0.254 J-0.159
G1 X-15.152 Y-5.947
X-18.88 Y-6.54
X-19.247 Y-6.599
G3 X-19.5 Y-6.884 I0.047 J-0.296
G1 Y-7.799
X-19.493 Y-7.949
X-19.465 Y-8.096
X-19.42 Y-8.239
X-19.359 Y-8.376
X-19.285 Y-8.507
X-19.197 Y-8.636
X-19.092 Y-8.765
X-18.966 Y-8.898
X-18.814 Y-9.033
X-18.646 Y-9.161
X-18.445 Y-9.289
X-18.22 Y-9.409
X-17.976 Y-9.515
X-17.697 Y-9.609
X-17.388 Y-9.687
X-17.063 Y-9.742
X-16.722 Y-9.772
X-16.361 Y-9.774
X-15.989 Y-9.746
X-15.614 Y-9.688
X-15.248 Y-9.601
X-14.902 Y-9.488
X-14.579 Y-9.353
X-14.291 Y-9.204
X-14.058 Y-9.059
X-13.853 Y-8.908
X-13.69 Y-8.766
X-13.561 Y-8.634
X-13.488 Y-8.546
X-13.379 Y-8.365
X-13.329 Y-8.158
X-13.343 Y-7.947
X-13.42 Y-7.749
X-13.926 Y-6.874
G3 X-14.226 Y-6.736 I-0.254 J-0.159
G1 X-14.657 Y-6.803
X-18.88 Y-7.456
X-19.246 Y-7.513
G3 X-19.5 Y-7.799 I0.046 J-0.296
G1 Y-8.728
X-19.493 Y-8.878
X-19.466 Y-9.025
X-19.421 Y-9.168
X-19.361 Y-9.306
X-19.288 Y-9.437
X-19.198 Y-9.572
X-19.094 Y-9.704
X-18.962 Y-9.846
X-18.814 Y-9.982
X-18.635 Y-10.121
X-18.426 Y-10.258
X-18.199 Y-10.382
X-17.935 Y-10.5
X-17.636 Y-10.606
X-17.321 Y-10.689
X-16.975 Y-10.752
X-16.599 Y-10.789
X-16.2 Y-10.796
X-15.791 Y-10.771
X-15.379 Y-10.712
X-14.974 Y-10.62
X-14.591 Y-10.5
X-14.233 Y-10.356
X-13.907 Y-10.193
X-13.628 Y-10.024
X-13.411 Y-9.868
X-13.222 Y-9.707
X-13.085 Y-9.57
X-12.951 Y-9.413
X-12.943 Y-9.402
X-12.851 Y-9.224
X-12.812 Y-9.028
X-12.83 Y-8.828
X-12.905 Y-8.642
X-13.42 Y-7.749
G3 X-13.719 Y-7.611 I-0.254 J-0.159
G1 X-14.152 Y-7.676
X-18.879 Y-8.387
X-19.245 Y-8.441
G3 X-19.5 Y-8.728 I0.045 J-0.297
G1 Y-9.642
X-19.493 Y-9.792
X-19.471 Y-9.941
X-19.43 Y-10.085
X-19.375 Y-10.224
X-19.307 Y-10.358
X-19.223 Y-10.491
X-19.121 Y-10.63
X-18.995 Y-10.774
X-18.848 Y-10.917
X-18.668 Y-11.066
X-18.471 Y-11.204
X-18.237 Y-11.342
X-17.965 Y-11.473
X-17.676 Y-11.586
X-17.343 Y-11.685
X-16.97 Y-11.765
X-16.569 Y-11.817
X-16.156 Y-11.837
X-15.721 Y-11.823
X-15.272 Y-11.773
X-14.823 Y-11.686
X-14.384 Y-11.563
X-13.97 Y-11.411
X-13.603 Y-11.241
X-13.282 Y-11.06
X-13.002 Y-10.872
X-12.799 Y-10.71
X-12.623 Y-10.544
X-12.494 Y-10.402
X-12.434 Y-10.324
X-12.334 Y-10.144
X-12.29 Y-9.943
X-12.307 Y-9.738
X-12.383 Y-9.547
X-12.905 Y-8.642
G3 X-13.201 Y-8.504 I-0.254 J-0.159
G1 X-13.636 Y-8.566
X-18.879 Y-9.305
X-19.242 Y-9.356
G3 X-19.5 Y-9.642 I0.042 J-0.297
G1 Y-10.635
X-19.493 Y-10.785
X-19.468 Y-10.933
X-19.425 Y-11.076
X-19.368 Y-11.215
X-19.299 Y-11.348
X-19.208 Y-11.492
X-19.104 Y-11.631
X-18.969 Y-11.783
X-18.817 Y-11.93
X-18.632 Y-12.082
X-18.414 Y-12.232
X-18.172 Y-12.373
X-17.881 Y-12.512
X-17.559 Y-12.635
X-17.213 Y-12.736
X-16.819 Y-12.817
X-16.386 Y-12.871
X-15.923 Y-12.891
X-15.447 Y-12.874
X-14.962 Y-12.817
X-14.471 Y-12.718
X-13.994 Y-12.582
X-13.549 Y-12.416
X-13.154 Y-12.23
X-12.8 Y-12.028
X-12.505 Y-11.827
X-12.285 Y-11.649
X-12.104 Y-11.477
X-11.97 Y-11.328
X-11.902 Y-11.238
X-11.803 Y-11.059
X-11.76 Y-10.859
X-11.777 Y-10.655
X-11.853 Y-10.464
X-12.383 Y-9.547
G3 X-12.68 Y-9.409 I-0.254 J-0.159
G1 X-13.114 Y-9.471
X-18.879 Y-10.296
X-19.243 Y-10.348
G3 X-19.5 Y-10.635 I0.043 J-0.297
G1 Y-11.627
X-19.493 Y-11.777
X-19.467 Y-11.925
X-19.424 Y-12.069
X-19.367 Y-12.208
X-19.298 Y-12.342
X-19.209 Y-12.484
X-19.1 Y-12.631
X-18.965 Y-12.786
X-18.807 Y-12.939
X-18.611 Y-13.101
X-18.398 Y-13.25
X-18.138 Y-13.403
X-17.839 Y-13.548
X-17.515 Y-13.674
X-17.133 Y-13.787
X-16.705 Y-13.878
X-16.255 Y-13.937
X-15.777 Y-13.96
X-15.263 Y-13.944
X-14.729 Y-13.884
X-14.193 Y-13.78
X-13.674 Y-13.634
X-13.181 Y-13.453
X-12.732 Y-13.245
X-12.355 Y-13.033
X-12.032 Y-12.814
X-11.795 Y-12.625
X-11.594 Y-12.436
X-11.454 Y-12.282
X-11.368 Y-12.169
X-11.268 Y-11.99
X-11.225 Y-11.789
X-11.241 Y-11.584
X-11.317 Y-11.393
X-11.853 Y-10.464
G3 X-12.15 Y-10.326 I-0.254 J-0.159
G1 X-12.584 Y-10.389
X-18.879 Y-11.289
X-19.243 Y-11.341
G3 X-19.5 Y-11.627 I0.042 J-0.297
G1 Y-12.62
X-19.493 Y-12.77
X-19.468 Y-12.918
X-19.427 Y-13.062
X-19.372 Y-13.202
X-19.302 Y-13.341
X-19.216 Y-13.482
X-19.104 Y-13.637
X-18.973 Y-13.79
X-18.811 Y-13.951
X-18.619 Y-14.114
X-18.397 Y-14.272
X-18.124 Y-14.437
X-17.831 Y-14.583
X-17.485 Y-14.721
X-17.085 Y-14.845
X-16.653 Y-14.942
X-16.187 Y-15.007
X-15.669 Y-15.038
X-15.113 Y-15.027
X-14.536 Y-14.968
X-13.956 Y-14.862
X-13.387 Y-14.71
X-12.853 Y-14.519
X-12.362 Y-14.299
X-11.933 Y-14.063
X-11.582 Y-13.832
X-11.313 Y-13.621
X-11.092 Y-13.418
X-10.941 Y-13.255
X-10.806 Y-13.082
X-10.797 Y-13.07
X-10.714 Y-12.895
X-10.681 Y-12.704
X-10.702 Y-12.512
X-10.774 Y-12.332
X-11.317 Y-11.393
G3 X-11.613 Y-11.255 I-0.254 J-0.159
G1 X-12.048 Y-11.316
X-18.879 Y-12.282
X-19.242 Y-12.333
G3 X-19.5 Y-12.62 I0.042 J-0.297
G1 Y-13.613
X-19.493 Y-13.762
X-19.472 Y-13.911
X-19.433 Y-14.056
X-19.381 Y-14.197
X-19.313 Y-14.339
X-19.23 Y-14.48
X-19.12 Y-14.638
X-18.994 Y-14.791
X-18.831 Y-14.959
X-18.646 Y-15.122
X-18.419 Y-15.291
X-18.151 Y-15.46
X-17.856 Y-15.613
X-17.501 Y-15.763
X-17.095 Y-15.897
X-16.666 Y-16.002
X-16.169 Y-16.081
X-15.616 Y-16.125
X-15.023 Y-16.124
X-14.406 Y-16.073
X-13.79 Y-15.972
X-13.184 Y-15.822
X-12.597 Y-15.626
X-12.062 Y-15.399
X-11.588 Y-15.151
X-11.176 Y-14.891
X-10.847 Y-14.645
X-10.623 Y-14.448
X-10.435 Y-14.253
X-10.304 Y-14.092
X-10.259 Y-14.028
X-10.171 Y-13.852
X-10.135 Y-13.658
X-10.154 Y-13.462
X-10.228 Y-13.279
X-10.774 Y-12.332
G3 X-11.07 Y-12.194 I-0.254 J-0.159
G1 X-11.506 Y-12.255
X-18.879 Y-13.276
X-19.241 Y-13.326
G3 X-19.5 Y-13.613 I0.041 J-0.297
G1 Y-14.683
X-19.493 Y-14.833
X-19.466 Y-14.981
X-19.424 Y-15.125
X-19.368 Y-15.264
X-19.297 Y-15.405
X-19.206 Y-15.556
X-19.093 Y-15.713
X-18.951 Y-15.878
X-18.784 Y-16.045
X-18.575 Y-16.223
X-18.343 Y-16.389
X-18.056 Y-16.563
X-17.735 Y-16.723
X-17.367 Y-16.871
X-16.926 Y-17.009
X-16.436 Y-17.119
X-15.915 Y-17.193
X-15.325 Y-17.23
X-14.701 Y-17.218
X-14.08 Y-17.157
X-13.465 Y-17.05
X-12.859 Y-16.9
X-12.266 Y-16.707
X-11.691 Y-16.469
X-11.171 Y-16.204
X-10.728 Y-15.931
X-10.37 Y-15.669
X-10.121 Y-15.453
X-9.916 Y-15.246
X-9.777 Y-15.08
X-9.712 Y-14.988
X-9.621 Y-14.811
X-9.584 Y-14.615
X-9.603 Y-14.417
X-9.677 Y-14.233
X-10.228 Y-13.279
G3 X-10.525 Y-13.141 I-0.254 J-0.159
G1 X-10.959 Y-13.203
X-18.879 Y-14.344
X-19.243 Y-14.397
G3 X-19.5 Y-14.683 I0.043 J-0.297
G1 Y-15.74
X-19.493 Y-15.889
X-19.465 Y-16.037
X-19.421 Y-16.18
X-19.365 Y-16.319
X-19.289 Y-16.47
X-19.198 Y-16.618
X-19.075 Y-16.786
X-18.936 Y-16.947
X-18.755 Y-17.125
X-18.552 Y-17.296
X-18.299 Y-17.476
X-18.003 Y-17.653
X-17.668 Y-17.818
X-17.264 Y-17.978
X-16.809 Y-18.117
X-16.316 Y-18.225
X-15.744 Y-18.303
X-15.121 Y-18.338
X-14.497 Y-18.324
X-13.876 Y-18.264
X-13.261 Y-18.163
X-12.653 Y-18.02
X-12.057 Y-17.836
X-11.475 Y-17.611
X-10.911 Y-17.345
X-10.417 Y-17.064
X-10.007 Y-16.786
X-9.685 Y-16.527
X-9.456 Y-16.31
X-9.288 Y-16.123
X-9.155 Y-15.948
X-9.101 Y-15.866
X-9.011 Y-15.656
X-8.993 Y-15.428
X-9.049 Y-15.206
X-9.174 Y-15.015
X-9.217 Y-14.967
X-9.284 Y-14.889
X-9.377 Y-14.747
X-9.462 Y-14.605
X-9.677 Y-14.233
G3 X-9.975 Y-14.095 I-0.254 J-0.159
G1 X-10.408 Y-14.159
X-18.879 Y-15.4
X-19.244 Y-15.453
G3 X-19.5 Y-15.74 I0.043 J-0.297
G1 Y-16.732
X-19.493 Y-16.882
X-19.473 Y-17.031
X-19.436 Y-17.176
X-19.385 Y-17.317
X-19.321 Y-17.457
X-19.234 Y-17.612
X-19.13 Y-17.767
X-18.994 Y-17.939
X-18.835 Y-18.108
X-18.635 Y-18.29
X-18.401 Y-18.471
X-18.125 Y-18.651
X-17.786 Y-18.835
X-17.424 Y-18.995
X-16.985 Y-19.149
X-16.466 Y-19.285
X-15.905 Y-19.385
X-15.289 Y-19.444
X-14.665 Y-19.453
X-14.042 Y-19.418
X-13.423 Y-19.342
X-12.809 Y-19.226
X-12.205 Y-19.073
X-11.61 Y-18.882
X-11.029 Y-18.656
X-10.464 Y-18.391
X-9.94 Y-18.095
X-9.496 Y-17.795
X-9.151 Y-17.52
X-8.909 Y-17.292
X-8.708 Y-17.071
X-8.571 Y-16.893
X-8.461 Y-16.723
X-8.363 Y-16.541
X-8.295 Y-16.387
X-8.242 Y-16.234
X-8.226 Y-16.171
X-8.205 Y-15.976
X-8.243 Y-15.784
X-8.336 Y-15.611
X-8.476 Y-15.473
X-8.65 Y-15.382
X-8.698 Y-15.366
X-8.748 Y-15.359
X-8.798
X-9.428 Y-15.425
X-18.877 Y-16.408
X-19.231 Y-16.444
G3 X-19.5 Y-16.732 I0.031 J-0.298
G1 Y-17.867
X-19.493 Y-18.016
X-19.463 Y-18.164
