(1030)
(T1  D=6. CR=0. - ZMIN=-17.01 - FLAT END MILL)
G90 G94 G91.1 G40 G49 G17
G21
G28 G91 Z0.
G90

(2D CONTOUR5)
M5
T1 M6
S12000 M3
G54
G0 X410.754 Y207.617
G43 Z15. H1
Z7.
G1 Z-5.4 F796.
X410.746 Z-5.494 F2388.
X410.724 Y207.616 Z-5.585
X410.688 Y207.613 Z-5.672
X410.639 Y207.61 Z-5.753
X410.578 Y207.606 Z-5.824
X410.507 Y207.602 Z-5.885
X410.427 Y207.597 Z-5.935
X410.34 Y207.592 Z-5.971
X410.248 Y207.586 Z-5.993
X410.155 Y207.58 Z-6.
X409.556 Y207.543
G3 X408.994 Y206.907 I0.037 J-0.599
G1 X409. Y206.721 F1500.
Y75.279
G2 X408.121 Y73.157 I-3. J0.
G1 X408.114 Y73.139
X408.121 Y73.121
X408.139 Y73.113
X408.157 Y73.121
G2 X410.279 Y74. I2.122 J-2.121
G1 X416.721
G2 X418.843 Y73.121 I0. J-3.
G1 X418.861 Y73.113
X418.879 Y73.121
X418.886 Y73.139
X418.879 Y73.157
G2 X418. Y75.279 I2.121 J2.122
G1 Y206.721
G2 X418.879 Y208.843 I3. J0.
G1 X418.887 Y208.861
X418.879 Y208.879
X418.861 Y208.887
X418.843 Y208.879
G2 X416.721 Y208. I-2.122 J2.121
G1 X410.279
G2 X408.157 Y208.879 I0. J3.
G1 X408.139 Y208.887
X408.121 Y208.879
X408.113 Y208.861
X408.121 Y208.843
G2 X408.994 Y206.907 I-2.121 J-2.122
G3 X409.63 Y206.345 I0.599 J0.037 F2388.
G1 X410.229 Y206.382
X410.323 Y206.388 Z-5.993
X410.414 Y206.394 Z-5.971
X410.501 Y206.399 Z-5.935
X410.581 Y206.404 Z-5.885
X410.653 Y206.409 Z-5.824
X410.714 Y206.413 Z-5.753
X410.763 Y206.416 Z-5.672
X410.799 Y206.418 Z-5.585
X410.821 Y206.419 Z-5.494
X410.828 Y206.42 Z-5.4
G0 Z5.
X410.754 Y207.617
G1 Z1. F796.
Z-11.4
X410.746 Z-11.494 F2388.
X410.724 Y207.616 Z-11.585
X410.688 Y207.613 Z-11.672
X410.639 Y207.61 Z-11.753
X410.578 Y207.606 Z-11.824
X410.507 Y207.602 Z-11.885
X410.427 Y207.597 Z-11.935
X410.34 Y207.592 Z-11.971
X410.248 Y207.586 Z-11.993
X410.155 Y207.58 Z-12.
X409.556 Y207.543
G3 X408.994 Y206.907 I0.037 J-0.599
G1 X409. Y206.721 F1500.
Y75.279
G2 X408.121 Y73.157 I-3. J0.
G1 X408.114 Y73.139
X408.121 Y73.121
X408.139 Y73.113
X408.157 Y73.121
G2 X410.279 Y74. I2.122 J-2.121
G1 X416.721
G2 X418.843 Y73.121 I0. J-3.
G1 X418.861 Y73.113
X418.879 Y73.121
X418.886 Y73.139
X418.879 Y73.157
G2 X418. Y75.279 I2.121 J2.122
G1 Y206.721
G2 X418.879 Y208.843 I3. J0.
G1 X418.887 Y208.861
X418.879 Y208.879
X418.861 Y208.887
X418.843 Y208.879
G2 X416.721 Y208. I-2.122 J2.121
G1 X410.279
G2 X408.157 Y208.879 I0. J3.
G1 X408.139 Y208.887
X408.121 Y208.879
X408.113 Y208.861
X408.121 Y208.843
G2 X408.994 Y206.907 I-2.121 J-2.122
G3 X409.63 Y206.345 I0.599 J0.037 F2388.
G1 X410.229 Y206.382
X410.323 Y206.388 Z-11.993
X410.414 Y206.394 Z-11.971
X410.501 Y206.399 Z-11.935
X410.581 Y206.404 Z-11.885
X410.653 Y206.409 Z-11.824
X410.714 Y206.413 Z-11.753
X410.763 Y206.416 Z-11.672
X410.799 Y206.418 Z-11.585
X410.821 Y206.419 Z-11.494
X410.828 Y206.42 Z-11.4
G0 Z5.
X410.754 Y207.617
G1 Z-5. F796.
Z-16.411
X410.746 Z-16.504 F2388.
X410.724 Y207.616 Z-16.596
X410.688 Y207.613 Z-16.683
X410.639 Y207.61 Z-16.763
X410.578 Y207.606 Z-16.835
X410.507 Y207.602 Z-16.896
X410.427 Y207.597 Z-16.945
X410.34 Y207.592 Z-16.981
X410.248 Y207.586 Z-17.003
X410.155 Y207.58 Z-17.01
X409.556 Y207.543
G3 X408.994 Y206.907 I0.037 J-0.599
G1 X409. Y206.721 F1500.
Y181.861
Z-15.01
Y165.861
Z-17.01 F796.
Y116.139 F1500.
Z-15.01
Y100.139
Z-17.01 F796.
Y75.279 F1500.
G2 X408.121 Y73.157 I-3. J0.
G1 X408.114 Y73.139
X408.121 Y73.121
X408.139 Y73.113
X408.157 Y73.121
G2 X410.279 Y74. I2.122 J-2.121
G1 X416.721
G2 X418.843 Y73.121 I0. J-3.
G1 X418.861 Y73.113
X418.879 Y73.121
X418.886 Y73.139
X418.879 Y73.157
G2 X418. Y75.279 I2.121 J2.122
G1 Y100.139
Z-15.01
Y116.139
Z-17.01 F796.
Y165.861 F1500.
Z-15.01
Y181.861
Z-17.01 F796.
Y206.721 F1500.
G2 X418.879 Y208.843 I3. J0.
G1 X418.887 Y208.861
X418.879 Y208.879
X418.861 Y208.887
X418.843 Y208.879
G2 X416.721 Y208. I-2.122 J2.121
G1 X410.279
G2 X408.157 Y208.879 I0. J3.
G1 X408.139 Y208.887
X408.121 Y208.879
X408.113 Y208.861
X408.121 Y208.843
G2 X408.994 Y206.907 I-2.121 J-2.122
G3 X409.63 Y206.345 I0.599 J0.037 F2388.
G1 X410.229 Y206.382
X410.323 Y206.388 Z-17.003
X410.414 Y206.394 Z-16.981
X410.501 Y206.399 Z-16.945
X410.581 Y206.404 Z-16.896
X410.653 Y206.409 Z-16.835
X410.714 Y206.413 Z-16.763
X410.763 Y206.416 Z-16.683
X410.799 Y206.418 Z-16.596
X410.821 Y206.419 Z-16.504
X410.828 Y206.42 Z-16.411
G0 Z7.
X550.754 Y207.617
G1 Z-5.4 F796.
X550.746 Z-5.494 F2388.
X550.724 Y207.616 Z-5.585
X550.688 Y207.613 Z-5.672
X550.639 Y207.61 Z-5.753
X550.578 Y207.606 Z-5.824
X550.507 Y207.602 Z-5.885
X550.427 Y207.597 Z-5.935
X550.34 Y207.592 Z-5.971
X550.248 Y207.586 Z-5.993
X550.155 Y207.58 Z-6.
X549.556 Y207.543
G3 X548.994 Y206.907 I0.037 J-0.599
G1 X549. Y206.721 F1500.
Y75.279
G2 X548.121 Y73.157 I-3. J0.
G1 X548.114 Y73.139
X548.121 Y73.121
X548.139 Y73.113
X548.157 Y73.121
G2 X550.279 Y74. I2.122 J-2.121
G1 X556.721
G2 X558.843 Y73.121 I0. J-3.
G1 X558.861 Y73.113
X558.879 Y73.121
X558.886 Y73.139
X558.879 Y73.157
G2 X558. Y75.279 I2.121 J2.122
G1 Y206.721
G2 X558.879 Y208.843 I3. J0.
G1 X558.887 Y208.861
X558.879 Y208.879
X558.861 Y208.887
X558.843 Y208.879
G2 X556.721 Y208. I-2.122 J2.121
G1 X550.279
G2 X548.157 Y208.879 I0. J3.
G1 X548.139 Y208.887
X548.121 Y208.879
X548.113 Y208.861
X548.121 Y208.843
G2 X548.994 Y206.907 I-2.121 J-2.122
G3 X549.63 Y206.345 I0.599 J0.037 F2388.
G1 X550.229 Y206.382
X550.323 Y206.388 Z-5.993
X550.414 Y206.394 Z-5.971
X550.501 Y206.399 Z-5.935
X550.581 Y206.404 Z-5.885
X550.653 Y206.409 Z-5.824
X550.714 Y206.413 Z-5.753
X550.763 Y206.416 Z-5.672
X550.799 Y206.418 Z-5.585
X550.821 Y206.419 Z-5.494
X550.828 Y206.42 Z-5.4
G0 Z5.
X550.754 Y207.617
G1 Z1. F796.
Z-11.4
X550.746 Z-11.494 F2388.
X550.724 Y207.616 Z-11.585
X550.688 Y207.613 Z-11.672
X550.639 Y207.61 Z-11.753
X550.578 Y207.606 Z-11.824
X550.507 Y207.602 Z-11.885
X550.427 Y207.597 Z-11.935
X550.34 Y207.592 Z-11.971
X550.248 Y207.586 Z-11.993
X550.155 Y207.58 Z-12.
X549.556 Y207.543
G3 X548.994 Y206.907 I0.037 J-0.599
G1 X549. Y206.721 F1500.
Y75.279
G2 X548.121 Y73.157 I-3. J0.
G1 X548.114 Y73.139
X548.121 Y73.121
X548.139 Y73.113
X548.157 Y73.121
G2 X550.279 Y74. I2.122 J-2.121
G1 X556.721
G2 X558.843 Y73.121 I0. J-3.
G1 X558.861 Y73.113
X558.879 Y73.121
X558.886 Y73.139
X558.879 Y73.157
G2 X558. Y75.279 I2.121 J2.122
G1 Y206.721
G2 X558.879 Y208.843 I3. J0.
G1 X558.887 Y208.861
X558.879 Y208.879
X558.861 Y208.887
X558.843 Y208.879
G2 X556.721 Y208. I-2.122 J2.121
G1 X550.279
G2 X548.157 Y208.879 I0. J3.
G1 X548.139 Y208.887
X548.121 Y208.879
X548.113 Y208.861
X548.121 Y208.843
G2 X548.994 Y206.907 I-2.121 J-2.122
G3 X549.63 Y206.345 I0.599 J0.037 F2388.
G1 X550.229 Y206.382
X550.323 Y206.388 Z-11.993
X550.414 Y206.394 Z-11.971
X550.501 Y206.399 Z-11.935
X550.581 Y206.404 Z-11.885
X550.653 Y206.409 Z-11.824
X550.714 Y206.413 Z-11.753
X550.763 Y206.416 Z-11.672
X550.799 Y206.418 Z-11.585
X550.821 Y206.419 Z-11.494
X550.828 Y206.42 Z-11.4
G0 Z5.
X550.754 Y207.617
G1 Z-5. F796.
Z-16.411
X550.746 Z-16.504 F2388.
X550.724 Y207.616 Z-16.596
X550.688 Y207.613 Z-16.683
X550.639 Y207.61 Z-16.763
X550.578 Y207.606 Z-16.835
X550.507 Y207.602 Z-16.896
X550.427 Y207.597 Z-16.945
X550.34 Y207.592 Z-16.981
X550.248 Y207.586 Z-17.003
X550.155 Y207.58 Z-17.01
X549.556 Y207.543
G3 X548.994 Y206.907 I0.037 J-0.599
G1 X549. Y206.721 F1500.
Y181.861
Z-15.01
Y165.861
Z-17.01 F796.
Y116.139 F1500.
Z-15.01
Y100.139
Z-17.01 F796.
Y75.279 F1500.
G2 X548.121 Y73.157 I-3. J0.
G1 X548.114 Y73.139
X548.121 Y73.121
X548.139 Y73.113
X548.157 Y73.121
G2 X550.279 Y74. I2.122 J-2.121
G1 X556.721
G2 X558.843 Y73.121 I0. J-3.
G1 X558.861 Y73.113
X558.879 Y73.121
X558.886 Y73.139
X558.879 Y73.157
G2 X558. Y75.279 I2.121 J2.122
G1 Y100.139
Z-15.01
Y116.139
Z-17.01 F796.
Y165.861 F1500.
Z-15.01
Y181.861
Z-17.01 F796.
Y206.721 F1500.
G2 X558.879 Y208.843 I3. J0.
G1 X558.887 Y208.861
X558.879 Y208.879
X558.861 Y208.887
X558.843 Y208.879
G2 X556.721 Y208. I-2.122 J2.121
G1 X550.279
G2 X548.157 Y208.879 I0. J3.
G1 X548.139 Y208.887
X548.121 Y208.879
X548.113 Y208.861
X548.121 Y208.843
G2 X548.994 Y206.907 I-2.121 J-2.122
G3 X549.63 Y206.345 I0.599 J0.037 F2388.
G1 X550.229 Y206.382
X550.323 Y206.388 Z-17.003
X550.414 Y206.394 Z-16.981
X550.501 Y206.399 Z-16.945
X550.581 Y206.404 Z-16.896
X550.653 Y206.409 Z-16.835
X550.714 Y206.413 Z-16.763
X550.763 Y206.416 Z-16.683
X550.799 Y206.418 Z-16.596
X550.821 Y206.419 Z-16.504
X550.828 Y206.42 Z-16.411
G0 Z7.
X192.617 Y206.246
G1 Z-5.4 F796.
Y206.254 Z-5.494 F2388.
X192.616 Y206.276 Z-5.585
X192.613 Y206.312 Z-5.672
X192.61 Y206.361 Z-5.753
X192.606 Y206.422 Z-5.824
X192.602 Y206.493 Z-5.885
X192.597 Y206.573 Z-5.935
X192.592 Y206.66 Z-5.971
X192.586 Y206.752 Z-5.993
X192.58 Y206.845 Z-6.
X192.543 Y207.444
G3 X191.907 Y208.006 I-0.599 J-0.037
G1 X191.721 Y208. F1500.
X185.279
G2 X183.157 Y208.879 I0. J3.
G1 X183.139 Y208.887
X183.121 Y208.879
X183.113 Y208.861
X183.121 Y208.843
G2 X184. Y206.721 I-2.121 J-2.122
G1 Y75.279
G2 X183.121 Y73.157 I-3. J0.
G1 X183.114 Y73.139
X183.121 Y73.121
X183.139 Y73.113
X183.157 Y73.121
G2 X185.279 Y74. I2.122 J-2.121
G1 X191.721
G2 X193.842 Y73.121 I0. J-3.
G1 X193.86 Y73.113
X193.879 Y73.121
X193.886 Y73.139
X193.879 Y73.157
G2 X193. Y75.279 I2.121 J2.122
G1 Y206.721
G2 X193.879 Y208.843 I3. J0.
G1 X193.887 Y208.861
X193.879 Y208.879
X193.861 Y208.887
X193.843 Y208.879
G2 X191.907 Y208.006 I-2.122 J2.121
G3 X191.345 Y207.37 I0.037 J-0.599 F2388.
G1 X191.382 Y206.771
X191.388 Y206.677 Z-5.993
X191.394 Y206.586 Z-5.971
X191.399 Y206.499 Z-5.935
X191.404 Y206.419 Z-5.885
X191.409 Y206.347 Z-5.824
X191.413 Y206.286 Z-5.753
X191.416 Y206.237 Z-5.672
X191.418 Y206.201 Z-5.585
X191.419 Y206.179 Z-5.494
X191.42 Y206.172 Z-5.4
G0 Z5.
X192.617 Y206.246
G1 Z1. F796.
Z-11.4
Y206.254 Z-11.494 F2388.
X192.616 Y206.276 Z-11.585
X192.613 Y206.312 Z-11.672
X192.61 Y206.361 Z-11.753
X192.606 Y206.422 Z-11.824
X192.602 Y206.493 Z-11.885
X192.597 Y206.573 Z-11.935
X192.592 Y206.66 Z-11.971
X192.586 Y206.752 Z-11.993
X192.58 Y206.845 Z-12.
X192.543 Y207.444
G3 X191.907 Y208.006 I-0.599 J-0.037
G1 X191.721 Y208. F1500.
X185.279
G2 X183.157 Y208.879 I0. J3.
G1 X183.139 Y208.887
X183.121 Y208.879
X183.113 Y208.861
X183.121 Y208.843
G2 X184. Y206.721 I-2.121 J-2.122
G1 Y75.279
G2 X183.121 Y73.157 I-3. J0.
G1 X183.114 Y73.139
X183.121 Y73.121
X183.139 Y73.113
X183.157 Y73.121
G2 X185.279 Y74. I2.122 J-2.121
G1 X191.721
G2 X193.842 Y73.121 I0. J-3.
G1 X193.86 Y73.113
X193.879 Y73.121
X193.886 Y73.139
X193.879 Y73.157
G2 X193. Y75.279 I2.121 J2.122
G1 Y206.721
G2 X193.879 Y208.843 I3. J0.
G1 X193.887 Y208.861
X193.879 Y208.879
X193.861 Y208.887
X193.843 Y208.879
G2 X191.907 Y208.006 I-2.122 J2.121
G3 X191.345 Y207.37 I0.037 J-0.599 F2388.
G1 X191.382 Y206.771
X191.388 Y206.677 Z-11.993
X191.394 Y206.586 Z-11.971
X191.399 Y206.499 Z-11.935
X191.404 Y206.419 Z-11.885
X191.409 Y206.347 Z-11.824
X191.413 Y206.286 Z-11.753
X191.416 Y206.237 Z-11.672
X191.418 Y206.201 Z-11.585
X191.419 Y206.179 Z-11.494
X191.42 Y206.172 Z-11.4
G0 Z5.
X192.617 Y206.246
G1 Z-5. F796.
Z-16.411
Y206.254 Z-16.504 F2388.
X192.616 Y206.276 Z-16.596
X192.613 Y206.312 Z-16.683
X192.61 Y206.361 Z-16.763
X192.606 Y206.422 Z-16.835
X192.602 Y206.493 Z-16.896
X192.597 Y206.573 Z-16.945
X192.592 Y206.66 Z-16.981
X192.586 Y206.752 Z-17.003
X192.58 Y206.845 Z-17.01
X192.543 Y207.444
G3 X191.907 Y208.006 I-0.599 J-0.037
G1 X191.721 Y208. F1500.
X185.279
G2 X183.157 Y208.879 I0. J3.
G1 X183.139 Y208.887
X183.121 Y208.879
X183.113 Y208.861
X183.121 Y208.843
G2 X184. Y206.721 I-2.121 J-2.122
G1 Y181.861
Z-15.01
Y165.861
Z-17.01 F796.
Y116.139 F1500.
Z-15.01
Y100.139
Z-17.01 F796.
Y75.279 F1500.
G2 X183.121 Y73.157 I-3. J0.
G1 X183.114 Y73.139
X183.121 Y73.121
X183.139 Y73.113
X183.157 Y73.121
G2 X185.279 Y74. I2.122 J-2.121
G1 X191.721
G2 X193.842 Y73.121 I0. J-3.
G1 X193.86 Y73.113
X193.879 Y73.121
X193.886 Y73.139
X193.879 Y73.157
G2 X193. Y75.279 I2.121 J2.122
G1 Y100.139
Z-15.01
Y116.139
Z-17.01 F796.
Y165.861 F1500.
Z-15.01
Y181.861
Z-17.01 F796.
Y206.721 F1500.
G2 X193.879 Y208.843 I3. J0.
G1 X193.887 Y208.861
X193.879 Y208.879
X193.861 Y208.887
X193.843 Y208.879
G2 X191.907 Y208.006 I-2.122 J2.121
G3 X191.345 Y207.37 I0.037 J-0.599 F2388.
G1 X191.382 Y206.771
X191.388 Y206.677 Z-17.003
X191.394 Y206.586 Z-16.981
X191.399 Y206.499 Z-16.945
X191.404 Y206.419 Z-16.896
X191.409 Y206.347 Z-16.835
X191.413 Y206.286 Z-16.763
X191.416 Y206.237 Z-16.683
X191.418 Y206.201 Z-16.596
X191.419 Y206.179 Z-16.504
X191.42 Y206.172 Z-16.411
G0 Z7.
X52.616 Y206.246
G1 Z-5.4 F796.
Y206.254 Z-5.494 F2388.
X52.615 Y206.275 Z-5.585
X52.612 Y206.311 Z-5.672
X52.609 Y206.361 Z-5.753
X52.606 Y206.422 Z-5.824
X52.601 Y206.493 Z-5.885
X52.596 Y206.573 Z-5.935
X52.591 Y206.66 Z-5.971
X52.585 Y206.751 Z-5.993
X52.579 Y206.845 Z-6.
X52.542 Y207.444
G3 X51.907 Y208.006 I-0.599 J-0.037
G1 X51.721 Y208. F1500.
X45.279
G2 X43.157 Y208.879 I0. J3.
G1 X43.139 Y208.886
X43.121 Y208.879
X43.113 Y208.861
X43.121 Y208.843
G2 X44. Y206.721 I-2.121 J-2.122
G1 Y75.279
G2 X43.121 Y73.157 I-3. J0.
G1 X43.114 Y73.139
X43.121 Y73.121
X43.139 Y73.114
X43.157 Y73.121
G2 X45.279 Y74. I2.121 J-2.121
G1 X51.721
G2 X53.843 Y73.121 I0. J-3.
G1 X53.861 Y73.114
X53.879 Y73.121
X53.886 Y73.139
X53.879 Y73.157
G2 X53. Y75.279 I2.121 J2.121
G1 Y206.721
G2 X53.879 Y208.843 I3. J0.
G1 X53.887 Y208.861
X53.879 Y208.879
X53.861 Y208.886
X53.843 Y208.879
G2 X51.907 Y208.006 I-2.122 J2.121
G3 X51.345 Y207.37 I0.037 J-0.599 F2388.
G1 X51.382 Y206.771
X51.388 Y206.677 Z-5.993
X51.393 Y206.586 Z-5.971
X51.399 Y206.499 Z-5.935
X51.403 Y206.419 Z-5.885
X51.408 Y206.348 Z-5.824
X51.412 Y206.286 Z-5.753
X51.415 Y206.237 Z-5.672
X51.417 Y206.201 Z-5.585
X51.418 Y206.179 Z-5.494
X51.419 Y206.172 Z-5.4
G0 Z5.
X52.616 Y206.246
G1 Z1. F796.
Z-11.4
Y206.254 Z-11.494 F2388.
X52.615 Y206.275 Z-11.585
X52.612 Y206.311 Z-11.672
X52.609 Y206.361 Z-11.753
X52.606 Y206.422 Z-11.824
X52.601 Y206.493 Z-11.885
X52.596 Y206.573 Z-11.935
X52.591 Y206.66 Z-11.971
X52.585 Y206.751 Z-11.993
X52.579 Y206.845 Z-12.
X52.542 Y207.444
G3 X51.907 Y208.006 I-0.599 J-0.037
G1 X51.721 Y208. F1500.
X45.279
G2 X43.157 Y208.879 I0. J3.
G1 X43.139 Y208.886
X43.121 Y208.879
X43.113 Y208.861
X43.121 Y208.843
G2 X44. Y206.721 I-2.121 J-2.122
G1 Y75.279
G2 X43.121 Y73.157 I-3. J0.
G1 X43.114 Y73.139
X43.121 Y73.121
X43.139 Y73.114
X43.157 Y73.121
G2 X45.279 Y74. I2.121 J-2.121
G1 X51.721
G2 X53.843 Y73.121 I0. J-3.
G1 X53.861 Y73.114
X53.879 Y73.121
X53.886 Y73.139
X53.879 Y73.157
G2 X53. Y75.279 I2.121 J2.121
G1 Y206.721
G2 X53.879 Y208.843 I3. J0.
G1 X53.887 Y208.861
X53.879 Y208.879
X53.861 Y208.886
X53.843 Y208.879
G2 X51.907 Y208.006 I-2.122 J2.121
G3 X51.345 Y207.37 I0.037 J-0.599 F2388.
G1 X51.382 Y206.771
X51.388 Y206.677 Z-11.993
X51.393 Y206.586 Z-11.971
X51.399 Y206.499 Z-11.935
X51.403 Y206.419 Z-11.885
X51.408 Y206.348 Z-11.824
X51.412 Y206.286 Z-11.753
X51.415 Y206.237 Z-11.672
X51.417 Y206.201 Z-11.585
X51.418 Y206.179 Z-11.494
X51.419 Y206.172 Z-11.4
G0 Z5.
X52.616 Y206.246
G1 Z-5. F796.
Z-16.411
Y206.254 Z-16.504 F2388.
X52.615 Y206.275 Z-16.596
X52.612 Y206.311 Z-16.683
X52.609 Y206.361 Z-16.763
X52.606 Y206.422 Z-16.835
X52.601 Y206.493 Z-16.896
X52.596 Y206.573 Z-16.945
X52.591 Y206.66 Z-16.981
X52.585 Y206.751 Z-17.003
X52.579 Y206.845 Z-17.01
X52.542 Y207.444
G3 X51.907 Y208.006 I-0.599 J-0.037
G1 X51.721 Y208. F1500.
X45.279
G2 X43.157 Y208.879 I0. J3.
G1 X43.139 Y208.886
X43.121 Y208.879
X43.113 Y208.861
X43.121 Y208.843
G2 X44. Y206.721 I-2.121 J-2.122
G1 Y181.861
Z-15.01
Y165.861
Z-17.01 F796.
Y116.139 F1500.
Z-15.01
Y100.139
Z-17.01 F796.
Y75.279 F1500.
G2 X43.121 Y73.157 I-3. J0.
G1 X43.114 Y73.139
X43.121 Y73.121
X43.139 Y73.114
X43.157 Y73.121
G2 X45.279 Y74. I2.121 J-2.121
G1 X51.721
G2 X53.843 Y73.121 I0. J-3.
G1 X53.861 Y73.114
X53.879 Y73.121
X53.886 Y73.139
X53.879 Y73.157
G2 X53. Y75.279 I2.121 J2.121
G1 Y100.139
Z-15.01
Y116.139
Z-17.01 F796.
Y165.861 F1500.
Z-15.01
Y181.861
Z-17.01 F796.
Y206.721 F1500.
G2 X53.879 Y208.843 I3. J0.
G1 X53.887 Y208.861
X53.879 Y208.879
X53.861 Y208.886
X53.843 Y208.879
G2 X51.907 Y208.006 I-2.122 J2.121
G3 X51.345 Y207.37 I0.037 J-0.599 F2388.
G1 X51.382 Y206.771
X51.388 Y206.677 Z-17.003
X51.393 Y206.586 Z-16.981
X51.399 Y206.499 Z-16.945
X51.403 Y206.419 Z-16.896
X51.408 Y206.348 Z-16.835
X51.412 Y206.286 Z-16.763
X51.415 Y206.237 Z-16.683
X51.417 Y206.201 Z-16.596
X51.418 Y206.179 Z-16.504
X51.419 Y206.172 Z-16.411
G0 Z15.

(2D CONTOUR6)
G0 X523.863 Y381.206
Z15.
Z7.
G1 Z-5.4 F796.
G19 G3 Y381.806 Z-6. J0.6 K0. F2388.
G1 Y382.406
G17 G3 X523.263 Y383.006 I-0.6 J0.
G1 X523.262 F1500.
G2 X521.141 Y383.885 I0. J3.
G1 X521.123 Y383.892
X521.105 Y383.885
X521.097 Y383.867
X521.105 Y383.849
G2 X521.984 Y381.727 I-2.121 J-2.122
G1 Y371.006
G2 X518.984 Y368.006 I-3. J0.
G1 X378.984
G2 X375.984 Y371.006 I0. J3.
G1 Y381.727
G2 X376.863 Y383.849 I3. J0.
G1 X376.871 Y383.867
X376.863 Y383.885
X376.845 Y383.893
X376.827 Y383.885
G2 X374.705 Y383.006 I-2.122 J2.121
G1 X313.657
G2 X311.987 Y388.498 I0. J3.
G1 X314.522 Y390.197
X317.163 Y392.012
X318.493 Y392.944
X319.821 Y393.888
X321.13 Y394.834
X322.411 Y395.775
X323.65 Y396.704
X324.849 Y397.622
X326.013 Y398.535
X327.141 Y399.442
X328.234 Y400.345
X329.288 Y401.242
X330.302 Y402.135
X331.28 Y403.025
X332.217 Y403.913
X333.113 Y404.795
X333.968 Y405.677
X334.783 Y406.556
X335.552 Y407.432
X336.281 Y408.308
X336.963 Y409.178
X337.592 Y410.034
X338.169 Y410.877
X338.699 Y411.71
X339.181 Y412.531
X339.618 Y413.339
X340.011 Y414.138
X340.362 Y414.929
X340.674 Y415.713
X340.947 Y416.492
X341.185 Y417.269
X341.389 Y418.044
X341.559 Y418.817
X341.697 Y419.594
X341.804 Y420.376
X341.882 Y421.163
X341.93 Y421.958
X341.951 Y422.765
X341.944 Y423.582
X341.909 Y424.413
X341.85 Y425.257
X341.764 Y426.111
X341.655 Y426.977
X341.523 Y427.852
X341.37 Y428.739
X341.198 Y429.638
X341.006 Y430.55
X340.799 Y431.473
X340.575 Y432.407
X340.339 Y433.351
X339.826 Y435.293
X339.28 Y437.28
X338.708 Y439.336
X338.705 Y439.346
X338.122 Y441.47
X338.114 Y441.501
X337.54 Y443.685
X337.531 Y443.719
X337.252 Y444.833
X337.245 Y444.861
X336.974 Y445.989
X336.966 Y446.022
X336.705 Y447.164
X336.697 Y447.202
X336.449 Y448.357
X336.441 Y448.395
X336.206 Y449.563
X336.196 Y449.613
X335.979 Y450.794
X335.971 Y450.84
X335.771 Y452.034
X335.763 Y452.09
X335.583 Y453.296
X335.575 Y453.355
X335.419 Y454.572
X335.412 Y454.633
X335.28 Y455.862
X335.274 Y455.929
X335.169 Y457.17
X335.164 Y457.241
X335.088 Y458.491
X335.084 Y458.564
X335.038 Y459.826
X335.036 Y459.904
X335.023 Y461.174
Y461.255
X335.044 Y462.503
X335.047 Y462.589
X335.102 Y463.802
X335.107 Y463.884
X335.193 Y465.063
X335.2 Y465.148
X335.316 Y466.291
X335.327 Y466.38
X335.473 Y467.489
X335.486 Y467.577
X335.66 Y468.65
X335.675 Y468.738
X335.875 Y469.775
X335.895 Y469.868
X336.121 Y470.869
X336.144 Y470.963
X336.395 Y471.928
X336.421 Y472.023
X336.695 Y472.95
X336.724 Y473.043
X337.019 Y473.934
X337.054 Y474.034
X337.371 Y474.889
X337.411 Y474.99
X337.758 Y475.831
X337.803 Y475.934
X338.182 Y476.763
X338.237 Y476.877
X338.651 Y477.69
X338.695 Y477.775
X338.915 Y478.175
X338.947 Y478.232
X339.175 Y478.626
X339.215 Y478.692
X339.453 Y479.08
X339.491 Y479.14
X339.738 Y479.522
X339.779 Y479.584
X340.035 Y479.959
X340.079 Y480.021
X340.344 Y480.389
X340.394 Y480.457
X340.669 Y480.817
X340.721 Y480.884
X341.006 Y481.236
X341.06 Y481.3
X341.354 Y481.643
X341.417 Y481.714
X341.722 Y482.048
X341.783 Y482.113
X342.096 Y482.436
X342.162 Y482.503
X342.484 Y482.815
X342.557 Y482.883
X342.889 Y483.184
X342.964 Y483.25
X343.305 Y483.539
X343.387 Y483.606
X343.737 Y483.882
X343.818 Y483.943
X344.177 Y484.207
X344.267 Y484.271
X344.636 Y484.522
X344.732 Y484.585
X345.111 Y484.822
X345.202 Y484.876
X345.59 Y485.1
X345.69 Y485.155
X346.088 Y485.365
X346.186 Y485.415
X346.593 Y485.611
X346.7 Y485.66
X347.112 Y485.839
X347.223 Y485.884
X347.641 Y486.046
X347.744 Y486.084
X348.166 Y486.23
X348.278 Y486.266
X348.704 Y486.395
X348.806 Y486.424
X349.237 Y486.538
X349.343 Y486.564
X349.777 Y486.662
X349.881 Y486.684
X350.32 Y486.767
X350.427 Y486.785
X350.869 Y486.852
X350.965 Y486.865
X351.411 Y486.918
X351.512 Y486.928
X351.961 Y486.966
X352.062 Y486.973
X352.514 Y486.996
X352.606 Y486.999
X353.058 Y487.008
X353.145 Y487.009
X353.597 Y487.005
X353.689 Y487.003
X354.142 Y486.985
X354.222 Y486.98
X354.673 Y486.95
X354.752 Y486.944
X355.203 Y486.902
X355.282 Y486.894
X355.732 Y486.84
X355.806 Y486.83
X356.254 Y486.765
X356.326 Y486.754
X356.773 Y486.678
X356.869 Y486.66
X357.757 Y486.479
X357.877 Y486.452
X358.756 Y486.235
X358.865 Y486.205
X359.739 Y485.954
X359.84 Y485.924
X360.709 Y485.641
X360.799 Y485.61
X361.66 Y485.299
X361.743 Y485.267
X362.596 Y484.93
X362.672 Y484.899
X363.515 Y484.539
X363.583 Y484.509
X364.413 Y484.13
X364.473 Y484.102
X365.29 Y483.707
G2 X366.983 Y480.933 I-1.306 J-2.701
G1 X366.957 Y479.841
X366.942 Y478.761
X366.941 Y477.676
X366.953 Y476.585
X366.979 Y475.492
X367.019 Y474.398
X367.075 Y473.304
X367.147 Y472.212
X367.235 Y471.122
X367.341 Y470.037
X367.465 Y468.96
X367.609 Y467.887
X367.771 Y466.822
X367.953 Y465.768
X368.156 Y464.725
X368.379 Y463.694
X368.625 Y462.678
X368.893 Y461.676
X369.182 Y460.69
X369.498 Y459.717
X369.839 Y458.755
X370.205 Y457.813
X370.599 Y456.887
X371.021 Y455.979
X371.478 Y455.078
X371.706 Y454.655
X371.948 Y454.229
X372.2 Y453.802
X372.458 Y453.385
X372.722 Y452.975
X372.996 Y452.569
X373.274 Y452.173
X373.564 Y451.782
X373.862 Y451.394
X374.165 Y451.018
X374.474 Y450.651
X374.791 Y450.293
X375.116 Y449.942
X375.447 Y449.601
X375.785 Y449.268
X376.128 Y448.946
X376.479 Y448.632
X376.837 Y448.327
X377.199 Y448.033
X377.571 Y447.748
X377.951 Y447.47
X378.334 Y447.204
X378.726 Y446.948
X379.128 Y446.699
X379.535 Y446.461
X379.948 Y446.233
X380.366 Y446.016
X380.792 Y445.811
X381.223 Y445.614
X381.655 Y445.43
X382.094 Y445.257
X382.534 Y445.096
X382.98 Y444.946
X383.434 Y444.805
X383.888 Y444.676
X384.346 Y444.559
X384.804 Y444.453
X385.268 Y444.359
X385.735 Y444.274
X386.205 Y444.202
X386.677 Y444.141
X387.148 Y444.091
X387.622 Y444.053
X388.099 Y444.026
X388.575 Y444.011
X389.053 Y444.006
X389.527 Y444.013
X390. Y444.032
X390.477 Y444.063
X390.952 Y444.104
X391.426 Y444.157
X391.897 Y444.222
X392.365 Y444.297
X392.83 Y444.384
X393.297 Y444.483
X393.758 Y444.592
X394.216 Y444.714
X394.671 Y444.846
X395.119 Y444.988
X395.565 Y445.142
X396.001 Y445.306
X396.435 Y445.481
X396.866 Y445.668
X397.291 Y445.865
X397.71 Y446.072
X398.124 Y446.29
X398.532 Y446.518
X398.936 Y446.758
X399.332 Y447.006
X399.725 Y447.268
X400.112 Y447.539
X400.491 Y447.82
X400.866 Y448.112
X401.232 Y448.412
X401.592 Y448.724
X401.943 Y449.041
X402.286 Y449.369
X402.622 Y449.703
X402.949 Y450.046
X403.272 Y450.4
X403.585 Y450.76
X403.893 Y451.129
X404.192 Y451.504
X404.483 Y451.886
X404.767 Y452.278
X405.046 Y452.678
X405.317 Y453.086
X405.58 Y453.497
X405.837 Y453.918
X406.086 Y454.345
X406.329 Y454.78
X406.557 Y455.206
X407.009 Y456.11
X407.429 Y457.024
X407.819 Y457.955
X408.183 Y458.904
X408.521 Y459.87
X408.833 Y460.848
X409.12 Y461.838
X409.382 Y462.838
X409.622 Y463.847
X409.84 Y464.863
X410.037 Y465.893
X410.215 Y466.932
X410.372 Y467.983
X410.512 Y469.043
X410.633 Y470.109
X410.738 Y471.183
X410.825 Y472.259
X410.895 Y473.341
X410.95 Y474.425
X410.989 Y475.513
X411.015 Y476.599
X411.027 Y477.682
X411.025 Y478.763
X411.01 Y479.844
X410.985 Y480.936
G2 X412.828 Y483.774 I2.999 J0.07
G1 X413.587 Y484.091
X413.642 Y484.113
X414.401 Y484.413
X414.46 Y484.436
X415.218 Y484.717
X415.279 Y484.739
X416.035 Y485.001
X416.099 Y485.022
X416.852 Y485.264
X416.929 Y485.288
X417.679 Y485.507
X417.758 Y485.529
X418.504 Y485.725
X418.588 Y485.745
X419.329 Y485.917
X419.423 Y485.938
X420.159 Y486.084
X420.26 Y486.102
X420.989 Y486.221
X421.093 Y486.236
X421.816 Y486.328
X421.932 Y486.34
X422.648 Y486.403
X422.777 Y486.412
X423.494 Y486.444
X423.632 Y486.447
X424.348 Y486.446
X424.495 Y486.442
X425.209 Y486.406
X425.365 Y486.394
X426.075 Y486.321
X426.205 Y486.305
X426.558 Y486.253
X426.641 Y486.24
X426.993 Y486.178
X427.086 Y486.16
X427.436 Y486.087
X427.527 Y486.066
X427.875 Y485.982
X427.965 Y485.959
X428.311 Y485.864
X428.408 Y485.836
X428.752 Y485.729
X428.845 Y485.698
X429.182 Y485.581
X429.28 Y485.545
X429.611 Y485.417
X429.698 Y485.382
X430.024 Y485.244
X430.121 Y485.201
X430.441 Y485.052
X430.53 Y485.008
X430.844 Y484.849
X430.932 Y484.803
X431.24 Y484.634
X431.325 Y484.585
X431.629 Y484.405
X431.718 Y484.351
X432.015 Y484.161
X432.095 Y484.108
X432.388 Y483.907
X432.464 Y483.853
X432.752 Y483.642
X432.829 Y483.583
X433.112 Y483.362
X433.177 Y483.309
X433.454 Y483.079
X433.531 Y483.014
X433.8 Y482.775
X433.856 Y482.723
X434.119 Y482.477
X434.208 Y482.391
X434.712 Y481.879
X434.817 Y481.767
X435.295 Y481.229
X435.386 Y481.12
X435.838 Y480.56
X435.913 Y480.464
X436.342 Y479.886
X436.408 Y479.793
X436.814 Y479.2
X436.871 Y479.114
X437.258 Y478.505
X437.305 Y478.428
X437.681 Y477.795
X437.723 Y477.723
X438.089 Y477.066
X438.124 Y477.
X438.482 Y476.318
X438.515 Y476.255
X438.864 Y475.55
X438.889 Y475.498
X439.232 Y474.77
X439.255 Y474.719
X439.592 Y473.968
X439.61 Y473.927
X439.943 Y473.154
X439.96 Y473.114
X440.288 Y472.321
X440.309 Y472.27
X440.957 Y470.619
X440.975 Y470.57
X441.619 Y468.841
X441.632 Y468.808
X442.286 Y466.986
X442.292 Y466.967
X442.964 Y465.056
X442.967 Y465.049
X443.661 Y463.06
X444.382 Y461.007
X445.134 Y458.901
X445.924 Y456.753
X446.761 Y454.562
X447.193 Y453.464
X447.642 Y452.355
X448.103 Y451.24
X448.578 Y450.125
X449.069 Y449.006
X449.575 Y447.885
X450.097 Y446.766
X450.636 Y445.647
X451.193 Y444.53
X451.769 Y443.416
X452.362 Y442.306
X452.976 Y441.202
X453.609 Y440.105
X454.265 Y439.012
X454.943 Y437.928
X455.645 Y436.854
X456.37 Y435.794
X457.115 Y434.753
X457.881 Y433.734
X458.668 Y432.741
X459.476 Y431.777
X460.31 Y430.836
X460.725 Y430.39
X461.15 Y429.946
X461.577 Y429.514
X462.013 Y429.089
X462.45 Y428.677
X462.894 Y428.275
X463.347 Y427.88
X463.805 Y427.496
X464.268 Y427.123
X464.737 Y426.763
X465.211 Y426.414
X465.693 Y426.079
X466.178 Y425.757
X466.668 Y425.451
X467.168 Y425.156
X467.669 Y424.879
X468.172 Y424.618
X468.681 Y424.375
X469.199 Y424.145
X469.718 Y423.935
X470.239 Y423.744
X470.76 Y423.571
X471.284 Y423.418
X471.808 Y423.282
X472.334 Y423.167
X472.864 Y423.069
X473.396 Y422.99
X473.933 Y422.93
X474.474 Y422.888
X475.02 Y422.866
X475.571 Y422.861
X476.125 Y422.876
X476.68 Y422.91
X477.235 Y422.962
X477.79 Y423.033
X478.345 Y423.12
X478.899 Y423.224
X479.456 Y423.346
X480.012 Y423.482
X480.567 Y423.635
X481.123 Y423.803
X481.677 Y423.986
X482.233 Y424.183
X482.787 Y424.393
X483.339 Y424.615
X483.889 Y424.851
X484.441 Y425.099
X484.988 Y425.357
X485.528 Y425.623
X486.057 Y425.896
X487.138 Y426.485
X488.19 Y427.099
X489.22 Y427.736
X490.225 Y428.393
X491.205 Y429.063
X492.154 Y429.741
X493.071 Y430.421
X493.997 Y431.13
X494.955 Y431.89
X495.944 Y432.7
X496.964 Y433.565
X498.012 Y434.483
X499.087 Y435.458
X500.189 Y436.491
X501.317 Y437.585
X502.469 Y438.74
X503.642 Y439.96
X504.838 Y441.244
X506.054 Y442.596
X507.289 Y444.018
X508.543 Y445.511
X509.812 Y447.075
X511.097 Y448.715
X512.397 Y450.433
X513.695 Y452.206
X514.961 Y453.986
X516.194 Y455.767
X517.399 Y457.548
X518.579 Y459.325
X519.735 Y461.095
X520.87 Y462.854
X523.097 Y466.336
X523.098 Y466.339
X525.272 Y469.73
X525.282 Y469.745
X526.355 Y471.397
X526.367 Y471.415
X527.435 Y473.034
X527.45 Y473.057
X528.515 Y474.639
X528.536 Y474.669
X529.602 Y476.212
X529.628 Y476.249
X530.698 Y477.749
X530.729 Y477.792
X531.805 Y479.246
X531.842 Y479.296
X532.928 Y480.701
X532.96 Y480.741
X533.507 Y481.424
X533.532 Y481.455
X534.083 Y482.125
X534.109 Y482.156
X534.663 Y482.811
X534.691 Y482.844
X535.25 Y483.486
X535.283 Y483.522
X535.847 Y484.149
X535.878 Y484.184
X536.446 Y484.796
X536.482 Y484.834
X537.056 Y485.431
X537.096 Y485.471
X537.675 Y486.051
X537.716 Y486.092
X538.302 Y486.657
X538.346 Y486.699
X538.938 Y487.247
X538.986 Y487.29
X539.585 Y487.821
X539.633 Y487.862
X540.238 Y488.376
X540.297 Y488.426
X540.911 Y488.921
X540.964 Y488.962
X541.585 Y489.44
X541.648 Y489.488
X542.278 Y489.947
X542.342 Y489.992
X542.98 Y490.432
X543.049 Y490.478
X543.697 Y490.899
X543.768 Y490.944
X544.443 Y491.356
X544.52 Y491.401
X545.237 Y491.81
X545.324 Y491.858
X546.083 Y492.258
X546.177 Y492.305
X546.98 Y492.693
X547.084 Y492.741
X547.931 Y493.111
X548.042 Y493.157
X548.932 Y493.504
X549.016 Y493.535
X549.477 Y493.699
X549.538 Y493.72
X550.011 Y493.877
X550.072 Y493.897
X550.555 Y494.046
X550.617 Y494.064
X551.112 Y494.205
X551.182 Y494.224
X551.688 Y494.355
X551.752 Y494.371
X552.27 Y494.493
X552.336 Y494.508
X552.863 Y494.62
X552.934 Y494.634
X553.474 Y494.735
X553.545 Y494.747
X554.093 Y494.836
X554.169 Y494.848
X554.719 Y494.922
X554.783 Y494.931
X555.334 Y494.994
X555.404 Y495.001
X555.956 Y495.051
X556.032 Y495.057
X556.584 Y495.093
X556.649 Y495.096
X557.202 Y495.12
X557.272 Y495.122
X557.825 Y495.133
X557.89 Y495.134
X558.443 Y495.133
X558.514 Y495.132
X559.067 Y495.118
X559.132 Y495.116
X559.684 Y495.09
X559.749 Y495.086
X560.301 Y495.048
X560.372 Y495.042
X560.922 Y494.991
X560.981 Y494.985
X561.531 Y494.923
X561.596 Y494.915
X562.144 Y494.841
X562.21 Y494.831
X562.756 Y494.745
X562.821 Y494.734
X563.365 Y494.636
X563.424 Y494.625
X563.966 Y494.516
X564.027 Y494.503
X564.566 Y494.383
X564.629 Y494.369
X565.163 Y494.238
X565.224 Y494.222
X565.754 Y494.08
X565.812 Y494.064
X566.337 Y493.912
X566.4 Y493.893
X566.92 Y493.73
X566.978 Y493.711
X567.493 Y493.538
X567.548 Y493.519
X568.057 Y493.337
X568.117 Y493.315
X568.62 Y493.123
X568.68 Y493.099
X569.177 Y492.897
X569.236 Y492.873
X569.725 Y492.661
X569.775 Y492.639
X570.258 Y492.42
X570.324 Y492.389
X570.798 Y492.16
X570.855 Y492.132
X571.322 Y491.894
X571.373 Y491.868
X571.832 Y491.623
X571.894 Y491.589
X572.344 Y491.335
X572.406 Y491.299
X572.847 Y491.036
X572.896 Y491.006
X573.328 Y490.737
X573.394 Y490.694
X573.817 Y490.415
X573.871 Y490.379
X574.289 Y490.09
X574.352 Y490.045
X574.763 Y489.745
X574.819 Y489.703
X575.222 Y489.394
X575.289 Y489.341
X575.684 Y489.02
X575.741 Y488.972
X576.127 Y488.642
X576.19 Y488.587
X576.567 Y488.246
X576.629 Y488.189
X576.996 Y487.838
X577.061 Y487.774
X577.417 Y487.412
X577.48 Y487.345
X577.825 Y486.972
X577.884 Y486.906
X578.217 Y486.524
X578.285 Y486.444
X578.605 Y486.05
X578.665 Y485.974
X578.972 Y485.57
X579.032 Y485.488
X579.325 Y485.074
X579.385 Y484.986
X579.663 Y484.562
X579.719 Y484.473
X579.981 Y484.041
X580.037 Y483.944
X580.282 Y483.504
X580.335 Y483.406
X580.564 Y482.956
X580.615 Y482.85
X580.826 Y482.392
X580.868 Y482.295
X581.063 Y481.829
X581.108 Y481.717
X581.285 Y481.241
X581.323 Y481.131
X581.481 Y480.65
X581.515 Y480.541
X581.654 Y480.056
X581.682 Y479.948
X581.804 Y479.458
X581.829 Y479.347
X581.931 Y478.854
X581.951 Y478.746
X582.035 Y478.249
X582.052 Y478.135
X582.117 Y477.634
X582.129 Y477.532
X582.177 Y477.027
X582.186 Y476.889
X582.234 Y475.906
X582.235 Y475.902
X582.281 Y474.915
X582.33 Y473.919
Y473.918
X582.379 Y472.912
X582.38 Y472.911
X582.428 Y471.9
X582.479 Y470.882
Y470.881
X582.53 Y469.854
X582.582 Y468.821
X582.636 Y467.779
Y467.778
X582.69 Y466.728
X582.746 Y465.671
X582.803 Y464.607
X582.861 Y463.534
X582.921 Y462.454
X582.983 Y461.366
X583.046 Y460.27
X583.112 Y459.167
X583.178 Y458.054
X583.247 Y456.934
X583.318 Y455.807
X583.392 Y454.672
X583.467 Y453.528
X583.545 Y452.376
X583.626 Y451.214
G2 X580.633 Y448.006 I-2.993 J-0.208
G1 X553.262
G2 X551.141 Y448.885 I0. J3.
G1 X551.123 Y448.892
X551.105 Y448.885
X551.097 Y448.867
X551.105 Y448.849
G2 X551.984 Y446.727 I-2.121 J-2.122
G1 Y440.284
G2 X551.105 Y438.163 I-3. J0.
G1 X551.098 Y438.145
X551.105 Y438.127
X551.123 Y438.12
X551.141 Y438.127
G2 X553.262 Y439.006 I2.121 J-2.121
G1 X581.862
G2 X584.848 Y436.294 I0. J-3.
G1 X585.027 Y434.441
X585.213 Y432.575
X585.408 Y430.69
X585.611 Y428.785
X585.822 Y426.863
X586.044 Y424.921
X586.275 Y422.96
X586.515 Y420.981
X586.767 Y418.981
X587.027 Y416.962
X587.3 Y414.924
X587.582 Y412.864
X587.877 Y410.786
X588.182 Y408.687
X588.499 Y406.568
X588.828 Y404.43
X589.17 Y402.27
X589.524 Y400.089
X589.891 Y397.889
X590.272 Y395.667
X590.666 Y393.424
X591.073 Y391.16
X591.494 Y388.876
X591.932 Y386.564
G2 X588.984 Y383.006 I-2.948 J-0.558
G1 X523.263
G3 X522.663 Y382.406 I0. J-0.6 F2388.
G1 Y381.806
G19 G2 Y381.206 Z-5.4 J0. K0.6
G0 Z5.
X523.863
G1 Z1. F796.
Z-11.4
G3 Y381.806 Z-12. J0.6 K0. F2388.
G1 Y382.406
G17 G3 X523.263 Y383.006 I-0.6 J0.
G1 X523.262 F1500.
G2 X521.141 Y383.885 I0. J3.
G1 X521.123 Y383.892
X521.105 Y383.885
X521.097 Y383.867
X521.105 Y383.849
G2 X521.984 Y381.727 I-2.121 J-2.122
G1 Y371.006
G2 X518.984 Y368.006 I-3. J0.
G1 X378.984
G2 X375.984 Y371.006 I0. J3.
G1 Y381.727
G2 X376.863 Y383.849 I3. J0.
G1 X376.871 Y383.867
X376.863 Y383.885
X376.845 Y383.893
X376.827 Y383.885
G2 X374.705 Y383.006 I-2.122 J2.121
G1 X313.657
G2 X311.987 Y388.498 I0. J3.
G1 X314.522 Y390.197
X317.163 Y392.012
X318.493 Y392.944
X319.821 Y393.888
X321.13 Y394.834
X322.411 Y395.775
X323.65 Y396.704
X324.849 Y397.622
X326.013 Y398.535
X327.141 Y399.442
X328.234 Y400.345
X329.288 Y401.242
X330.302 Y402.135
X331.28 Y403.025
X332.217 Y403.913
X333.113 Y404.795
X333.968 Y405.677
X334.783 Y406.556
X335.552 Y407.432
X336.281 Y408.308
X336.963 Y409.178
X337.592 Y410.034
X338.169 Y410.877
X338.699 Y411.71
X339.181 Y412.531
X339.618 Y413.339
X340.011 Y414.138
X340.362 Y414.929
X340.674 Y415.713
X340.947 Y416.492
X341.185 Y417.269
X341.389 Y418.044
X341.559 Y418.817
X341.697 Y419.594
X341.804 Y420.376
X341.882 Y421.163
X341.93 Y421.958
X341.951 Y422.765
X341.944 Y423.582
X341.909 Y424.413
X341.85 Y425.257
X341.764 Y426.111
X341.655 Y426.977
X341.523 Y427.852
X341.37 Y428.739
X341.198 Y429.638
X341.006 Y430.55
X340.799 Y431.473
X340.575 Y432.407
X340.339 Y433.351
X339.826 Y435.293
X339.28 Y437.28
X338.708 Y439.336
X338.705 Y439.346
X338.122 Y441.47
X338.114 Y441.501
X337.54 Y443.685
X337.531 Y443.719
X337.252 Y444.833
X337.245 Y444.861
X336.974 Y445.989
X336.966 Y446.022
X336.705 Y447.164
X336.697 Y447.202
X336.449 Y448.357
X336.441 Y448.395
X336.206 Y449.563
X336.196 Y449.613
X335.979 Y450.794
X335.971 Y450.84
X335.771 Y452.034
X335.763 Y452.09
X335.583 Y453.296
X335.575 Y453.355
X335.419 Y454.572
X335.412 Y454.633
X335.28 Y455.862
X335.274 Y455.929
X335.169 Y457.17
X335.164 Y457.241
X335.088 Y458.491
X335.084 Y458.564
X335.038 Y459.826
X335.036 Y459.904
X335.023 Y461.174
Y461.255
X335.044 Y462.503
X335.047 Y462.589
X335.102 Y463.802
X335.107 Y463.884
X335.193 Y465.063
X335.2 Y465.148
X335.316 Y466.291
X335.327 Y466.38
X335.473 Y467.489
X335.486 Y467.577
X335.66 Y468.65
X335.675 Y468.738
X335.875 Y469.775
X335.895 Y469.868
X336.121 Y470.869
X336.144 Y470.963
X336.395 Y471.928
X336.421 Y472.023
X336.695 Y472.95
X336.724 Y473.043
X337.019 Y473.934
X337.054 Y474.034
X337.371 Y474.889
X337.411 Y474.99
X337.758 Y475.831
X337.803 Y475.934
X338.182 Y476.763
X338.237 Y476.877
X338.651 Y477.69
X338.695 Y477.775
X338.915 Y478.175
X338.947 Y478.232
X339.175 Y478.626
X339.215 Y478.692
X339.453 Y479.08
X339.491 Y479.14
X339.738 Y479.522
X339.779 Y479.584
X340.035 Y479.959
X340.079 Y480.021
X340.344 Y480.389
X340.394 Y480.457
X340.669 Y480.817
X340.721 Y480.884
X341.006 Y481.236
X341.06 Y481.3
X341.354 Y481.643
X341.417 Y481.714
X341.722 Y482.048
X341.783 Y482.113
X342.096 Y482.436
X342.162 Y482.503
X342.484 Y482.815
X342.557 Y482.883
X342.889 Y483.184
X342.964 Y483.25
X343.305 Y483.539
X343.387 Y483.606
X343.737 Y483.882
X343.818 Y483.943
X344.177 Y484.207
X344.267 Y484.271
X344.636 Y484.522
X344.732 Y484.585
X345.111 Y484.822
X345.202 Y484.876
X345.59 Y485.1
X345.69 Y485.155
X346.088 Y485.365
X346.186 Y485.415
X346.593 Y485.611
X346.7 Y485.66
X347.112 Y485.839
X347.223 Y485.884
X347.641 Y486.046
X347.744 Y486.084
X348.166 Y486.23
X348.278 Y486.266
X348.704 Y486.395
X348.806 Y486.424
X349.237 Y486.538
X349.343 Y486.564
X349.777 Y486.662
X349.881 Y486.684
X350.32 Y486.767
X350.427 Y486.785
X350.869 Y486.852
X350.965 Y486.865
X351.411 Y486.918
X351.512 Y486.928
X351.961 Y486.966
X352.062 Y486.973
X352.514 Y486.996
X352.606 Y486.999
X353.058 Y487.008
X353.145 Y487.009
X353.597 Y487.005
X353.689 Y487.003
X354.142 Y486.985
X354.222 Y486.98
X354.673 Y486.95
X354.752 Y486.944
X355.203 Y486.902
X355.282 Y486.894
X355.732 Y486.84
X355.806 Y486.83
X356.254 Y486.765
X356.326 Y486.754
X356.773 Y486.678
X356.869 Y486.66
X357.757 Y486.479
X357.877 Y486.452
X358.756 Y486.235
X358.865 Y486.205
X359.739 Y485.954
X359.84 Y485.924
X360.709 Y485.641
X360.799 Y485.61
X361.66 Y485.299
X361.743 Y485.267
X362.596 Y484.93
X362.672 Y484.899
X363.515 Y484.539
X363.583 Y484.509
X364.413 Y484.13
X364.473 Y484.102
X365.29 Y483.707
G2 X366.983 Y480.933 I-1.306 J-2.701
G1 X366.957 Y479.841
X366.942 Y478.761
X366.941 Y477.676
X366.953 Y476.585
X366.979 Y475.492
X367.019 Y474.398
X367.075 Y473.304
X367.147 Y472.212
X367.235 Y471.122
X367.341 Y470.037
X367.465 Y468.96
X367.609 Y467.887
X367.771 Y466.822
X367.953 Y465.768
X368.156 Y464.725
X368.379 Y463.694
X368.625 Y462.678
X368.893 Y461.676
X369.182 Y460.69
X369.498 Y459.717
X369.839 Y458.755
X370.205 Y457.813
X370.599 Y456.887
X371.021 Y455.979
X371.478 Y455.078
X371.706 Y454.655
X371.948 Y454.229
X372.2 Y453.802
X372.458 Y453.385
X372.722 Y452.975
X372.996 Y452.569
X373.274 Y452.173
X373.564 Y451.782
X373.862 Y451.394
X374.165 Y451.018
X374.474 Y450.651
X374.791 Y450.293
X375.116 Y449.942
X375.447 Y449.601
X375.785 Y449.268
X376.128 Y448.946
X376.479 Y448.632
X376.837 Y448.327
X377.199 Y448.033
X377.571 Y447.748
X377.951 Y447.47
X378.334 Y447.204
X378.726 Y446.948
X379.128 Y446.699
X379.535 Y446.461
X379.948 Y446.233
X380.366 Y446.016
X380.792 Y445.811
X381.223 Y445.614
X381.655 Y445.43
X382.094 Y445.257
X382.534 Y445.096
X382.98 Y444.946
X383.434 Y444.805
X383.888 Y444.676
X384.346 Y444.559
X384.804 Y444.453
X385.268 Y444.359
X385.735 Y444.274
X386.205 Y444.202
X386.677 Y444.141
X387.148 Y444.091
X387.622 Y444.053
X388.099 Y444.026
X388.575 Y444.011
X389.053 Y444.006
X389.527 Y444.013
X390. Y444.032
X390.477 Y444.063
X390.952 Y444.104
X391.426 Y444.157
X391.897 Y444.222
X392.365 Y444.297
X392.83 Y444.384
X393.297 Y444.483
X393.758 Y444.592
X394.216 Y444.714
X394.671 Y444.846
X395.119 Y444.988
X395.565 Y445.142
X396.001 Y445.306
X396.435 Y445.481
X396.866 Y445.668
X397.291 Y445.865
X397.71 Y446.072
X398.124 Y446.29
X398.532 Y446.518
X398.936 Y446.758
X399.332 Y447.006
X399.725 Y447.268
X400.112 Y447.539
X400.491 Y447.82
X400.866 Y448.112
X401.232 Y448.412
X401.592 Y448.724
X401.943 Y449.041
X402.286 Y449.369
X402.622 Y449.703
X402.949 Y450.046
X403.272 Y450.4
X403.585 Y450.76
X403.893 Y451.129
X404.192 Y451.504
X404.483 Y451.886
X404.767 Y452.278
X405.046 Y452.678
X405.317 Y453.086
X405.58 Y453.497
X405.837 Y453.918
X406.086 Y454.345
X406.329 Y454.78
X406.557 Y455.206
X407.009 Y456.11
X407.429 Y457.024
X407.819 Y457.955
X408.183 Y458.904
X408.521 Y459.87
X408.833 Y460.848
X409.12 Y461.838
X409.382 Y462.838
X409.622 Y463.847
X409.84 Y464.863
X410.037 Y465.893
X410.215 Y466.932
X410.372 Y467.983
X410.512 Y469.043
X410.633 Y470.109
X410.738 Y471.183
X410.825 Y472.259
X410.895 Y473.341
X410.95 Y474.425
X410.989 Y475.513
X411.015 Y476.599
X411.027 Y477.682
X411.025 Y478.763
X411.01 Y479.844
X410.985 Y480.936
G2 X412.828 Y483.774 I2.999 J0.07
G1 X413.587 Y484.091
X413.642 Y484.113
X414.401 Y484.413
X414.46 Y484.436
X415.218 Y484.717
X415.279 Y484.739
X416.035 Y485.001
X416.099 Y485.022
X416.852 Y485.264
X416.929 Y485.288
X417.679 Y485.507
X417.758 Y485.529
X418.504 Y485.725
X418.588 Y485.745
X419.329 Y485.917
X419.423 Y485.938
X420.159 Y486.084
X420.26 Y486.102
X420.989 Y486.221
X421.093 Y486.236
X421.816 Y486.328
X421.932 Y486.34
X422.648 Y486.403
X422.777 Y486.412
X423.494 Y486.444
X423.632 Y486.447
X424.348 Y486.446
X424.495 Y486.442
X425.209 Y486.406
X425.365 Y486.394
X426.075 Y486.321
X426.205 Y486.305
X426.558 Y486.253
X426.641 Y486.24
X426.993 Y486.178
X427.086 Y486.16
X427.436 Y486.087
X427.527 Y486.066
X427.875 Y485.982
X427.965 Y485.959
X428.311 Y485.864
X428.408 Y485.836
X428.752 Y485.729
X428.845 Y485.698
X429.182 Y485.581
X429.28 Y485.545
X429.611 Y485.417
X429.698 Y485.382
X430.024 Y485.244
X430.121 Y485.201
X430.441 Y485.052
X430.53 Y485.008
X430.844 Y484.849
X430.932 Y484.803
X431.24 Y484.634
X431.325 Y484.585
X431.629 Y484.405
X431.718 Y484.351
X432.015 Y484.161
X432.095 Y484.108
X432.388 Y483.907
X432.464 Y483.853
X432.752 Y483.642
X432.829 Y483.583
X433.112 Y483.362
X433.177 Y483.309
X433.454 Y483.079
X433.531 Y483.014
X433.8 Y482.775
X433.856 Y482.723
X434.119 Y482.477
X434.208 Y482.391
X434.712 Y481.879
X434.817 Y481.767
X435.295 Y481.229
X435.386 Y481.12
X435.838 Y480.56
X435.913 Y480.464
X436.342 Y479.886
X436.408 Y479.793
X436.814 Y479.2
X436.871 Y479.114
X437.258 Y478.505
X437.305 Y478.428
X437.681 Y477.795
X437.723 Y477.723
X438.089 Y477.066
X438.124 Y477.
X438.482 Y476.318
X438.515 Y476.255
X438.864 Y475.55
X438.889 Y475.498
X439.232 Y474.77
X439.255 Y474.719
X439.592 Y473.968
X439.61 Y473.927
X439.943 Y473.154
X439.96 Y473.114
X440.288 Y472.321
X440.309 Y472.27
X440.957 Y470.619
X440.975 Y470.57
X441.619 Y468.841
X441.632 Y468.808
X442.286 Y466.986
X442.292 Y466.967
X442.964 Y465.056
X442.967 Y465.049
X443.661 Y463.06
X444.382 Y461.007
X445.134 Y458.901
X445.924 Y456.753
X446.761 Y454.562
X447.193 Y453.464
X447.642 Y452.355
X448.103 Y451.24
X448.578 Y450.125
X449.069 Y449.006
X449.575 Y447.885
X450.097 Y446.766
X450.636 Y445.647
X451.193 Y444.53
X451.769 Y443.416
X452.362 Y442.306
X452.976 Y441.202
X453.609 Y440.105
X454.265 Y439.012
X454.943 Y437.928
X455.645 Y436.854
X456.37 Y435.794
X457.115 Y434.753
X457.881 Y433.734
X458.668 Y432.741
X459.476 Y431.777
X460.31 Y430.836
X460.725 Y430.39
X461.15 Y429.946
X461.577 Y429.514
X462.013 Y429.089
X462.45 Y428.677
X462.894 Y428.275
X463.347 Y427.88
X463.805 Y427.496
X464.268 Y427.123
X464.737 Y426.763
X465.211 Y426.414
X465.693 Y426.079
X466.178 Y425.757
X466.668 Y425.451
X467.168 Y425.156
X467.669 Y424.879
X468.172 Y424.618
X468.681 Y424.375
X469.199 Y424.145
X469.718 Y423.935
X470.239 Y423.744
X470.76 Y423.571
X471.284 Y423.418
X471.808 Y423.282
X472.334 Y423.167
X472.864 Y423.069
X473.396 Y422.99
X473.933 Y422.93
X474.474 Y422.888
X475.02 Y422.866
X475.571 Y422.861
X476.125 Y422.876
X476.68 Y422.91
X477.235 Y422.962
X477.79 Y423.033
X478.345 Y423.12
X478.899 Y423.224
X479.456 Y423.346
X480.012 Y423.482
X480.567 Y423.635
X481.123 Y423.803
X481.677 Y423.986
X482.233 Y424.183
X482.787 Y424.393
X483.339 Y424.615
X483.889 Y424.851
X484.441 Y425.099
X484.988 Y425.357
X485.528 Y425.623
X486.057 Y425.896
X487.138 Y426.485
X488.19 Y427.099
X489.22 Y427.736
X490.225 Y428.393
X491.205 Y429.063
X492.154 Y429.741
X493.071 Y430.421
X493.997 Y431.13
X494.955 Y431.89
X495.944 Y432.7
X496.964 Y433.565
X498.012 Y434.483
X499.087 Y435.458
X500.189 Y436.491
X501.317 Y437.585
X502.469 Y438.74
X503.642 Y439.96
X504.838 Y441.244
X506.054 Y442.596
X507.289 Y444.018
X508.543 Y445.511
X509.812 Y447.075
X511.097 Y448.715
X512.397 Y450.433
X513.695 Y452.206
X514.961 Y453.986
X516.194 Y455.767
X517.399 Y457.548
X518.579 Y459.325
X519.735 Y461.095
X520.87 Y462.854
X523.097 Y466.336
X523.098 Y466.339
X525.272 Y469.73
X525.282 Y469.745
X526.355 Y471.397
X526.367 Y471.415
X527.435 Y473.034
X527.45 Y473.057
X528.515 Y474.639
X528.536 Y474.669
X529.602 Y476.212
X529.628 Y476.249
X530.698 Y477.749
X530.729 Y477.792
X531.805 Y479.246
X531.842 Y479.296
X532.928 Y480.701
X532.96 Y480.741
X533.507 Y481.424
X533.532 Y481.455
X534.083 Y482.125
X534.109 Y482.156
X534.663 Y482.811
X534.691 Y482.844
X535.25 Y483.486
X535.283 Y483.522
X535.847 Y484.149
X535.878 Y484.184
X536.446 Y484.796
X536.482 Y484.834
X537.056 Y485.431
X537.096 Y485.471
X537.675 Y486.051
X537.716 Y486.092
X538.302 Y486.657
X538.346 Y486.699
X538.938 Y487.247
X538.986 Y487.29
X539.585 Y487.821
X539.633 Y487.862
X540.238 Y488.376
X540.297 Y488.426
X540.911 Y488.921
X540.964 Y488.962
X541.585 Y489.44
X541.648 Y489.488
X542.278 Y489.947
X542.342 Y489.992
X542.98 Y490.432
X543.049 Y490.478
X543.697 Y490.899
X543.768 Y490.944
X544.443 Y491.356
X544.52 Y491.401
X545.237 Y491.81
X545.324 Y491.858
X546.083 Y492.258
X546.177 Y492.305
X546.98 Y492.693
X547.084 Y492.741
X547.931 Y493.111
X548.042 Y493.157
X548.932 Y493.504
X549.016 Y493.535
X549.477 Y493.699
X549.538 Y493.72
X550.011 Y493.877
X550.072 Y493.897
X550.555 Y494.046
X550.617 Y494.064
X551.112 Y494.205
X551.182 Y494.224
X551.688 Y494.355
X551.752 Y494.371
X552.27 Y494.493
X552.336 Y494.508
X552.863 Y494.62
X552.934 Y494.634
X553.474 Y494.735
X553.545 Y494.747
X554.093 Y494.836
X554.169 Y494.848
X554.719 Y494.922
X554.783 Y494.931
X555.334 Y494.994
X555.404 Y495.001
X555.956 Y495.051
X556.032 Y495.057
X556.584 Y495.093
X556.649 Y495.096
X557.202 Y495.12
X557.272 Y495.122
X557.825 Y495.133
X557.89 Y495.134
X558.443 Y495.133
X558.514 Y495.132
X559.067 Y495.118
X559.132 Y495.116
X559.684 Y495.09
X559.749 Y495.086
X560.301 Y495.048
X560.372 Y495.042
X560.922 Y494.991
X560.981 Y494.985
X561.531 Y494.923
X561.596 Y494.915
X562.144 Y494.841
X562.21 Y494.831
X562.756 Y494.745
X562.821 Y494.734
X563.365 Y494.636
X563.424 Y494.625
X563.966 Y494.516
X564.027 Y494.503
X564.566 Y494.383
X564.629 Y494.369
X565.163 Y494.238
X565.224 Y494.222
X565.754 Y494.08
X565.812 Y494.064
X566.337 Y493.912
X566.4 Y493.893
X566.92 Y493.73
X566.978 Y493.711
X567.493 Y493.538
X567.548 Y493.519
X568.057 Y493.337
X568.117 Y493.315
X568.62 Y493.123
X568.68 Y493.099
X569.177 Y492.897
X569.236 Y492.873
X569.725 Y492.661
X569.775 Y492.639
X570.258 Y492.42
X570.324 Y492.389
X570.798 Y492.16
X570.855 Y492.132
X571.322 Y491.894
X571.373 Y491.868
X571.832 Y491.623
X571.894 Y491.589
X572.344 Y491.335
X572.406 Y491.299
X572.847 Y491.036
X572.896 Y491.006
X573.328 Y490.737
X573.394 Y490.694
X573.817 Y490.415
X573.871 Y490.379
X574.289 Y490.09
X574.352 Y490.045
X574.763 Y489.745
X574.819 Y489.703
X575.222 Y489.394
X575.289 Y489.341
X575.684 Y489.02
X575.741 Y488.972
X576.127 Y488.642
X576.19 Y488.587
X576.567 Y488.246
X576.629 Y488.189
X576.996 Y487.838
X577.061 Y487.774
X577.417 Y487.412
X577.48 Y487.345
X577.825 Y486.972
X577.884 Y486.906
X578.217 Y486.524
X578.285 Y486.444
X578.605 Y486.05
X578.665 Y485.974
X578.972 Y485.57
X579.032 Y485.488
X579.325 Y485.074
X579.385 Y484.986
X579.663 Y484.562
X579.719 Y484.473
X579.981 Y484.041
X580.037 Y483.944
X580.282 Y483.504
X580.335 Y483.406
X580.564 Y482.956
X580.615 Y482.85
X580.826 Y482.392
X580.868 Y482.295
X581.063 Y481.829
X581.108 Y481.717
X581.285 Y481.241
X581.323 Y481.131
X581.481 Y480.65
X581.515 Y480.541
X581.654 Y480.056
X581.682 Y479.948
X581.804 Y479.458
X581.829 Y479.347
X581.931 Y478.854
X581.951 Y478.746
X582.035 Y478.249
X582.052 Y478.135
X582.117 Y477.634
X582.129 Y477.532
X582.177 Y477.027
X582.186 Y476.889
X582.234 Y475.906
X582.235 Y475.902
X582.281 Y474.915
X582.33 Y473.919
Y473.918
X582.379 Y472.912
X582.38 Y472.911
X582.428 Y471.9
X582.479 Y470.882
Y470.881
X582.53 Y469.854
X582.582 Y468.821
X582.636 Y467.779
Y467.778
X582.69 Y466.728
X582.746 Y465.671
X582.803 Y464.607
X582.861 Y463.534
X582.921 Y462.454
X582.983 Y461.366
X583.046 Y460.27
X583.112 Y459.167
X583.178 Y458.054
X583.247 Y456.934
X583.318 Y455.807
X583.392 Y454.672
X583.467 Y453.528
X583.545 Y452.376
X583.626 Y451.214
G2 X580.633 Y448.006 I-2.993 J-0.208
G1 X553.262
G2 X551.141 Y448.885 I0. J3.
G1 X551.123 Y448.892
X551.105 Y448.885
X551.097 Y448.867
X551.105 Y448.849
G2 X551.984 Y446.727 I-2.121 J-2.122
G1 Y440.284
G2 X551.105 Y438.163 I-3. J0.
G1 X551.098 Y438.145
X551.105 Y438.127
X551.123 Y438.12
X551.141 Y438.127
G2 X553.262 Y439.006 I2.121 J-2.121
G1 X581.862
G2 X584.848 Y436.294 I0. J-3.
G1 X585.027 Y434.441
X585.213 Y432.575
X585.408 Y430.69
X585.611 Y428.785
X585.822 Y426.863
X586.044 Y424.921
X586.275 Y422.96
X586.515 Y420.981
X586.767 Y418.981
X587.027 Y416.962
X587.3 Y414.924
X587.582 Y412.864
X587.877 Y410.786
X588.182 Y408.687
X588.499 Y406.568
X588.828 Y404.43
X589.17 Y402.27
X589.524 Y400.089
X589.891 Y397.889
X590.272 Y395.667
X590.666 Y393.424
X591.073 Y391.16
X591.494 Y388.876
X591.932 Y386.564
G2 X588.984 Y383.006 I-2.948 J-0.558
G1 X523.263
G3 X522.663 Y382.406 I0. J-0.6 F2388.
G1 Y381.806
G19 G2 Y381.206 Z-11.4 J0. K0.6
G0 Z5.
X523.863
G1 Z-5. F796.
Z-16.4
G3 Y381.806 Z-17. J0.6 K0. F2388.
G1 Y382.406
G17 G3 X523.263 Y383.006 I-0.6 J0.
G1 X523.262 F1500.
G2 X521.141 Y383.885 I0. J3.
G1 X521.123 Y383.892
X521.105 Y383.885
X521.097 Y383.867
X521.105 Y383.849
G2 X521.984 Y381.727 I-2.121 J-2.122
G1 Y371.006
G2 X518.984 Y368.006 I-3. J0.
G1 X491.984
Z-15.
X475.984
Z-17. F796.
X421.984 F1500.
Z-15.
X405.984
Z-17. F796.
X378.984 F1500.
G2 X375.984 Y371.006 I0. J3.
G1 Y381.727
G2 X376.863 Y383.849 I3. J0.
G1 X376.871 Y383.867
X376.863 Y383.885
X376.845 Y383.893
X376.827 Y383.885
G2 X374.705 Y383.006 I-2.122 J2.121
G1 X352.181
Z-15.
X336.181
Z-17. F796.
X313.657 F1500.
G2 X311.987 Y388.498 I0. J3.
G1 X314.522 Y390.197
X317.163 Y392.012
X318.493 Y392.944
X319.821 Y393.888
X321.13 Y394.834
X322.411 Y395.775
X323.65 Y396.704
X324.849 Y397.622
X326.013 Y398.535
X327.141 Y399.442
X328.234 Y400.345
X329.288 Y401.242
X330.302 Y402.135
X331.28 Y403.025
X332.217 Y403.913
X333.113 Y404.795
X333.968 Y405.677
X334.783 Y406.556
X335.552 Y407.432
X336.071 Y408.055
Z-15.
X336.281 Y408.308
X336.963 Y409.178
X337.592 Y410.034
X338.169 Y410.877
X338.699 Y411.71
X339.181 Y412.531
X339.618 Y413.339
X340.011 Y414.138
X340.362 Y414.929
X340.674 Y415.713
X340.947 Y416.492
X341.185 Y417.269
X341.389 Y418.044
X341.559 Y418.817
X341.697 Y419.594
X341.804 Y420.376
X341.882 Y421.163
X341.93 Y421.958
X341.951 Y422.765
X341.949 Y422.941
Z-17. F796.
X341.944 Y423.582 F1500.
X341.909 Y424.413
X341.85 Y425.257
X341.764 Y426.111
X341.655 Y426.977
X341.523 Y427.852
X341.37 Y428.739
X341.198 Y429.638
X341.006 Y430.55
X340.799 Y431.473
X340.575 Y432.407
X340.339 Y433.351
X339.826 Y435.293
X339.28 Y437.28
X338.708 Y439.336
X338.705 Y439.346
X338.122 Y441.47
X338.114 Y441.501
X337.54 Y443.685
X337.531 Y443.719
X337.252 Y444.833
X337.245 Y444.861
X336.974 Y445.989
X336.966 Y446.022
X336.705 Y447.164
X336.697 Y447.202
X336.449 Y448.357
X336.441 Y448.395
X336.206 Y449.563
X336.196 Y449.613
X335.979 Y450.794
X335.971 Y450.84
X335.771 Y452.034
X335.763 Y452.09
X335.583 Y453.296
X335.575 Y453.355
X335.419 Y454.572
X335.412 Y454.633
X335.28 Y455.862
X335.274 Y455.929
X335.169 Y457.17
X335.164 Y457.241
X335.088 Y458.491
X335.084 Y458.564
X335.038 Y459.826
X335.036 Y459.904
X335.023 Y461.174
Y461.255
X335.044 Y462.503
X335.047 Y462.589
X335.102 Y463.802
X335.107 Y463.884
X335.193 Y465.063
X335.2 Y465.148
X335.316 Y466.291
X335.327 Y466.38
X335.473 Y467.489
X335.486 Y467.577
X335.66 Y468.65
X335.675 Y468.738
X335.75 Y469.123
Z-15.
X335.875 Y469.775
X335.895 Y469.868
X336.121 Y470.869
X336.144 Y470.963
X336.395 Y471.928
X336.421 Y472.023
X336.695 Y472.95
X336.724 Y473.043
X337.019 Y473.934
X337.054 Y474.034
X337.371 Y474.889
X337.411 Y474.99
X337.758 Y475.831
X337.803 Y475.934
X338.182 Y476.763
X338.237 Y476.877
X338.651 Y477.69
X338.695 Y477.775
X338.915 Y478.175
X338.947 Y478.232
X339.175 Y478.626
X339.215 Y478.692
X339.453 Y479.08
X339.491 Y479.14
X339.738 Y479.522
X339.779 Y479.584
X340.035 Y479.959
X340.079 Y480.021
X340.344 Y480.389
X340.394 Y480.457
X340.669 Y480.817
X340.721 Y480.884
X341.006 Y481.236
X341.06 Y481.3
X341.354 Y481.643
X341.417 Y481.714
X341.722 Y482.048
X341.783 Y482.113
X342.096 Y482.436
X342.162 Y482.503
X342.484 Y482.815
X342.557 Y482.883
X342.889 Y483.184
X342.964 Y483.25
X343.083 Y483.35
Z-17. F796.
X343.305 Y483.539 F1500.
X343.387 Y483.606
X343.737 Y483.882
X343.818 Y483.943
X344.177 Y484.207
X344.267 Y484.271
X344.636 Y484.522
X344.732 Y484.585
X345.111 Y484.822
X345.202 Y484.876
X345.59 Y485.1
X345.69 Y485.155
X346.088 Y485.365
X346.186 Y485.415
X346.593 Y485.611
X346.7 Y485.66
X347.112 Y485.839
X347.223 Y485.884
X347.641 Y486.046
X347.744 Y486.084
X348.166 Y486.23
X348.278 Y486.266
X348.704 Y486.395
X348.806 Y486.424
X349.237 Y486.538
X349.343 Y486.564
X349.777 Y486.662
X349.881 Y486.684
X350.32 Y486.767
X350.427 Y486.785
X350.869 Y486.852
X350.965 Y486.865
X351.411 Y486.918
X351.512 Y486.928
X351.961 Y486.966
X352.062 Y486.973
X352.514 Y486.996
X352.606 Y486.999
X353.058 Y487.008
X353.145 Y487.009
X353.597 Y487.005
X353.689 Y487.003
X354.142 Y486.985
X354.222 Y486.98
X354.673 Y486.95
X354.752 Y486.944
X355.203 Y486.902
X355.282 Y486.894
X355.732 Y486.84
X355.806 Y486.83
X356.254 Y486.765
X356.326 Y486.754
X356.773 Y486.678
X356.869 Y486.66
X357.757 Y486.479
X357.877 Y486.452
X358.756 Y486.235
X358.865 Y486.205
X359.739 Y485.954
X359.84 Y485.924
X360.709 Y485.641
X360.799 Y485.61
X361.66 Y485.299
X361.743 Y485.267
X362.596 Y484.93
X362.672 Y484.899
X363.515 Y484.539
X363.583 Y484.509
X364.413 Y484.13
X364.473 Y484.102
X365.29 Y483.707
G2 X366.983 Y480.933 I-1.306 J-2.701
G1 X366.957 Y479.841
X366.942 Y478.761
X366.941 Y477.676
X366.953 Y476.585
X366.979 Y475.492
X367.019 Y474.398
X367.075 Y473.304
X367.147 Y472.212
X367.235 Y471.122
X367.341 Y470.037
X367.465 Y468.96
X367.609 Y467.887
X367.771 Y466.822
X367.953 Y465.768
X368.156 Y464.725
X368.379 Y463.694
X368.625 Y462.678
X368.893 Y461.676
X369.182 Y460.69
X369.498 Y459.717
X369.839 Y458.755
X370.205 Y457.813
X370.599 Y456.887
X371.021 Y455.979
X371.478 Y455.078
X371.706 Y454.655
X371.948 Y454.229
X372.2 Y453.802
X372.458 Y453.385
X372.722 Y452.975
X372.996 Y452.569
X373.274 Y452.173
X373.564 Y451.782
X373.862 Y451.394
X374.165 Y451.018
X374.474 Y450.651
X374.791 Y450.293
X375.116 Y449.942
X375.447 Y449.601
X375.785 Y449.268
X376.128 Y448.946
X376.479 Y448.632
X376.837 Y448.327
X377.199 Y448.033
X377.571 Y447.748
X377.951 Y447.47
X378.334 Y447.204
X378.726 Y446.948
X379.128 Y446.699
X379.535 Y446.461
X379.948 Y446.233
X380.366 Y446.016
X380.792 Y445.811
X381.045 Y445.695
Z-15.
X381.223 Y445.614
X381.655 Y445.43
X382.094 Y445.257
X382.534 Y445.096
X382.98 Y444.946
X383.434 Y444.805
X383.888 Y444.676
X384.346 Y444.559
X384.804 Y444.453
X385.268 Y444.359
X385.735 Y444.274
X386.205 Y444.202
X386.677 Y444.141
X387.148 Y444.091
X387.622 Y444.053
X388.099 Y444.026
X388.575 Y444.011
X389.053 Y444.006
X389.527 Y444.013
X390. Y444.032
X390.477 Y444.063
X390.952 Y444.104
X391.426 Y444.157
X391.897 Y444.222
X392.365 Y444.297
X392.83 Y444.384
X393.297 Y444.483
X393.758 Y444.592
X394.216 Y444.714
X394.671 Y444.846
X395.119 Y444.988
X395.565 Y445.142
X396.001 Y445.306
X396.435 Y445.481
X396.866 Y445.668
X397.045 Y445.751
Z-17. F796.
X397.291 Y445.865 F1500.
X397.71 Y446.072
X398.124 Y446.29
X398.532 Y446.518
X398.936 Y446.758
X399.332 Y447.006
X399.725 Y447.268
X400.112 Y447.539
X400.491 Y447.82
X400.866 Y448.112
X401.232 Y448.412
X401.592 Y448.724
X401.943 Y449.041
X402.286 Y449.369
X402.622 Y449.703
X402.949 Y450.046
X403.272 Y450.4
X403.585 Y450.76
X403.893 Y451.129
X404.192 Y451.504
X404.483 Y451.886
X404.767 Y452.278
X405.046 Y452.678
X405.317 Y453.086
X405.58 Y453.497
X405.837 Y453.918
X406.086 Y454.345
X406.329 Y454.78
X406.557 Y455.206
X407.009 Y456.11
X407.429 Y457.024
X407.819 Y457.955
X408.183 Y458.904
X408.521 Y459.87
X408.833 Y460.848
X409.12 Y461.838
X409.382 Y462.838
X409.622 Y463.847
X409.84 Y464.863
X410.037 Y465.893
X410.215 Y466.932
X410.372 Y467.983
X410.512 Y469.043
X410.633 Y470.109
X410.738 Y471.183
X410.825 Y472.259
X410.895 Y473.341
X410.95 Y474.425
X410.989 Y475.513
X411.015 Y476.599
X411.027 Y477.682
X411.025 Y478.763
X411.01 Y479.844
X410.985 Y480.936
G2 X412.828 Y483.774 I2.999 J0.07
G1 X413.587 Y484.091
X413.642 Y484.113
X414.401 Y484.413
X414.46 Y484.436
X415.218 Y484.717
X415.279 Y484.739
X416.035 Y485.001
X416.099 Y485.022
X416.852 Y485.264
X416.929 Y485.288
X417.679 Y485.507
X417.758 Y485.529
X418.504 Y485.725
X418.588 Y485.745
X419.329 Y485.917
X419.423 Y485.938
X420.159 Y486.084
X420.26 Y486.102
X420.989 Y486.221
X421.093 Y486.236
X421.816 Y486.328
X421.932 Y486.34
X422.648 Y486.403
X422.777 Y486.412
X423.11 Y486.427
Z-15.
X423.494 Y486.444
X423.632 Y486.447
X424.348 Y486.446
X424.495 Y486.442
X425.209 Y486.406
X425.365 Y486.394
X426.075 Y486.321
X426.205 Y486.305
X426.558 Y486.253
X426.641 Y486.24
X426.993 Y486.178
X427.086 Y486.16
X427.436 Y486.087
X427.527 Y486.066
X427.875 Y485.982
X427.965 Y485.959
X428.311 Y485.864
X428.408 Y485.836
X428.752 Y485.729
X428.845 Y485.698
X429.182 Y485.581
X429.28 Y485.545
X429.611 Y485.417
X429.698 Y485.382
X430.024 Y485.244
X430.121 Y485.201
X430.441 Y485.052
X430.53 Y485.008
X430.844 Y484.849
X430.932 Y484.803
X431.24 Y484.634
X431.325 Y484.585
X431.629 Y484.405
X431.718 Y484.351
X432.015 Y484.161
X432.095 Y484.108
X432.388 Y483.907
X432.464 Y483.853
X432.752 Y483.642
X432.829 Y483.583
X433.112 Y483.362
X433.177 Y483.309
X433.454 Y483.079
X433.531 Y483.014
X433.8 Y482.775
X433.856 Y482.723
X434.119 Y482.477
X434.208 Y482.391
X434.712 Y481.879
X434.817 Y481.767
X435.295 Y481.229
X435.386 Y481.12
X435.838 Y480.56
X435.913 Y480.464
X436.342 Y479.886
X436.408 Y479.793
X436.814 Y479.2
X436.871 Y479.114
X437.128 Y478.709
Z-17. F796.
X437.258 Y478.505 F1500.
X437.305 Y478.428
X437.681 Y477.795
X437.723 Y477.723
X438.089 Y477.066
X438.124 Y477.
X438.482 Y476.318
X438.515 Y476.255
X438.864 Y475.55
X438.889 Y475.498
X439.232 Y474.77
X439.255 Y474.719
X439.592 Y473.968
X439.61 Y473.927
X439.943 Y473.154
X439.96 Y473.114
X440.288 Y472.321
X440.309 Y472.27
X440.957 Y470.619
X440.975 Y470.57
X441.619 Y468.841
X441.632 Y468.808
X442.286 Y466.986
X442.292 Y466.967
X442.964 Y465.056
X442.967 Y465.049
X443.661 Y463.06
X444.382 Y461.007
X445.134 Y458.901
X445.924 Y456.753
X446.761 Y454.562
X447.193 Y453.464
X447.394 Y452.966
Z-15.
X447.642 Y452.355
X448.103 Y451.24
X448.578 Y450.125
X449.069 Y449.006
X449.575 Y447.885
X450.097 Y446.766
X450.636 Y445.647
X451.193 Y444.53
X451.769 Y443.416
X452.362 Y442.306
X452.976 Y441.202
X453.609 Y440.105
X454.265 Y439.012
X454.503 Y438.632
Z-17. F796.
X454.943 Y437.928 F1500.
X455.645 Y436.854
X456.37 Y435.794
X457.115 Y434.753
X457.881 Y433.734
X458.668 Y432.741
X459.476 Y431.777
X460.31 Y430.836
X460.725 Y430.39
X461.15 Y429.946
X461.577 Y429.514
X462.013 Y429.089
X462.45 Y428.677
X462.894 Y428.275
X463.347 Y427.88
X463.805 Y427.496
X464.268 Y427.123
X464.737 Y426.763
X465.211 Y426.414
X465.693 Y426.079
X466.178 Y425.757
X466.668 Y425.451
X467.168 Y425.156
X467.669 Y424.879
X468.172 Y424.618
X468.681 Y424.375
X469.199 Y424.145
X469.718 Y423.935
X470.239 Y423.744
X470.76 Y423.571
X471.284 Y423.418
X471.808 Y423.282
X472.334 Y423.167
X472.864 Y423.069
X473.396 Y422.99
X473.933 Y422.93
X474.474 Y422.888
X475.02 Y422.866
X475.571 Y422.861
X476.125 Y422.876
X476.68 Y422.91
X477.235 Y422.962
X477.79 Y423.033
X478.345 Y423.12
X478.899 Y423.224
X479.456 Y423.346
X480.012 Y423.482
X480.567 Y423.635
X481.123 Y423.803
X481.677 Y423.986
X482.233 Y424.183
X482.787 Y424.393
X483.339 Y424.615
X483.889 Y424.851
X484.267 Y425.021
Z-15.
X484.441 Y425.099
X484.988 Y425.357
X485.528 Y425.623
X486.057 Y425.896
X487.138 Y426.485
X488.19 Y427.099
X489.22 Y427.736
X490.225 Y428.393
X491.205 Y429.063
X492.154 Y429.741
X493.071 Y430.421
X493.997 Y431.13
X494.955 Y431.89
X495.944 Y432.7
X496.964 Y433.565
X497.493 Y434.028
Z-17. F796.
X498.012 Y434.483 F1500.
X499.087 Y435.458
X500.189 Y436.491
X501.317 Y437.585
X502.469 Y438.74
X503.642 Y439.96
X504.838 Y441.244
X506.054 Y442.596
X507.289 Y444.018
X508.543 Y445.511
X509.812 Y447.075
X511.097 Y448.715
X512.397 Y450.433
X513.695 Y452.206
X514.961 Y453.986
X516.194 Y455.767
X517.399 Y457.548
X518.579 Y459.325
X519.735 Y461.095
X520.87 Y462.854
X523.097 Y466.336
X523.098 Y466.339
X525.272 Y469.73
X525.282 Y469.745
X526.355 Y471.397
X526.367 Y471.415
X527.435 Y473.034
X527.45 Y473.057
X528.515 Y474.639
X528.536 Y474.669
X529.602 Y476.212
X529.628 Y476.249
X530.698 Y477.749
X530.729 Y477.792
X531.805 Y479.246
X531.842 Y479.296
X532.928 Y480.701
X532.96 Y480.741
X533.507 Y481.424
X533.532 Y481.455
X534.083 Y482.125
X534.109 Y482.156
X534.663 Y482.811
X534.691 Y482.844
X535.25 Y483.486
X535.283 Y483.522
X535.713 Y484.001
Z-15.
X535.847 Y484.149
X535.878 Y484.184
X536.446 Y484.796
X536.482 Y484.834
X537.056 Y485.431
X537.096 Y485.471
X537.675 Y486.051
X537.716 Y486.092
X538.302 Y486.657
X538.346 Y486.699
X538.938 Y487.247
X538.986 Y487.29
X539.585 Y487.821
X539.633 Y487.862
X540.238 Y488.376
X540.297 Y488.426
X540.911 Y488.921
X540.964 Y488.962
X541.585 Y489.44
X541.648 Y489.488
X542.278 Y489.947
X542.342 Y489.992
X542.98 Y490.432
X543.049 Y490.478
X543.697 Y490.899
X543.768 Y490.944
X544.443 Y491.356
X544.52 Y491.401
X545.237 Y491.81
X545.324 Y491.858
X546.083 Y492.258
X546.177 Y492.305
X546.98 Y492.693
X547.084 Y492.741
X547.931 Y493.111
X548.042 Y493.157
X548.664 Y493.4
Z-17. F796.
X548.932 Y493.504 F1500.
X549.016 Y493.535
X549.477 Y493.699
X549.538 Y493.72
X550.011 Y493.877
X550.072 Y493.897
X550.555 Y494.046
X550.617 Y494.064
X551.112 Y494.205
X551.182 Y494.224
X551.688 Y494.355
X551.752 Y494.371
X552.27 Y494.493
X552.336 Y494.508
X552.863 Y494.62
X552.934 Y494.634
X553.474 Y494.735
X553.545 Y494.747
X554.093 Y494.836
X554.169 Y494.848
X554.719 Y494.922
X554.783 Y494.931
X555.334 Y494.994
X555.404 Y495.001
X555.956 Y495.051
X556.032 Y495.057
X556.584 Y495.093
X556.649 Y495.096
X557.202 Y495.12
X557.272 Y495.122
X557.825 Y495.133
X557.89 Y495.134
X558.443 Y495.133
X558.514 Y495.132
X559.067 Y495.118
X559.132 Y495.116
X559.684 Y495.09
X559.749 Y495.086
X560.301 Y495.048
X560.372 Y495.042
X560.922 Y494.991
X560.981 Y494.985
X561.531 Y494.923
X561.596 Y494.915
X562.144 Y494.841
X562.21 Y494.831
X562.756 Y494.745
X562.821 Y494.734
X563.365 Y494.636
X563.424 Y494.625
X563.966 Y494.516
X564.027 Y494.503
X564.566 Y494.383
X564.629 Y494.369
X565.163 Y494.238
X565.224 Y494.222
X565.754 Y494.08
X565.812 Y494.064
X566.337 Y493.912
X566.4 Y493.893
X566.92 Y493.73
X566.978 Y493.711
X567.493 Y493.538
X567.548 Y493.519
X568.057 Y493.337
X568.117 Y493.315
X568.62 Y493.123
X568.68 Y493.099
X569.177 Y492.897
X569.236 Y492.873
X569.725 Y492.661
X569.775 Y492.639
X570.258 Y492.42
X570.324 Y492.389
X570.798 Y492.16
X570.855 Y492.132
X571.322 Y491.894
X571.373 Y491.868
X571.832 Y491.623
X571.894 Y491.589
X572.344 Y491.335
X572.406 Y491.299
X572.847 Y491.036
X572.896 Y491.006
X573.328 Y490.737
X573.394 Y490.694
X573.817 Y490.415
X573.871 Y490.379
X574.289 Y490.09
X574.352 Y490.045
X574.763 Y489.745
X574.819 Y489.703
X575.222 Y489.394
X575.289 Y489.341
X575.684 Y489.02
X575.741 Y488.972
X576.127 Y488.642
X576.19 Y488.587
X576.567 Y488.246
X576.629 Y488.189
X576.996 Y487.838
X577.061 Y487.774
X577.417 Y487.412
X577.48 Y487.345
X577.825 Y486.972
X577.884 Y486.906
X578.217 Y486.524
X578.285 Y486.444
X578.605 Y486.05
X578.665 Y485.974
X578.972 Y485.57
X579.032 Y485.488
X579.325 Y485.074
X579.385 Y484.986
X579.663 Y484.562
X579.719 Y484.473
X579.981 Y484.041
X580.037 Y483.944
X580.282 Y483.504
X580.335 Y483.406
X580.564 Y482.956
X580.615 Y482.85
X580.826 Y482.392
X580.868 Y482.295
X581.063 Y481.829
X581.108 Y481.717
X581.285 Y481.241
X581.323 Y481.131
X581.481 Y480.65
X581.515 Y480.541
X581.654 Y480.056
X581.682 Y479.948
X581.804 Y479.458
X581.829 Y479.347
X581.931 Y478.854
X581.951 Y478.746
X582.035 Y478.249
X582.052 Y478.135
X582.117 Y477.634
X582.129 Y477.532
X582.177 Y477.027
X582.186 Y476.889
X582.234 Y475.906
X582.235 Y475.902
X582.281 Y474.915
X582.33 Y473.919
Y473.918
X582.379 Y472.912
X582.38 Y472.911
X582.428 Y471.9
X582.479 Y470.882
Y470.881
X582.53 Y469.854
X582.582 Y468.821
X582.636 Y467.779
Y467.778
X582.69 Y466.728
X582.746 Y465.671
X582.803 Y464.607
X582.861 Y463.534
X582.921 Y462.454
X582.983 Y461.366
X583.046 Y460.27
X583.112 Y459.167
X583.178 Y458.054
X583.247 Y456.934
X583.318 Y455.807
X583.392 Y454.672
X583.467 Y453.528
X583.545 Y452.376
X583.626 Y451.214
G2 X580.633 Y448.006 I-2.993 J-0.208
G1 X553.262
G2 X551.141 Y448.885 I0. J3.
G1 X551.123 Y448.892
X551.105 Y448.885
X551.097 Y448.867
X551.105 Y448.849
G2 X551.984 Y446.727 I-2.121 J-2.122
G1 Y440.284
G2 X551.105 Y438.163 I-3. J0.
G1 X551.098 Y438.145
X551.105 Y438.127
X551.123 Y438.12
X551.141 Y438.127
G2 X553.262 Y439.006 I2.121 J-2.121
G1 X581.862
G2 X584.848 Y436.294 I0. J-3.
G1 X585.027 Y434.441
X585.213 Y432.575
X585.408 Y430.69
X585.611 Y428.785
X585.822 Y426.863
X586.044 Y424.921
X586.275 Y422.96
X586.515 Y420.981
X586.767 Y418.981
X587.027 Y416.962
X587.3 Y414.924
X587.582 Y412.864
X587.877 Y410.786
X588.182 Y408.687
X588.499 Y406.568
X588.828 Y404.43
X589.17 Y402.27
X589.524 Y400.089
X589.891 Y397.889
X590.272 Y395.667
X590.666 Y393.424
X591.073 Y391.16
X591.494 Y388.876
X591.932 Y386.564
G2 X588.984 Y383.006 I-2.948 J-0.558
G1 X564.123
Z-15.
X548.123
Z-17. F796.
X523.263 F1500.
G3 X522.663 Y382.406 I0. J-0.6 F2388.
G1 Y381.806
G19 G2 Y381.206 Z-16.4 J0. K0.6
G0 Z15.
X377.31 Y511.206
Z7.
G1 Z-5.4 F796.
G3 Y511.806 Z-6. J0.6 K0. F2388.
G1 Y512.406
G17 G3 X376.71 Y513.006 I-0.6 J0.
G1 X315.661 F1500.
G2 X313.999 Y518.503 I0. J3.
G1 X315.174 Y519.285
X316.401 Y520.111
X317.685 Y520.985
X319.02 Y521.907
X320.407 Y522.878
X321.838 Y523.895
X323.306 Y524.958
X324.805 Y526.065
X326.324 Y527.214
X327.853 Y528.404
X329.387 Y529.639
X330.141 Y530.263
X330.894 Y530.9
X331.643 Y531.547
X332.38 Y532.2
X333.107 Y532.861
X333.824 Y533.531
X334.525 Y534.206
X335.21 Y534.889
X335.88 Y535.578
X336.529 Y536.272
X337.158 Y536.971
X337.763 Y537.674
X338.347 Y538.384
X338.905 Y539.097
X339.437 Y539.813
X339.942 Y540.53
X340.417 Y541.251
X340.865 Y541.977
X341.283 Y542.703
X341.669 Y543.429
X342.026 Y544.162
X342.352 Y544.894
X342.646 Y545.629
X342.911 Y546.369
X343.145 Y547.111
X343.348 Y547.858
X343.521 Y548.611
X343.664 Y549.37
X343.779 Y550.138
X343.865 Y550.915
X343.922 Y551.701
X343.951 Y552.501
X343.954 Y553.31
X343.929 Y554.131
X343.877 Y554.967
X343.801 Y555.818
X343.7 Y556.681
X343.575 Y557.557
X343.427 Y558.45
X343.259 Y559.356
X343.07 Y560.277
X342.863 Y561.213
X342.64 Y562.16
X342.402 Y563.117
X341.885 Y565.092
X341.331 Y567.109
X340.758 Y569.172
X340.756 Y569.179
X340.179 Y571.273
X340.171 Y571.301
X339.609 Y573.42
X339.598 Y573.464
X339.065 Y575.604
X339.054 Y575.648
X338.803 Y576.725
X338.795 Y576.761
X338.557 Y577.842
X338.55 Y577.877
X338.325 Y578.961
X338.317 Y579.001
X338.107 Y580.087
X338.098 Y580.133
X337.905 Y581.221
X337.897 Y581.269
X337.722 Y582.357
X337.715 Y582.405
X337.558 Y583.494
X337.55 Y583.55
X337.414 Y584.638
X337.408 Y584.691
X337.292 Y585.776
X337.286 Y585.833
X337.191 Y586.916
X337.187 Y586.978
X337.115 Y588.056
X337.111 Y588.116
X337.061 Y589.189
X337.059 Y589.256
X337.033 Y590.323
X337.032 Y590.388
X337.029 Y591.445
X337.03 Y591.517
X337.052 Y592.567
X337.054 Y592.634
X337.099 Y593.673
X337.103 Y593.747
X337.173 Y594.775
X337.179 Y594.851
X337.274 Y595.866
X337.282 Y595.94
X337.401 Y596.94
X337.412 Y597.02
X337.556 Y598.005
X337.569 Y598.087
X337.738 Y599.055
X337.753 Y599.137
X337.946 Y600.086
X337.965 Y600.173
X338.183 Y601.103
X338.205 Y601.19
X338.447 Y602.099
X338.473 Y602.19
X338.739 Y603.076
X338.768 Y603.169
X339.058 Y604.032
X339.092 Y604.126
X339.405 Y604.964
X339.445 Y605.065
X339.782 Y605.876
X339.826 Y605.977
X340.186 Y606.761
X340.234 Y606.862
X340.616 Y607.618
X340.674 Y607.727
X341.079 Y608.453
X341.143 Y608.561
X341.57 Y609.256
X341.642 Y609.368
X342.091 Y610.031
X342.17 Y610.143
X342.64 Y610.773
X342.73 Y610.887
X343.221 Y611.483
X343.318 Y611.595
X343.83 Y612.157
X343.939 Y612.27
X344.471 Y612.796
X344.562 Y612.883
X344.836 Y613.132
X344.889 Y613.179
X345.167 Y613.42
X345.239 Y613.48
X345.523 Y613.711
X345.588 Y613.763
X345.877 Y613.985
X345.95 Y614.039
X346.244 Y614.251
X346.31 Y614.297
X346.608 Y614.5
X346.685 Y614.551
X346.988 Y614.744
X347.065 Y614.792
X347.374 Y614.976
X347.451 Y615.02
X347.764 Y615.194
X347.847 Y615.238
X348.165 Y615.402
X348.239 Y615.439
X348.561 Y615.594
X348.653 Y615.637
X348.98 Y615.781
X349.059 Y615.814
X349.391 Y615.949
X349.478 Y615.983
X349.815 Y616.108
X349.899 Y616.138
X350.24 Y616.253
X350.33 Y616.281
X350.677 Y616.386
X350.76 Y616.41
X351.11 Y616.505
X351.197 Y616.528
X351.552 Y616.613
X351.639 Y616.632
X351.999 Y616.707
X352.085 Y616.724
X352.45 Y616.789
X352.542 Y616.803
X352.911 Y616.857
X352.986 Y616.867
X353.359 Y616.912
X353.45 Y616.922
X353.829 Y616.956
X353.909 Y616.962
X354.291 Y616.986
X354.371 Y616.99
X354.758 Y617.004
X354.843 Y617.006
X355.235 Y617.009
X355.303
X355.699 Y617.003
X355.781 Y617.
X356.182 Y616.983
X356.294 Y616.977
X357.109 Y616.911
X357.249 Y616.897
X358.081 Y616.791
X358.213 Y616.771
X359.063 Y616.624
X359.187 Y616.6
X360.055 Y616.412
X360.174 Y616.384
X361.06 Y616.154
X361.168 Y616.123
X362.071 Y615.852
X362.172 Y615.82
X363.093 Y615.508
X363.189 Y615.474
X364.127 Y615.12
X364.211 Y615.087
X365.167 Y614.693
X365.251 Y614.657
X366.224 Y614.221
X366.298 Y614.186
X367.289 Y613.709
G2 X368.987 Y610.944 I-1.301 J-2.703
G1 X368.951 Y609.185
X368.947 Y607.489
X368.973 Y605.834
X369.031 Y604.222
X369.12 Y602.648
X369.24 Y601.116
X369.391 Y599.625
X369.573 Y598.175
X369.785 Y596.766
X370.028 Y595.39
X370.16 Y594.731
X370.299 Y594.072
X370.446 Y593.428
X370.6 Y592.793
X370.763 Y592.166
X370.932 Y591.55
X371.109 Y590.948
X371.293 Y590.354
X371.483 Y589.772
X371.681 Y589.203
X371.886 Y588.642
X372.099 Y588.091
X372.317 Y587.553
X372.543 Y587.024
X372.776 Y586.506
X373.015 Y586.
X373.261 Y585.505
X373.514 Y585.02
X373.773 Y584.545
X374.038 Y584.082
X374.31 Y583.63
X374.589 Y583.187
X374.874 Y582.755
X375.163 Y582.336
X375.459 Y581.928
X375.764 Y581.526
X376.072 Y581.138
X376.385 Y580.762
X376.706 Y580.394
X377.035 Y580.034
X377.364 Y579.689
X377.7 Y579.355
X378.044 Y579.028
X378.392 Y578.713
X378.746 Y578.408
X379.107 Y578.112
X379.472 Y577.827
X379.842 Y577.553
X380.218 Y577.287
X380.597 Y577.034
X380.983 Y576.791
X381.375 Y576.555
X381.771 Y576.332
X382.172 Y576.117
X382.578 Y575.914
X382.988 Y575.721
X383.405 Y575.537
X383.825 Y575.363
X384.247 Y575.201
X384.676 Y575.048
X385.111 Y574.905
X385.549 Y574.772
X385.987 Y574.651
X386.429 Y574.54
X386.877 Y574.439
X387.327 Y574.348
X387.778 Y574.268
X388.234 Y574.199
X388.692 Y574.14
X389.148 Y574.091
X389.603 Y574.054
X390.066 Y574.028
X390.528 Y574.011
X390.988 Y574.006
X391.448 Y574.011
X391.912 Y574.028
X392.373 Y574.054
X392.828 Y574.091
X393.285 Y574.14
X393.743 Y574.199
X394.199 Y574.268
X394.649 Y574.348
X395.101 Y574.439
X395.548 Y574.54
X395.99 Y574.651
X396.428 Y574.772
X396.865 Y574.905
X397.3 Y575.048
X397.73 Y575.201
X398.15 Y575.363
X398.571 Y575.537
X398.989 Y575.721
X399.399 Y575.914
X399.804 Y576.117
X400.207 Y576.333
X400.602 Y576.555
X400.993 Y576.79
X401.379 Y577.034
X401.76 Y577.288
X402.134 Y577.552
X402.504 Y577.827
X402.871 Y578.113
X403.23 Y578.407
X403.583 Y578.712
X403.932 Y579.028
X404.276 Y579.355
X404.613 Y579.69
X404.944 Y580.035
X405.271 Y580.394
X405.591 Y580.761
X405.904 Y581.138
X406.214 Y581.528
X406.517 Y581.926
X406.813 Y582.336
X407.104 Y582.757
X407.388 Y583.187
X407.667 Y583.63
X407.939 Y584.082
X408.204 Y584.545
X408.463 Y585.02
X408.716 Y585.505
X408.961 Y585.998
X409.2 Y586.506
X409.434 Y587.024
X409.659 Y587.553
X409.879 Y588.093
X410.091 Y588.642
X410.296 Y589.201
X410.493 Y589.772
X410.685 Y590.356
X410.868 Y590.948
X411.045 Y591.55
X411.213 Y592.164
X411.376 Y592.793
X411.531 Y593.428
X411.677 Y594.072
X411.818 Y594.733
X411.949 Y595.39
X412.192 Y596.766
X412.404 Y598.174
X412.585 Y599.624
X412.736 Y601.117
X412.857 Y602.648
X412.945 Y604.221
X413.003 Y605.835
X413.03 Y607.489
X413.025 Y609.184
X412.989 Y610.944
G2 X414.849 Y613.781 I2.999 J0.062
G1 X416.045 Y614.272
X416.109 Y614.298
X416.695 Y614.523
X416.737 Y614.539
X417.315 Y614.751
X417.366 Y614.769
X417.935 Y614.966
X417.984 Y614.982
X418.546 Y615.166
X418.597 Y615.183
X419.15 Y615.353
X419.208 Y615.37
X419.754 Y615.526
X419.811 Y615.541
X420.348 Y615.683
X420.404 Y615.698
X420.933 Y615.827
X420.999 Y615.842
X421.521 Y615.957
X421.586 Y615.971
X422.099 Y616.071
X422.17 Y616.084
X422.675 Y616.171
X422.742 Y616.182
X423.239 Y616.256
X423.316 Y616.267
X423.805 Y616.327
X423.884 Y616.335
X424.365 Y616.381
X424.449 Y616.388
X424.923 Y616.42
X425.003 Y616.424
X425.468 Y616.443
X425.557 Y616.446
X426.014 Y616.451
X426.107 Y616.45
X426.557 Y616.441
X426.653 Y616.438
X427.094 Y616.415
X427.186 Y616.409
X427.62 Y616.373
X427.722 Y616.363
X428.148 Y616.313
X428.245 Y616.299
X428.663 Y616.237
X428.768 Y616.219
X429.179 Y616.142
X429.281 Y616.121
X429.684 Y616.031
X429.794 Y616.004
X430.189 Y615.9
X430.298 Y615.869
X430.686 Y615.751
X430.791 Y615.717
X431.171 Y615.586
X431.271 Y615.55
X431.645 Y615.406
X431.759 Y615.359
X432.124 Y615.201
X432.222 Y615.156
X432.581 Y614.985
X432.681 Y614.936
X433.033 Y614.752
X433.14 Y614.693
X433.484 Y614.495
X433.57 Y614.443
X433.908 Y614.233
X434.006 Y614.17
X434.337 Y613.946
X434.422 Y613.886
X434.746 Y613.65
X434.834 Y613.583
X435.152 Y613.333
X435.231 Y613.269
X435.542 Y613.007
X435.618 Y612.941
X435.923 Y612.666
X435.991 Y612.602
X436.29 Y612.315
X436.359 Y612.247
X436.652 Y611.947
X436.714 Y611.882
X437.002 Y611.569
X437.063 Y611.5
X437.344 Y611.175
X437.393 Y611.118
X437.67 Y610.781
X437.722 Y610.716
X437.993 Y610.367
X438.038 Y610.307
X438.304 Y609.946
X438.345 Y609.889
X438.606 Y609.517
X438.648 Y609.455
X438.904 Y609.07
X438.937 Y609.02
X439.189 Y608.624
X439.235 Y608.548
X439.727 Y607.722
X439.781 Y607.628
X440.258 Y606.757
X440.301 Y606.675
X440.765 Y605.762
X440.803 Y605.685
X441.255 Y604.729
X441.285 Y604.665
X441.727 Y603.67
X441.749 Y603.618
X442.185 Y602.584
X442.206 Y602.533
X442.635 Y601.461
X442.649 Y601.426
X443.076 Y600.319
X443.089 Y600.285
X443.513 Y599.145
X443.524 Y599.113
X444.377 Y596.738
X444.386 Y596.714
X445.255 Y594.228
X445.256 Y594.225
X446.153 Y591.652
X447.091 Y589.011
X447.576 Y587.678
X448.076 Y586.334
X448.592 Y584.983
X449.124 Y583.627
X449.673 Y582.267
X450.239 Y580.911
X450.825 Y579.555
X451.43 Y578.206
X452.052 Y576.864
X452.695 Y575.533
X453.358 Y574.216
X454.038 Y572.914
X454.738 Y571.633
X455.456 Y570.374
X456.192 Y569.139
X456.946 Y567.932
X457.715 Y566.755
X458.502 Y565.612
X459.302 Y564.506
X460.117 Y563.438
X460.953 Y562.401
X461.364 Y561.913
X461.786 Y561.427
X462.211 Y560.951
X462.636 Y560.489
X463.066 Y560.038
X463.497 Y559.599
X463.93 Y559.174
X464.365 Y558.761
X464.802 Y558.362
X465.24 Y557.976
X465.681 Y557.602
X466.122 Y557.242
X466.564 Y556.898
X467.008 Y556.565
X467.452 Y556.248
X467.896 Y555.945
X468.341 Y555.656
X468.787 Y555.381
X469.235 Y555.12
X469.682 Y554.874
X470.127 Y554.643
X470.573 Y554.427
X471.021 Y554.224
X471.471 Y554.035
X471.918 Y553.861
X472.366 Y553.701
X472.817 Y553.555
X473.268 Y553.423
X473.72 Y553.305
X474.169 Y553.201
X474.623 Y553.112
X475.081 Y553.035
X475.539 Y552.973
X475.999 Y552.924
X476.462 Y552.889
X476.929 Y552.868
X477.398 Y552.86
X477.871 Y552.867
X478.348 Y552.887
X478.829 Y552.922
X479.315 Y552.971
X479.805 Y553.034
X480.301 Y553.112
X480.801 Y553.203
X481.307 Y553.311
X481.819 Y553.432
X482.333 Y553.567
X482.855 Y553.719
X483.381 Y553.885
X483.915 Y554.066
X484.454 Y554.263
X484.996 Y554.473
X485.544 Y554.7
X486.1 Y554.943
X486.657 Y555.198
X487.222 Y555.471
X487.794 Y555.759
X488.365 Y556.058
X488.944 Y556.376
X489.53 Y556.708
X490.115 Y557.053
X490.707 Y557.413
X491.305 Y557.79
X491.906 Y558.179
X492.508 Y558.58
X493.107 Y558.993
X494.342 Y559.875
X495.579 Y560.804
X496.826 Y561.785
X498.083 Y562.818
X499.346 Y563.897
X500.611 Y565.023
X501.876 Y566.193
X503.14 Y567.409
X504.401 Y568.665
X505.653 Y569.96
X506.896 Y571.294
X508.127 Y572.664
X509.345 Y574.07
X510.551 Y575.507
X511.74 Y576.973
X512.912 Y578.467
X514.07 Y579.988
X515.21 Y581.529
X516.333 Y583.09
X517.441 Y584.666
X518.532 Y586.257
X519.61 Y587.857
X520.674 Y589.463
X521.722 Y591.069
X523.791 Y594.286
X525.821 Y597.463
X525.826 Y597.471
X527.824 Y600.577
X527.836 Y600.596
X528.826 Y602.11
X528.838 Y602.127
X529.824 Y603.612
X529.841 Y603.638
X530.826 Y605.089
X530.846 Y605.118
X531.83 Y606.532
X531.854 Y606.566
X532.84 Y607.941
X532.869 Y607.981
X533.857 Y609.312
X533.892 Y609.358
X534.885 Y610.643
X534.926 Y610.695
X535.925 Y611.931
X535.961 Y611.974
X536.464 Y612.573
X536.488 Y612.602
X536.992 Y613.187
X537.018 Y613.217
X537.524 Y613.789
X537.551 Y613.819
X538.059 Y614.378
X538.092 Y614.414
X538.603 Y614.958
X538.634 Y614.99
X539.147 Y615.52
X539.184 Y615.557
X539.7 Y616.072
X539.738 Y616.109
X540.257 Y616.609
X540.292 Y616.643
X540.813 Y617.129
X540.856 Y617.168
X541.38 Y617.638
X541.422 Y617.676
X541.949 Y618.131
X541.996 Y618.17
X542.526 Y618.609
X542.575 Y618.649
X543.108 Y619.072
X543.156 Y619.109
X543.692 Y619.517
X543.747 Y619.558
X544.286 Y619.949
X544.341 Y619.988
X544.883 Y620.363
X544.937 Y620.399
X545.482 Y620.759
X545.545 Y620.8
X546.092 Y621.142
X546.151 Y621.178
X546.702 Y621.505
X546.766 Y621.542
X547.319 Y621.852
X547.384 Y621.887
X547.94 Y622.181
X548.006 Y622.215
X548.565 Y622.493
X548.632 Y622.525
X549.193 Y622.787
X549.265 Y622.82
X549.828 Y623.065
X549.898 Y623.094
X550.463 Y623.323
X550.537 Y623.352
X551.105 Y623.565
X551.177 Y623.591
X551.745 Y623.788
X551.815 Y623.811
X552.385 Y623.993
X552.466 Y624.017
X553.038 Y624.182
X553.109 Y624.202
X553.682 Y624.352
X553.755 Y624.37
X554.329 Y624.505
X554.407 Y624.523
X554.981 Y624.642
X555.051 Y624.655
X555.626 Y624.76
X555.706 Y624.774
X556.281 Y624.863
X556.352 Y624.873
X556.927 Y624.948
X556.998 Y624.956
X557.572 Y625.017
X557.649 Y625.024
X558.223 Y625.07
X558.296 Y625.075
X558.869 Y625.107
X558.936 Y625.11
X559.507 Y625.129
X559.581 Y625.131
X560.151 Y625.136
X560.225
X560.793 Y625.127
X560.856 Y625.125
X561.421 Y625.104
X561.491 Y625.101
X562.054 Y625.067
X562.119 Y625.062
X562.679 Y625.016
X562.749 Y625.009
X563.306 Y624.95
X563.366 Y624.943
X563.92 Y624.873
X563.987 Y624.864
X564.536 Y624.782
X564.602 Y624.771
X565.148 Y624.677
X565.205 Y624.667
X565.746 Y624.563
X565.815 Y624.549
X566.351 Y624.433
X566.409 Y624.42
X566.94 Y624.294
X566.998 Y624.279
X567.524 Y624.143
X567.584 Y624.127
X568.104 Y623.981
X568.166 Y623.963
X568.679 Y623.807
X568.733 Y623.79
X569.241 Y623.625
X569.298 Y623.606
X569.799 Y623.432
X569.859 Y623.41
X570.352 Y623.227
X570.408 Y623.206
X570.895 Y623.014
X570.951 Y622.991
X571.43 Y622.791
X571.486 Y622.767
X571.957 Y622.559
X572.013 Y622.534
X572.476 Y622.318
X572.528 Y622.293
X572.983 Y622.07
X573.04 Y622.041
X573.487 Y621.81
X573.545 Y621.78
X573.982 Y621.542
X574.037 Y621.511
X574.465 Y621.266
X574.517 Y621.236
X574.936 Y620.985
X574.996 Y620.947
X575.406 Y620.688
X575.457 Y620.656
X575.857 Y620.392
X575.916 Y620.352
X576.306 Y620.081
X576.357 Y620.044
X576.737 Y619.768
X576.797 Y619.724
X577.167 Y619.441
X577.221 Y619.398
X577.58 Y619.11
X577.636 Y619.064
X577.985 Y618.77
X578.04 Y618.723
X578.378 Y618.424
X578.433 Y618.374
X578.761 Y618.069
X578.819 Y618.014
X579.135 Y617.704
X579.182 Y617.656
X579.489 Y617.342
X579.549 Y617.278
X579.843 Y616.958
X579.893 Y616.902
X580.177 Y616.577
X580.233 Y616.511
X580.505 Y616.181
X580.554 Y616.12
X580.815 Y615.786
X580.869 Y615.715
X581.118 Y615.376
X581.167 Y615.307
X581.405 Y614.963
X581.454 Y614.89
X581.68 Y614.542
X581.726 Y614.469
X581.941 Y614.116
X581.984 Y614.043
X582.188 Y613.686
X582.236 Y613.598
X582.427 Y613.236
X582.466 Y613.16
X582.646 Y612.794
X582.686 Y612.71
X582.854 Y612.34
X582.889 Y612.259
X583.046 Y611.884
X583.081 Y611.797
X583.226 Y611.418
X583.26 Y611.323
X583.392 Y610.94
X583.418 Y610.863
X583.54 Y610.475
X583.568 Y610.379
X583.677 Y609.987
X583.699 Y609.904
X583.797 Y609.508
X583.819 Y609.411
X583.904 Y609.011
X583.921 Y608.926
X583.995 Y608.521
X584.01 Y608.432
X584.072 Y608.023
X584.083 Y607.941
X584.134 Y607.528
X584.145 Y607.432
X584.183 Y607.015
X584.192 Y606.886
X584.239 Y605.904
X584.286 Y604.916
X584.335 Y603.919
Y603.918
X584.384 Y602.912
X584.385 Y602.911
X584.433 Y601.9
X584.484 Y600.882
Y600.881
X584.535 Y599.854
X584.587 Y598.821
X584.641 Y597.779
Y597.778
X584.695 Y596.728
X584.751 Y595.671
X584.808 Y594.607
X584.866 Y593.535
X584.926 Y592.454
X584.988 Y591.366
X585.051 Y590.269
X585.116 Y589.167
X585.183 Y588.055
X585.252 Y586.934
X585.323 Y585.808
X585.397 Y584.671
X585.471 Y583.528
X585.55 Y582.376
X585.63 Y581.212
G2 X582.637 Y578.006 I-2.993 J-0.206
G1 X555.267
G2 X553.146 Y578.884 I0. J3.
G1 X553.128 Y578.892
X553.11 Y578.884
X553.102 Y578.866
X553.11 Y578.848
G2 X553.988 Y576.727 I-2.122 J-2.121
G1 Y570.284
G2 X553.11 Y568.163 I-3. J0.
G1 X553.103 Y568.145
X553.11 Y568.127
X553.128 Y568.12
X553.146 Y568.127
G2 X555.267 Y569.006 I2.121 J-2.121
G1 X583.867
G2 X586.853 Y566.294 I0. J-3.
G1 X587.032 Y564.441
X587.218 Y562.574
X587.412 Y560.69
X587.615 Y558.786
X587.827 Y556.863
X588.049 Y554.921
X588.28 Y552.96
X588.52 Y550.98
X588.771 Y548.981
X589.032 Y546.962
X589.304 Y544.924
X589.587 Y542.864
X589.881 Y540.786
X590.187 Y538.688
X590.504 Y536.568
X590.833 Y534.429
X591.174 Y532.27
X591.529 Y530.09
X591.896 Y527.888
X592.276 Y525.666
X592.67 Y523.424
X593.077 Y521.161
X593.499 Y518.876
X593.936 Y516.563
G2 X590.988 Y513.006 I-2.948 J-0.557
G1 X525.267
G2 X523.146 Y513.884 I0. J3.
G1 X523.128 Y513.892
X523.11 Y513.884
X523.102 Y513.866
X523.11 Y513.848
G2 X523.988 Y511.727 I-2.122 J-2.121
G1 Y501.006
G2 X520.988 Y498.006 I-3. J0.
G1 X380.988
G2 X377.988 Y501.006 I0. J3.
G1 Y511.727
G2 X378.867 Y513.849 I3. J0.
G1 X378.875 Y513.867
X378.867 Y513.885
X378.849 Y513.892
X378.831 Y513.885
G2 X376.71 Y513.006 I-2.121 J2.121
G3 X376.11 Y512.406 I0. J-0.6 F2388.
G1 Y511.806
G19 G2 Y511.206 Z-5.4 J0. K0.6
G0 Z5.
X377.31
G1 Z1. F796.
Z-11.4
G3 Y511.806 Z-12. J0.6 K0. F2388.
G1 Y512.406
G17 G3 X376.71 Y513.006 I-0.6 J0.
G1 X315.661 F1500.
G2 X313.999 Y518.503 I0. J3.
G1 X315.174 Y519.285
X316.401 Y520.111
X317.685 Y520.985
X319.02 Y521.907
X320.407 Y522.878
X321.838 Y523.895
X323.306 Y524.958
X324.805 Y526.065
X326.324 Y527.214
X327.853 Y528.404
X329.387 Y529.639
X330.141 Y530.263
X330.894 Y530.9
X331.643 Y531.547
X332.38 Y532.2
X333.107 Y532.861
X333.824 Y533.531
X334.525 Y534.206
X335.21 Y534.889
X335.88 Y535.578
X336.529 Y536.272
X337.158 Y536.971
X337.763 Y537.674
X338.347 Y538.384
X338.905 Y539.097
X339.437 Y539.813
X339.942 Y540.53
X340.417 Y541.251
X340.865 Y541.977
X341.283 Y542.703
X341.669 Y543.429
X342.026 Y544.162
X342.352 Y544.894
X342.646 Y545.629
X342.911 Y546.369
X343.145 Y547.111
X343.348 Y547.858
X343.521 Y548.611
X343.664 Y549.37
X343.779 Y550.138
X343.865 Y550.915
X343.922 Y551.701
X343.951 Y552.501
X343.954 Y553.31
X343.929 Y554.131
X343.877 Y554.967
X343.801 Y555.818
X343.7 Y556.681
X343.575 Y557.557
X343.427 Y558.45
X343.259 Y559.356
X343.07 Y560.277
X342.863 Y561.213
X342.64 Y562.16
X342.402 Y563.117
X341.885 Y565.092
X341.331 Y567.109
X340.758 Y569.172
X340.756 Y569.179
X340.179 Y571.273
X340.171 Y571.301
X339.609 Y573.42
X339.598 Y573.464
X339.065 Y575.604
X339.054 Y575.648
X338.803 Y576.725
X338.795 Y576.761
X338.557 Y577.842
X338.55 Y577.877
X338.325 Y578.961
X338.317 Y579.001
X338.107 Y580.087
X338.098 Y580.133
X337.905 Y581.221
X337.897 Y581.269
X337.722 Y582.357
X337.715 Y582.405
X337.558 Y583.494
X337.55 Y583.55
X337.414 Y584.638
X337.408 Y584.691
X337.292 Y585.776
X337.286 Y585.833
X337.191 Y586.916
X337.187 Y586.978
X337.115 Y588.056
X337.111 Y588.116
X337.061 Y589.189
X337.059 Y589.256
X337.033 Y590.323
X337.032 Y590.388
X337.029 Y591.445
X337.03 Y591.517
X337.052 Y592.567
X337.054 Y592.634
X337.099 Y593.673
X337.103 Y593.747
X337.173 Y594.775
X337.179 Y594.851
X337.274 Y595.866
X337.282 Y595.94
X337.401 Y596.94
X337.412 Y597.02
X337.556 Y598.005
X337.569 Y598.087
X337.738 Y599.055
X337.753 Y599.137
X337.946 Y600.086
X337.965 Y600.173
X338.183 Y601.103
X338.205 Y601.19
X338.447 Y602.099
X338.473 Y602.19
X338.739 Y603.076
X338.768 Y603.169
X339.058 Y604.032
X339.092 Y604.126
X339.405 Y604.964
X339.445 Y605.065
X339.782 Y605.876
X339.826 Y605.977
X340.186 Y606.761
X340.234 Y606.862
X340.616 Y607.618
X340.674 Y607.727
X341.079 Y608.453
X341.143 Y608.561
X341.57 Y609.256
X341.642 Y609.368
X342.091 Y610.031
X342.17 Y610.143
X342.64 Y610.773
X342.73 Y610.887
X343.221 Y611.483
X343.318 Y611.595
X343.83 Y612.157
X343.939 Y612.27
X344.471 Y612.796
X344.562 Y612.883
X344.836 Y613.132
X344.889 Y613.179
X345.167 Y613.42
X345.239 Y613.48
X345.523 Y613.711
X345.588 Y613.763
X345.877 Y613.985
X345.95 Y614.039
X346.244 Y614.251
X346.31 Y614.297
X346.608 Y614.5
X346.685 Y614.551
X346.988 Y614.744
X347.065 Y614.792
X347.374 Y614.976
X347.451 Y615.02
X347.764 Y615.194
X347.847 Y615.238
X348.165 Y615.402
X348.239 Y615.439
X348.561 Y615.594
X348.653 Y615.637
X348.98 Y615.781
X349.059 Y615.814
X349.391 Y615.949
X349.478 Y615.983
X349.815 Y616.108
X349.899 Y616.138
X350.24 Y616.253
X350.33 Y616.281
X350.677 Y616.386
X350.76 Y616.41
X351.11 Y616.505
X351.197 Y616.528
X351.552 Y616.613
X351.639 Y616.632
X351.999 Y616.707
X352.085 Y616.724
X352.45 Y616.789
X352.542 Y616.803
X352.911 Y616.857
X352.986 Y616.867
X353.359 Y616.912
X353.45 Y616.922
X353.829 Y616.956
X353.909 Y616.962
X354.291 Y616.986
X354.371 Y616.99
X354.758 Y617.004
X354.843 Y617.006
X355.235 Y617.009
X355.303
X355.699 Y617.003
X355.781 Y617.
X356.182 Y616.983
X356.294 Y616.977
X357.109 Y616.911
X357.249 Y616.897
X358.081 Y616.791
X358.213 Y616.771
X359.063 Y616.624
X359.187 Y616.6
X360.055 Y616.412
X360.174 Y616.384
X361.06 Y616.154
X361.168 Y616.123
X362.071 Y615.852
X362.172 Y615.82
X363.093 Y615.508
X363.189 Y615.474
X364.127 Y615.12
X364.211 Y615.087
X365.167 Y614.693
X365.251 Y614.657
X366.224 Y614.221
X366.298 Y614.186
X367.289 Y613.709
G2 X368.987 Y610.944 I-1.301 J-2.703
G1 X368.951 Y609.185
X368.947 Y607.489
X368.973 Y605.834
X369.031 Y604.222
X369.12 Y602.648
X369.24 Y601.116
X369.391 Y599.625
X369.573 Y598.175
X369.785 Y596.766
X370.028 Y595.39
X370.16 Y594.731
X370.299 Y594.072
X370.446 Y593.428
X370.6 Y592.793
X370.763 Y592.166
X370.932 Y591.55
X371.109 Y590.948
X371.293 Y590.354
X371.483 Y589.772
X371.681 Y589.203
X371.886 Y588.642
X372.099 Y588.091
X372.317 Y587.553
X372.543 Y587.024
X372.776 Y586.506
X373.015 Y586.
X373.261 Y585.505
X373.514 Y585.02
X373.773 Y584.545
X374.038 Y584.082
X374.31 Y583.63
X374.589 Y583.187
X374.874 Y582.755
X375.163 Y582.336
X375.459 Y581.928
X375.764 Y581.526
X376.072 Y581.138
X376.385 Y580.762
X376.706 Y580.394
X377.035 Y580.034
X377.364 Y579.689
X377.7 Y579.355
X378.044 Y579.028
X378.392 Y578.713
X378.746 Y578.408
X379.107 Y578.112
X379.472 Y577.827
X379.842 Y577.553
X380.218 Y577.287
X380.597 Y577.034
X380.983 Y576.791
X381.375 Y576.555
X381.771 Y576.332
X382.172 Y576.117
X382.578 Y575.914
X382.988 Y575.721
X383.405 Y575.537
X383.825 Y575.363
X384.247 Y575.201
X384.676 Y575.048
X385.111 Y574.905
X385.549 Y574.772
X385.987 Y574.651
X386.429 Y574.54
X386.877 Y574.439
X387.327 Y574.348
X387.778 Y574.268
X388.234 Y574.199
X388.692 Y574.14
X389.148 Y574.091
X389.603 Y574.054
X390.066 Y574.028
X390.528 Y574.011
X390.988 Y574.006
X391.448 Y574.011
X391.912 Y574.028
X392.373 Y574.054
X392.828 Y574.091
X393.285 Y574.14
X393.743 Y574.199
X394.199 Y574.268
X394.649 Y574.348
X395.101 Y574.439
X395.548 Y574.54
X395.99 Y574.651
X396.428 Y574.772
X396.865 Y574.905
X397.3 Y575.048
X397.73 Y575.201
X398.15 Y575.363
X398.571 Y575.537
X398.989 Y575.721
X399.399 Y575.914
X399.804 Y576.117
X400.207 Y576.333
X400.602 Y576.555
X400.993 Y576.79
X401.379 Y577.034
X401.76 Y577.288
X402.134 Y577.552
X402.504 Y577.827
X402.871 Y578.113
X403.23 Y578.407
X403.583 Y578.712
X403.932 Y579.028
X404.276 Y579.355
X404.613 Y579.69
X404.944 Y580.035
X405.271 Y580.394
X405.591 Y580.761
X405.904 Y581.138
X406.214 Y581.528
X406.517 Y581.926
X406.813 Y582.336
X407.104 Y582.757
X407.388 Y583.187
X407.667 Y583.63
X407.939 Y584.082
X408.204 Y584.545
X408.463 Y585.02
X408.716 Y585.505
X408.961 Y585.998
X409.2 Y586.506
X409.434 Y587.024
X409.659 Y587.553
X409.879 Y588.093
X410.091 Y588.642
X410.296 Y589.201
X410.493 Y589.772
X410.685 Y590.356
X410.868 Y590.948
X411.045 Y591.55
X411.213 Y592.164
X411.376 Y592.793
X411.531 Y593.428
X411.677 Y594.072
X411.818 Y594.733
X411.949 Y595.39
X412.192 Y596.766
X412.404 Y598.174
X412.585 Y599.624
X412.736 Y601.117
X412.857 Y602.648
X412.945 Y604.221
X413.003 Y605.835
X413.03 Y607.489
X413.025 Y609.184
X412.989 Y610.944
G2 X414.849 Y613.781 I2.999 J0.062
G1 X416.045 Y614.272
X416.109 Y614.298
X416.695 Y614.523
X416.737 Y614.539
X417.315 Y614.751
X417.366 Y614.769
X417.935 Y614.966
X417.984 Y614.982
X418.546 Y615.166
X418.597 Y615.183
X419.15 Y615.353
X419.208 Y615.37
X419.754 Y615.526
X419.811 Y615.541
X420.348 Y615.683
X420.404 Y615.698
X420.933 Y615.827
X420.999 Y615.842
X421.521 Y615.957
X421.586 Y615.971
X422.099 Y616.071
X422.17 Y616.084
X422.675 Y616.171
X422.742 Y616.182
X423.239 Y616.256
X423.316 Y616.267
X423.805 Y616.327
X423.884 Y616.335
X424.365 Y616.381
X424.449 Y616.388
X424.923 Y616.42
X425.003 Y616.424
X425.468 Y616.443
X425.557 Y616.446
X426.014 Y616.451
X426.107 Y616.45
X426.557 Y616.441
X426.653 Y616.438
X427.094 Y616.415
X427.186 Y616.409
X427.62 Y616.373
X427.722 Y616.363
X428.148 Y616.313
X428.245 Y616.299
X428.663 Y616.237
X428.768 Y616.219
X429.179 Y616.142
X429.281 Y616.121
X429.684 Y616.031
X429.794 Y616.004
X430.189 Y615.9
X430.298 Y615.869
X430.686 Y615.751
X430.791 Y615.717
X431.171 Y615.586
X431.271 Y615.55
X431.645 Y615.406
X431.759 Y615.359
X432.124 Y615.201
X432.222 Y615.156
X432.581 Y614.985
X432.681 Y614.936
X433.033 Y614.752
X433.14 Y614.693
X433.484 Y614.495
X433.57 Y614.443
X433.908 Y614.233
X434.006 Y614.17
X434.337 Y613.946
X434.422 Y613.886
X434.746 Y613.65
X434.834 Y613.583
X435.152 Y613.333
X435.231 Y613.269
X435.542 Y613.007
X435.618 Y612.941
X435.923 Y612.666
X435.991 Y612.602
X436.29 Y612.315
X436.359 Y612.247
X436.652 Y611.947
X436.714 Y611.882
X437.002 Y611.569
X437.063 Y611.5
X437.344 Y611.175
X437.393 Y611.118
X437.67 Y610.781
X437.722 Y610.716
X437.993 Y610.367
X438.038 Y610.307
X438.304 Y609.946
X438.345 Y609.889
X438.606 Y609.517
X438.648 Y609.455
X438.904 Y609.07
X438.937 Y609.02
X439.189 Y608.624
X439.235 Y608.548
X439.727 Y607.722
X439.781 Y607.628
X440.258 Y606.757
X440.301 Y606.675
X440.765 Y605.762
X440.803 Y605.685
X441.255 Y604.729
X441.285 Y604.665
X441.727 Y603.67
X441.749 Y603.618
X442.185 Y602.584
X442.206 Y602.533
X442.635 Y601.461
X442.649 Y601.426
X443.076 Y600.319
X443.089 Y600.285
X443.513 Y599.145
X443.524 Y599.113
X444.377 Y596.738
X444.386 Y596.714
X445.255 Y594.228
X445.256 Y594.225
X446.153 Y591.652
X447.091 Y589.011
X447.576 Y587.678
X448.076 Y586.334
X448.592 Y584.983
X449.124 Y583.627
X449.673 Y582.267
X450.239 Y580.911
X450.825 Y579.555
X451.43 Y578.206
X452.052 Y576.864
X452.695 Y575.533
X453.358 Y574.216
X454.038 Y572.914
X454.738 Y571.633
X455.456 Y570.374
X456.192 Y569.139
X456.946 Y567.932
X457.715 Y566.755
X458.502 Y565.612
X459.302 Y564.506
X460.117 Y563.438
X460.953 Y562.401
X461.364 Y561.913
X461.786 Y561.427
X462.211 Y560.951
X462.636 Y560.489
X463.066 Y560.038
X463.497 Y559.599
X463.93 Y559.174
X464.365 Y558.761
X464.802 Y558.362
X465.24 Y557.976
X465.681 Y557.602
X466.122 Y557.242
X466.564 Y556.898
X467.008 Y556.565
X467.452 Y556.248
X467.896 Y555.945
X468.341 Y555.656
X468.787 Y555.381
X469.235 Y555.12
X469.682 Y554.874
X470.127 Y554.643
X470.573 Y554.427
X471.021 Y554.224
X471.471 Y554.035
X471.918 Y553.861
X472.366 Y553.701
X472.817 Y553.555
X473.268 Y553.423
X473.72 Y553.305
X474.169 Y553.201
X474.623 Y553.112
X475.081 Y553.035
X475.539 Y552.973
X475.999 Y552.924
X476.462 Y552.889
X476.929 Y552.868
X477.398 Y552.86
X477.871 Y552.867
X478.348 Y552.887
X478.829 Y552.922
X479.315 Y552.971
X479.805 Y553.034
X480.301 Y553.112
X480.801 Y553.203
X481.307 Y553.311
X481.819 Y553.432
X482.333 Y553.567
X482.855 Y553.719
X483.381 Y553.885
X483.915 Y554.066
X484.454 Y554.263
X484.996 Y554.473
X485.544 Y554.7
X486.1 Y554.943
X486.657 Y555.198
X487.222 Y555.471
X487.794 Y555.759
X488.365 Y556.058
X488.944 Y556.376
X489.53 Y556.708
X490.115 Y557.053
X490.707 Y557.413
X491.305 Y557.79
X491.906 Y558.179
X492.508 Y558.58
X493.107 Y558.993
X494.342 Y559.875
X495.579 Y560.804
X496.826 Y561.785
X498.083 Y562.818
X499.346 Y563.897
X500.611 Y565.023
X501.876 Y566.193
X503.14 Y567.409
X504.401 Y568.665
X505.653 Y569.96
X506.896 Y571.294
X508.127 Y572.664
X509.345 Y574.07
X510.551 Y575.507
X511.74 Y576.973
X512.912 Y578.467
X514.07 Y579.988
X515.21 Y581.529
X516.333 Y583.09
X517.441 Y584.666
X518.532 Y586.257
X519.61 Y587.857
X520.674 Y589.463
X521.722 Y591.069
X523.791 Y594.286
X525.821 Y597.463
X525.826 Y597.471
X527.824 Y600.577
X527.836 Y600.596
X528.826 Y602.11
X528.838 Y602.127
X529.824 Y603.612
X529.841 Y603.638
X530.826 Y605.089
X530.846 Y605.118
X531.83 Y606.532
X531.854 Y606.566
X532.84 Y607.941
X532.869 Y607.981
X533.857 Y609.312
X533.892 Y609.358
X534.885 Y610.643
X534.926 Y610.695
X535.925 Y611.931
X535.961 Y611.974
X536.464 Y612.573
X536.488 Y612.602
X536.992 Y613.187
X537.018 Y613.217
X537.524 Y613.789
X537.551 Y613.819
X538.059 Y614.378
X538.092 Y614.414
X538.603 Y614.958
X538.634 Y614.99
X539.147 Y615.52
X539.184 Y615.557
X539.7 Y616.072
X539.738 Y616.109
X540.257 Y616.609
X540.292 Y616.643
X540.813 Y617.129
X540.856 Y617.168
X541.38 Y617.638
X541.422 Y617.676
X541.949 Y618.131
X541.996 Y618.17
X542.526 Y618.609
X542.575 Y618.649
X543.108 Y619.072
X543.156 Y619.109
X543.692 Y619.517
X543.747 Y619.558
X544.286 Y619.949
X544.341 Y619.988
X544.883 Y620.363
X544.937 Y620.399
X545.482 Y620.759
X545.545 Y620.8
X546.092 Y621.142
X546.151 Y621.178
X546.702 Y621.505
X546.766 Y621.542
X547.319 Y621.852
X547.384 Y621.887
X547.94 Y622.181
X548.006 Y622.215
X548.565 Y622.493
X548.632 Y622.525
X549.193 Y622.787
X549.265 Y622.82
X549.828 Y623.065
X549.898 Y623.094
X550.463 Y623.323
X550.537 Y623.352
X551.105 Y623.565
X551.177 Y623.591
X551.745 Y623.788
X551.815 Y623.811
X552.385 Y623.993
X552.466 Y624.017
X553.038 Y624.182
X553.109 Y624.202
X553.682 Y624.352
X553.755 Y624.37
X554.329 Y624.505
X554.407 Y624.523
X554.981 Y624.642
X555.051 Y624.655
X555.626 Y624.76
X555.706 Y624.774
X556.281 Y624.863
X556.352 Y624.873
X556.927 Y624.948
X556.998 Y624.956
X557.572 Y625.017
X557.649 Y625.024
X558.223 Y625.07
X558.296 Y625.075
X558.869 Y625.107
X558.936 Y625.11
X559.507 Y625.129
X559.581 Y625.131
X560.151 Y625.136
X560.225
X560.793 Y625.127
X560.856 Y625.125
X561.421 Y625.104
X561.491 Y625.101
X562.054 Y625.067
X562.119 Y625.062
X562.679 Y625.016
X562.749 Y625.009
X563.306 Y624.95
X563.366 Y624.943
X563.92 Y624.873
X563.987 Y624.864
X564.536 Y624.782
X564.602 Y624.771
X565.148 Y624.677
X565.205 Y624.667
X565.746 Y624.563
X565.815 Y624.549
X566.351 Y624.433
X566.409 Y624.42
X566.94 Y624.294
X566.998 Y624.279
X567.524 Y624.143
X567.584 Y624.127
X568.104 Y623.981
X568.166 Y623.963
X568.679 Y623.807
X568.733 Y623.79
X569.241 Y623.625
X569.298 Y623.606
X569.799 Y623.432
X569.859 Y623.41
X570.352 Y623.227
X570.408 Y623.206
X570.895 Y623.014
X570.951 Y622.991
X571.43 Y622.791
X571.486 Y622.767
X571.957 Y622.559
X572.013 Y622.534
X572.476 Y622.318
X572.528 Y622.293
X572.983 Y622.07
X573.04 Y622.041
X573.487 Y621.81
X573.545 Y621.78
X573.982 Y621.542
X574.037 Y621.511
X574.465 Y621.266
X574.517 Y621.236
X574.936 Y620.985
X574.996 Y620.947
X575.406 Y620.688
X575.457 Y620.656
X575.857 Y620.392
X575.916 Y620.352
X576.306 Y620.081
X576.357 Y620.044
X576.737 Y619.768
X576.797 Y619.724
X577.167 Y619.441
X577.221 Y619.398
X577.58 Y619.11
X577.636 Y619.064
X577.985 Y618.77
X578.04 Y618.723
X578.378 Y618.424
