%
(1040)
(T1 D=6 CR=0 - ZMIN=-17.01 - flat end mill)
N10 G90 G94
N15 G17
N20 G71
(Set initial feed rate to 50 mm/min )
N25 G1 F50
N40 G53 G0 Z100
N45 G60

(2D Contour5)
N50 M9
N55 T1 M6
N60 S12000 M3
N65 G54
N70 M9
N80 G0 X410.754 Y207.617
N85 G43 Z15 H1
N90 Z7
N95 G1 Z-5.4 F796.1
N100 X410.746 Z-5.494 F2388.4
N105 X410.724 Y207.616 Z-5.585
N110 X410.688 Y207.613 Z-5.672
N115 X410.639 Y207.61 Z-5.753
N120 X410.578 Y207.606 Z-5.824
N125 X410.507 Y207.602 Z-5.885
N130 X410.427 Y207.597 Z-5.935
N135 X410.34 Y207.592 Z-5.971
N140 X410.248 Y207.586 Z-5.993
N145 X410.155 Y207.58 Z-6
N150 X409.556 Y207.543
N155 G3 X408.994 Y206.907 I0.037 J-0.599
N160 G2 X409 Y206.721 I-2.994 J-0.186 F1500
N165 G1 Y75.279
N170 G2 X408.121 Y73.157 I-3
N175 G3 Y73.121 I0.018 J-0.018
N180 X408.157 I0.018 J0.018
N185 G2 X410.279 Y74 I2.122 J-2.121
N190 G1 X416.721
N195 G2 X418.843 Y73.121 J-3
N200 G3 X418.879 Y73.157 I0.018 J0.018
N205 G2 X418 Y75.279 I2.121 J2.122
N210 G1 Y206.721
N215 G2 X418.879 Y208.843 I3
N220 G3 X418.843 Y208.879 I-0.018 J0.018
N225 G2 X416.721 Y208 I-2.122 J2.121
N230 G1 X410.279
N235 G2 X408.157 Y208.879 J3
N240 G3 X408.121 Y208.843 I-0.018 J-0.018
N245 G2 X408.994 Y206.907 I-2.121 J-2.122
N250 G3 X409.63 Y206.345 I0.599 J0.037 F2388.4
N255 G1 X410.229 Y206.382
N260 X410.323 Y206.388 Z-5.993
N265 X410.414 Y206.394 Z-5.971
N270 X410.501 Y206.399 Z-5.935
N275 X410.581 Y206.404 Z-5.885
N280 X410.653 Y206.409 Z-5.824
N285 X410.714 Y206.413 Z-5.753
N290 X410.763 Y206.416 Z-5.672
N295 X410.799 Y206.418 Z-5.585
N300 X410.821 Y206.419 Z-5.494
N305 X410.828 Y206.42 Z-5.4
N310 G0 Z5
N315 X410.754 Y207.617
N320 G1 Z1 F796.1
N325 Z-11.4
N330 X410.746 Z-11.494 F2388.4
N335 X410.724 Y207.616 Z-11.585
N340 X410.688 Y207.613 Z-11.672
N345 X410.639 Y207.61 Z-11.753
N350 X410.578 Y207.606 Z-11.824
N355 X410.507 Y207.602 Z-11.885
N360 X410.427 Y207.597 Z-11.935
N365 X410.34 Y207.592 Z-11.971
N370 X410.248 Y207.586 Z-11.993
N375 X410.155 Y207.58 Z-12
N380 X409.556 Y207.543
N385 G3 X408.994 Y206.907 I0.037 J-0.599
N390 G2 X409 Y206.721 I-2.994 J-0.186 F1500
N395 G1 Y75.279
N400 G2 X408.121 Y73.157 I-3
N405 G3 Y73.121 I0.018 J-0.018
N410 X408.157 I0.018 J0.018
N415 G2 X410.279 Y74 I2.122 J-2.121
N420 G1 X416.721
N425 G2 X418.843 Y73.121 J-3
N430 G3 X418.879 Y73.157 I0.018 J0.018
N435 G2 X418 Y75.279 I2.121 J2.122
N440 G1 Y206.721
N445 G2 X418.879 Y208.843 I3
N450 G3 X418.843 Y208.879 I-0.018 J0.018
N455 G2 X416.721 Y208 I-2.122 J2.121
N460 G1 X410.279
N465 G2 X408.157 Y208.879 J3
N470 G3 X408.121 Y208.843 I-0.018 J-0.018
N475 G2 X408.994 Y206.907 I-2.121 J-2.122
N480 G3 X409.63 Y206.345 I0.599 J0.037 F2388.4
N485 G1 X410.229 Y206.382
N490 X410.323 Y206.388 Z-11.993
N495 X410.414 Y206.394 Z-11.971
N500 X410.501 Y206.399 Z-11.935
N505 X410.581 Y206.404 Z-11.885
N510 X410.653 Y206.409 Z-11.824
N515 X410.714 Y206.413 Z-11.753
N520 X410.763 Y206.416 Z-11.672
N525 X410.799 Y206.418 Z-11.585
N530 X410.821 Y206.419 Z-11.494
N535 X410.828 Y206.42 Z-11.4
N540 G0 Z5
N545 X410.754 Y207.617
N550 G1 Z-5 F796.1
N555 Z-16.411
N560 X410.746 Z-16.504 F2388.4
N565 X410.724 Y207.616 Z-16.596
N570 X410.688 Y207.613 Z-16.683
N575 X410.639 Y207.61 Z-16.763
N580 X410.578 Y207.606 Z-16.835
N585 X410.507 Y207.602 Z-16.896
N590 X410.427 Y207.597 Z-16.945
N595 X410.34 Y207.592 Z-16.981
N600 X410.248 Y207.586 Z-17.003
N605 X410.155 Y207.58 Z-17.01
N610 X409.556 Y207.543
N615 G3 X408.994 Y206.907 I0.037 J-0.599
N620 G2 X409 Y206.721 I-2.994 J-0.186 F1500
N625 G1 Y181.861
N630 Z-15.01
N635 Y165.861
N640 Z-17.01 F796.1
N645 Y116.139 F1500
N650 Z-15.01
N655 Y100.139
N660 Z-17.01 F796.1
N665 Y75.279 F1500
N670 G2 X408.121 Y73.157 I-3
N675 G3 Y73.121 I0.018 J-0.018
N680 X408.157 I0.018 J0.018
N685 G2 X410.279 Y74 I2.122 J-2.121
N690 G1 X416.721
N695 G2 X418.843 Y73.121 J-3
N700 G3 X418.879 Y73.157 I0.018 J0.018
N705 G2 X418 Y75.279 I2.121 J2.122
N710 G1 Y100.139
N715 Z-15.01
N720 Y116.139
N725 Z-17.01 F796.1
N730 Y165.861 F1500
N735 Z-15.01
N740 Y181.861
N745 Z-17.01 F796.1
N750 Y206.721 F1500
N755 G2 X418.879 Y208.843 I3
N760 G3 X418.843 Y208.879 I-0.018 J0.018
N765 G2 X416.721 Y208 I-2.122 J2.121
N770 G1 X410.279
N775 G2 X408.157 Y208.879 J3
N780 G3 X408.121 Y208.843 I-0.018 J-0.018
N785 G2 X408.994 Y206.907 I-2.121 J-2.122
N790 G3 X409.63 Y206.345 I0.599 J0.037 F2388.4
N795 G1 X410.229 Y206.382
N800 X410.323 Y206.388 Z-17.003
N805 X410.414 Y206.394 Z-16.981
N810 X410.501 Y206.399 Z-16.945
N815 X410.581 Y206.404 Z-16.896
N820 X410.653 Y206.409 Z-16.835
N825 X410.714 Y206.413 Z-16.763
N830 X410.763 Y206.416 Z-16.683
N835 X410.799 Y206.418 Z-16.596
N840 X410.821 Y206.419 Z-16.504
N845 X410.828 Y206.42 Z-16.411
N850 G0 Z7
N855 X550.754 Y207.617
N860 G1 Z-5.4 F796.1
N865 X550.746 Z-5.494 F2388.4
N870 X550.724 Y207.616 Z-5.585
N875 X550.688 Y207.613 Z-5.672
N880 X550.639 Y207.61 Z-5.753
N885 X550.578 Y207.606 Z-5.824
N890 X550.507 Y207.602 Z-5.885
N895 X550.427 Y207.597 Z-5.935
N900 X550.34 Y207.592 Z-5.971
N905 X550.248 Y207.586 Z-5.993
N910 X550.155 Y207.58 Z-6
N915 X549.556 Y207.543
N920 G3 X548.994 Y206.907 I0.037 J-0.599
N925 G2 X549 Y206.721 I-2.994 J-0.186 F1500
N930 G1 Y75.279
N935 G2 X548.121 Y73.157 I-3
N940 G3 Y73.121 I0.018 J-0.018
N945 X548.157 I0.018 J0.018
N950 G2 X550.279 Y74 I2.122 J-2.121
N955 G1 X556.721
N960 G2 X558.843 Y73.121 J-3
N965 G3 X558.879 I0.018 J0.018
N970 Y73.157 I-0.018 J0.018
N975 G2 X558 Y75.279 I2.121 J2.122
N980 G1 Y206.721
N985 G2 X558.879 Y208.843 I3
N990 G3 Y208.879 I-0.018 J0.018
N995 X558.843 I-0.018 J-0.018
N1000 G2 X556.721 Y208 I-2.122 J2.121
N1005 G1 X550.279
N1010 G2 X548.157 Y208.879 J3
N1015 G3 X548.121 I-0.018 J-0.018
N1020 Y208.843 I0.018 J-0.018
N1025 G2 X548.994 Y206.907 I-2.121 J-2.122
N1030 G3 X549.63 Y206.345 I0.599 J0.037 F2388.4
N1035 G1 X550.229 Y206.382
N1040 X550.323 Y206.388 Z-5.993
N1045 X550.414 Y206.394 Z-5.971
N1050 X550.501 Y206.399 Z-5.935
N1055 X550.581 Y206.404 Z-5.885
N1060 X550.653 Y206.409 Z-5.824
N1065 X550.714 Y206.413 Z-5.753
N1070 X550.763 Y206.416 Z-5.672
N1075 X550.799 Y206.418 Z-5.585
N1080 X550.821 Y206.419 Z-5.494
N1085 X550.828 Y206.42 Z-5.4
N1090 G0 Z5
N1095 X550.754 Y207.617
N1100 G1 Z1 F796.1
N1105 Z-11.4
N1110 X550.746 Z-11.494 F2388.4
N1115 X550.724 Y207.616 Z-11.585
N1120 X550.688 Y207.613 Z-11.672
N1125 X550.639 Y207.61 Z-11.753
N1130 X550.578 Y207.606 Z-11.824
N1135 X550.507 Y207.602 Z-11.885
N1140 X550.427 Y207.597 Z-11.935
N1145 X550.34 Y207.592 Z-11.971
N1150 X550.248 Y207.586 Z-11.993
N1155 X550.155 Y207.58 Z-12
N1160 X549.556 Y207.543
N1165 G3 X548.994 Y206.907 I0.037 J-0.599
N1170 G2 X549 Y206.721 I-2.994 J-0.186 F1500
N1175 G1 Y75.279
N1180 G2 X548.121 Y73.157 I-3
N1185 G3 Y73.121 I0.018 J-0.018
N1190 X548.157 I0.018 J0.018
N1195 G2 X550.279 Y74 I2.122 J-2.121
N1200 G1 X556.721
N1205 G2 X558.843 Y73.121 J-3
N1210 G3 X558.879 I0.018 J0.018
N1215 Y73.157 I-0.018 J0.018
N1220 G2 X558 Y75.279 I2.121 J2.122
N1225 G1 Y206.721
N1230 G2 X558.879 Y208.843 I3
N1235 G3 Y208.879 I-0.018 J0.018
N1240 X558.843 I-0.018 J-0.018
N1245 G2 X556.721 Y208 I-2.122 J2.121
N1250 G1 X550.279
N1255 G2 X548.157 Y208.879 J3
N1260 G3 X548.121 I-0.018 J-0.018
N1265 Y208.843 I0.018 J-0.018
N1270 G2 X548.994 Y206.907 I-2.121 J-2.122
N1275 G3 X549.63 Y206.345 I0.599 J0.037 F2388.4
N1280 G1 X550.229 Y206.382
N1285 X550.323 Y206.388 Z-11.993
N1290 X550.414 Y206.394 Z-11.971
N1295 X550.501 Y206.399 Z-11.935
N1300 X550.581 Y206.404 Z-11.885
N1305 X550.653 Y206.409 Z-11.824
N1310 X550.714 Y206.413 Z-11.753
N1315 X550.763 Y206.416 Z-11.672
N1320 X550.799 Y206.418 Z-11.585
N1325 X550.821 Y206.419 Z-11.494
N1330 X550.828 Y206.42 Z-11.4
N1335 G0 Z5
N1340 X550.754 Y207.617
N1345 G1 Z-5 F796.1
N1350 Z-16.411
N1355 X550.746 Z-16.504 F2388.4
N1360 X550.724 Y207.616 Z-16.596
N1365 X550.688 Y207.613 Z-16.683
N1370 X550.639 Y207.61 Z-16.763
N1375 X550.578 Y207.606 Z-16.835
N1380 X550.507 Y207.602 Z-16.896
N1385 X550.427 Y207.597 Z-16.945
N1390 X550.34 Y207.592 Z-16.981
N1395 X550.248 Y207.586 Z-17.003
N1400 X550.155 Y207.58 Z-17.01
N1405 X549.556 Y207.543
N1410 G3 X548.994 Y206.907 I0.037 J-0.599
N1415 G2 X549 Y206.721 I-2.994 J-0.186 F1500
N1420 G1 Y181.861
N1425 Z-15.01
N1430 Y165.861
N1435 Z-17.01 F796.1
N1440 Y116.139 F1500
N1445 Z-15.01
N1450 Y100.139
N1455 Z-17.01 F796.1
N1460 Y75.279 F1500
N1465 G2 X548.121 Y73.157 I-3
N1470 G3 Y73.121 I0.018 J-0.018
N1475 X548.157 I0.018 J0.018
N1480 G2 X550.279 Y74 I2.122 J-2.121
N1485 G1 X556.721
N1490 G2 X558.843 Y73.121 J-3
N1495 G3 X558.879 I0.018 J0.018
N1500 Y73.157 I-0.018 J0.018
N1505 G2 X558 Y75.279 I2.121 J2.122
N1510 G1 Y100.139
N1515 Z-15.01
N1520 Y116.139
N1525 Z-17.01 F796.1
N1530 Y165.861 F1500
N1535 Z-15.01
N1540 Y181.861
N1545 Z-17.01 F796.1
N1550 Y206.721 F1500
N1555 G2 X558.879 Y208.843 I3
N1560 G3 Y208.879 I-0.018 J0.018
N1565 X558.843 I-0.018 J-0.018
N1570 G2 X556.721 Y208 I-2.122 J2.121
N1575 G1 X550.279
N1580 G2 X548.157 Y208.879 J3
N1585 G3 X548.121 I-0.018 J-0.018
N1590 Y208.843 I0.018 J-0.018
N1595 G2 X548.994 Y206.907 I-2.121 J-2.122
N1600 G3 X549.63 Y206.345 I0.599 J0.037 F2388.4
N1605 G1 X550.229 Y206.382
N1610 X550.323 Y206.388 Z-17.003
N1615 X550.414 Y206.394 Z-16.981
N1620 X550.501 Y206.399 Z-16.945
N1625 X550.581 Y206.404 Z-16.896
N1630 X550.653 Y206.409 Z-16.835
N1635 X550.714 Y206.413 Z-16.763
N1640 X550.763 Y206.416 Z-16.683
N1645 X550.799 Y206.418 Z-16.596
N1650 X550.821 Y206.419 Z-16.504
N1655 X550.828 Y206.42 Z-16.411
N1660 G0 Z7
N1665 X192.617 Y206.246
N1670 G1 Z-5.4 F796.1
N1675 Y206.254 Z-5.494 F2388.4
N1680 X192.616 Y206.276 Z-5.585
N1685 X192.613 Y206.312 Z-5.672
N1690 X192.61 Y206.361 Z-5.753
N1695 X192.606 Y206.422 Z-5.824
N1700 X192.602 Y206.493 Z-5.885
N1705 X192.597 Y206.573 Z-5.935
N1710 X192.592 Y206.66 Z-5.971
N1715 X192.586 Y206.752 Z-5.993
N1720 X192.58 Y206.845 Z-6
N1725 X192.543 Y207.444
N1730 G3 X191.907 Y208.006 I-0.599 J-0.037
N1735 G2 X191.721 Y208 I-0.186 J2.994 F1500
N1740 G1 X185.279
N1745 G2 X183.157 Y208.879 J3
N1750 G3 X183.121 Y208.843 I-0.018 J-0.018
N1755 G2 X184 Y206.721 I-2.121 J-2.122
N1760 G1 Y75.279
N1765 G2 X183.121 Y73.157 I-3
N1770 G3 Y73.121 I0.018 J-0.018
N1775 X183.157 I0.018 J0.018
N1780 G2 X185.279 Y74 I2.122 J-2.121
N1785 G1 X191.721
N1790 G2 X193.842 Y73.121 J-3
N1795 G3 X193.879 I0.018 J0.018
N1800 Y73.157 I-0.018 J0.018
N1805 G2 X193 Y75.279 I2.121 J2.122
N1810 G1 Y206.721
N1815 G2 X193.879 Y208.843 I3
N1820 G3 X193.843 Y208.879 I-0.018 J0.018
N1825 G2 X191.907 Y208.006 I-2.122 J2.121
N1830 G3 X191.345 Y207.37 I0.037 J-0.599 F2388.4
N1835 G1 X191.382 Y206.771
N1840 X191.388 Y206.677 Z-5.993
N1845 X191.394 Y206.586 Z-5.971
N1850 X191.399 Y206.499 Z-5.935
N1855 X191.404 Y206.419 Z-5.885
N1860 X191.409 Y206.347 Z-5.824
N1865 X191.413 Y206.286 Z-5.753
N1870 X191.416 Y206.237 Z-5.672
N1875 X191.418 Y206.201 Z-5.585
N1880 X191.419 Y206.179 Z-5.494
N1885 X191.42 Y206.172 Z-5.4
N1890 G0 Z5
N1895 X192.617 Y206.246
N1900 G1 Z1 F796.1
N1905 Z-11.4
N1910 Y206.254 Z-11.494 F2388.4
N1915 X192.616 Y206.276 Z-11.585
N1920 X192.613 Y206.312 Z-11.672
N1925 X192.61 Y206.361 Z-11.753
N1930 X192.606 Y206.422 Z-11.824
N1935 X192.602 Y206.493 Z-11.885
N1940 X192.597 Y206.573 Z-11.935
N1945 X192.592 Y206.66 Z-11.971
N1950 X192.586 Y206.752 Z-11.993
N1955 X192.58 Y206.845 Z-12
N1960 X192.543 Y207.444
N1965 G3 X191.907 Y208.006 I-0.599 J-0.037
N1970 G2 X191.721 Y208 I-0.186 J2.994 F1500
N1975 G1 X185.279
N1980 G2 X183.157 Y208.879 J3
N1985 G3 X183.121 Y208.843 I-0.018 J-0.018
N1990 G2 X184 Y206.721 I-2.121 J-2.122
N1995 G1 Y75.279
N2000 G2 X183.121 Y73.157 I-3
N2005 G3 Y73.121 I0.018 J-0.018
N2010 X183.157 I0.018 J0.018
N2015 G2 X185.279 Y74 I2.122 J-2.121
N2020 G1 X191.721
N2025 G2 X193.842 Y73.121 J-3
N2030 G3 X193.879 I0.018 J0.018
N2035 Y73.157 I-0.018 J0.018
N2040 G2 X193 Y75.279 I2.121 J2.122
N2045 G1 Y206.721
N2050 G2 X193.879 Y208.843 I3
N2055 G3 X193.843 Y208.879 I-0.018 J0.018
N2060 G2 X191.907 Y208.006 I-2.122 J2.121
N2065 G3 X191.345 Y207.37 I0.037 J-0.599 F2388.4
N2070 G1 X191.382 Y206.771
N2075 X191.388 Y206.677 Z-11.993
N2080 X191.394 Y206.586 Z-11.971
N2085 X191.399 Y206.499 Z-11.935
N2090 X191.404 Y206.419 Z-11.885
N2095 X191.409 Y206.347 Z-11.824
N2100 X191.413 Y206.286 Z-11.753
N2105 X191.416 Y206.237 Z-11.672
N2110 X191.418 Y206.201 Z-11.585
N2115 X191.419 Y206.179 Z-11.494
N2120 X191.42 Y206.172 Z-11.4
N2125 G0 Z5
N2130 X192.617 Y206.246
N2135 G1 Z-5 F796.1
N2140 Z-16.411
N2145 Y206.254 Z-16.504 F2388.4
N2150 X192.616 Y206.276 Z-16.596
N2155 X192.613 Y206.312 Z-16.683
N2160 X192.61 Y206.361 Z-16.763
N2165 X192.606 Y206.422 Z-16.835
N2170 X192.602 Y206.493 Z-16.896
N2175 X192.597 Y206.573 Z-16.945
N2180 X192.592 Y206.66 Z-16.981
N2185 X192.586 Y206.752 Z-17.003
N2190 X192.58 Y206.845 Z-17.01
N2195 X192.543 Y207.444
N2200 G3 X191.907 Y208.006 I-0.599 J-0.037
N2205 G2 X191.721 Y208 I-0.186 J2.994 F1500
N2210 G1 X185.279
N2215 G2 X183.157 Y208.879 J3
N2220 G3 X183.121 Y208.843 I-0.018 J-0.018
N2225 G2 X184 Y206.721 I-2.121 J-2.122
N2230 G1 Y181.861
N2235 Z-15.01
N2240 Y165.861
N2245 Z-17.01 F796.1
N2250 Y116.139 F1500
N2255 Z-15.01
N2260 Y100.139
N2265 Z-17.01 F796.1
N2270 Y75.279 F1500
N2275 G2 X183.121 Y73.157 I-3
N2280 G3 Y73.121 I0.018 J-0.018
N2285 X183.157 I0.018 J0.018
N2290 G2 X185.279 Y74 I2.122 J-2.121
N2295 G1 X191.721
N2300 G2 X193.842 Y73.121 J-3
N2305 G3 X193.879 I0.018 J0.018
N2310 Y73.157 I-0.018 J0.018
N2315 G2 X193 Y75.279 I2.121 J2.122
N2320 G1 Y100.139
N2325 Z-15.01
N2330 Y116.139
N2335 Z-17.01 F796.1
N2340 Y165.861 F1500
N2345 Z-15.01
N2350 Y181.861
N2355 Z-17.01 F796.1
N2360 Y206.721 F1500
N2365 G2 X193.879 Y208.843 I3
N2370 G3 X193.843 Y208.879 I-0.018 J0.018
N2375 G2 X191.907 Y208.006 I-2.122 J2.121
N2380 G3 X191.345 Y207.37 I0.037 J-0.599 F2388.4
N2385 G1 X191.382 Y206.771
N2390 X191.388 Y206.677 Z-17.003
N2395 X191.394 Y206.586 Z-16.981
N2400 X191.399 Y206.499 Z-16.945
N2405 X191.404 Y206.419 Z-16.896
N2410 X191.409 Y206.347 Z-16.835
N2415 X191.413 Y206.286 Z-16.763
N2420 X191.416 Y206.237 Z-16.683
N2425 X191.418 Y206.201 Z-16.596
N2430 X191.419 Y206.179 Z-16.504
N2435 X191.42 Y206.172 Z-16.411
N2440 G0 Z7
N2445 X52.616 Y206.246
N2450 G1 Z-5.4 F796.1
N2455 Y206.254 Z-5.494 F2388.4
N2460 X52.615 Y206.275 Z-5.585
N2465 X52.612 Y206.311 Z-5.672
N2470 X52.609 Y206.361 Z-5.753
N2475 X52.606 Y206.422 Z-5.824
N2480 X52.601 Y206.493 Z-5.885
N2485 X52.596 Y206.573 Z-5.935
N2490 X52.591 Y206.66 Z-5.971
N2495 X52.585 Y206.751 Z-5.993
N2500 X52.579 Y206.845 Z-6
N2505 X52.542 Y207.444
N2510 G3 X51.907 Y208.006 I-0.599 J-0.037
N2515 G2 X51.721 Y208 I-0.185 J2.994 F1500
N2520 G1 X45.279
N2525 G2 X43.157 Y208.879 J3
N2530 G3 X43.121 I-0.018 J-0.018
N2535 Y208.843 I0.018 J-0.018
N2540 G2 X44 Y206.721 I-2.121 J-2.122
N2545 G1 Y75.279
N2550 G2 X43.121 Y73.157 I-3
N2555 G3 Y73.121 I0.018 J-0.018
N2560 X43.157 I0.018 J0.018
N2565 G2 X45.279 Y74 I2.121 J-2.121
N2570 G1 X51.721
N2575 G2 X53.843 Y73.121 J-3
N2580 G3 X53.879 I0.018 J0.018
N2585 Y73.157 I-0.018 J0.018
N2590 G2 X53 Y75.279 I2.121 J2.121
N2595 G1 Y206.721
N2600 G2 X53.879 Y208.843 I3
N2605 G3 Y208.879 I-0.018 J0.018
N2610 X53.843 I-0.018 J-0.018
N2615 G2 X51.907 Y208.006 I-2.122 J2.121
N2620 G3 X51.345 Y207.37 I0.037 J-0.599 F2388.4
N2625 G1 X51.382 Y206.771
N2630 X51.388 Y206.677 Z-5.993
N2635 X51.393 Y206.586 Z-5.971
N2640 X51.399 Y206.499 Z-5.935
N2645 X51.403 Y206.419 Z-5.885
N2650 X51.408 Y206.348 Z-5.824
N2655 X51.412 Y206.286 Z-5.753
N2660 X51.415 Y206.237 Z-5.672
N2665 X51.417 Y206.201 Z-5.585
N2670 X51.418 Y206.179 Z-5.494
N2675 X51.419 Y206.172 Z-5.4
N2680 G0 Z5
N2685 X52.616 Y206.246
N2690 G1 Z1 F796.1
N2695 Z-11.4
N2700 Y206.254 Z-11.494 F2388.4
N2705 X52.615 Y206.275 Z-11.585
N2710 X52.612 Y206.311 Z-11.672
N2715 X52.609 Y206.361 Z-11.753
N2720 X52.606 Y206.422 Z-11.824
N2725 X52.601 Y206.493 Z-11.885
N2730 X52.596 Y206.573 Z-11.935
N2735 X52.591 Y206.66 Z-11.971
N2740 X52.585 Y206.751 Z-11.993
N2745 X52.579 Y206.845 Z-12
N2750 X52.542 Y207.444
N2755 G3 X51.907 Y208.006 I-0.599 J-0.037
N2760 G2 X51.721 Y208 I-0.185 J2.994 F1500
N2765 G1 X45.279
N2770 G2 X43.157 Y208.879 J3
N2775 G3 X43.121 I-0.018 J-0.018
N2780 Y208.843 I0.018 J-0.018
N2785 G2 X44 Y206.721 I-2.121 J-2.122
N2790 G1 Y75.279
N2795 G2 X43.121 Y73.157 I-3
N2800 G3 Y73.121 I0.018 J-0.018
N2805 X43.157 I0.018 J0.018
N2810 G2 X45.279 Y74 I2.121 J-2.121
N2815 G1 X51.721
N2820 G2 X53.843 Y73.121 J-3
N2825 G3 X53.879 I0.018 J0.018
N2830 Y73.157 I-0.018 J0.018
N2835 G2 X53 Y75.279 I2.121 J2.121
N2840 G1 Y206.721
N2845 G2 X53.879 Y208.843 I3
N2850 G3 Y208.879 I-0.018 J0.018
N2855 X53.843 I-0.018 J-0.018
N2860 G2 X51.907 Y208.006 I-2.122 J2.121
N2865 G3 X51.345 Y207.37 I0.037 J-0.599 F2388.4
N2870 G1 X51.382 Y206.771
N2875 X51.388 Y206.677 Z-11.993
N2880 X51.393 Y206.586 Z-11.971
N2885 X51.399 Y206.499 Z-11.935
N2890 X51.403 Y206.419 Z-11.885
N2895 X51.408 Y206.348 Z-11.824
N2900 X51.412 Y206.286 Z-11.753
N2905 X51.415 Y206.237 Z-11.672
N2910 X51.417 Y206.201 Z-11.585
N2915 X51.418 Y206.179 Z-11.494
N2920 X51.419 Y206.172 Z-11.4
N2925 G0 Z5
N2930 X52.616 Y206.246
N2935 G1 Z-5 F796.1
N2940 Z-16.411
N2945 Y206.254 Z-16.504 F2388.4
N2950 X52.615 Y206.275 Z-16.596
N2955 X52.612 Y206.311 Z-16.683
N2960 X52.609 Y206.361 Z-16.763
N2965 X52.606 Y206.422 Z-16.835
N2970 X52.601 Y206.493 Z-16.896
N2975 X52.596 Y206.573 Z-16.945
N2980 X52.591 Y206.66 Z-16.981
N2985 X52.585 Y206.751 Z-17.003
N2990 X52.579 Y206.845 Z-17.01
N2995 X52.542 Y207.444
N3000 G3 X51.907 Y208.006 I-0.599 J-0.037
N3005 G2 X51.721 Y208 I-0.185 J2.994 F1500
N3010 G1 X45.279
N3015 G2 X43.157 Y208.879 J3
N3020 G3 X43.121 I-0.018 J-0.018
N3025 Y208.843 I0.018 J-0.018
N3030 G2 X44 Y206.721 I-2.121 J-2.122
N3035 G1 Y181.861
N3040 Z-15.01
N3045 Y165.861
N3050 Z-17.01 F796.1
N3055 Y116.139 F1500
N3060 Z-15.01
N3065 Y100.139
N3070 Z-17.01 F796.1
N3075 Y75.279 F1500
N3080 G2 X43.121 Y73.157 I-3
N3085 G3 Y73.121 I0.018 J-0.018
N3090 X43.157 I0.018 J0.018
N3095 G2 X45.279 Y74 I2.121 J-2.121
N3100 G1 X51.721
N3105 G2 X53.843 Y73.121 J-3
N3110 G3 X53.879 I0.018 J0.018
N3115 Y73.157 I-0.018 J0.018
N3120 G2 X53 Y75.279 I2.121 J2.121
N3125 G1 Y100.139
N3130 Z-15.01
N3135 Y116.139
N3140 Z-17.01 F796.1
N3145 Y165.861 F1500
N3150 Z-15.01
N3155 Y181.861
N3160 Z-17.01 F796.1
N3165 Y206.721 F1500
N3170 G2 X53.879 Y208.843 I3
N3175 G3 Y208.879 I-0.018 J0.018
N3180 X53.843 I-0.018 J-0.018
N3185 G2 X51.907 Y208.006 I-2.122 J2.121
N3190 G3 X51.345 Y207.37 I0.037 J-0.599 F2388.4
N3195 G1 X51.382 Y206.771
N3200 X51.388 Y206.677 Z-17.003
N3205 X51.393 Y206.586 Z-16.981
N3210 X51.399 Y206.499 Z-16.945
N3215 X51.403 Y206.419 Z-16.896
N3220 X51.408 Y206.348 Z-16.835
N3225 X51.412 Y206.286 Z-16.763
N3230 X51.415 Y206.237 Z-16.683
N3235 X51.417 Y206.201 Z-16.596
N3240 X51.418 Y206.179 Z-16.504
N3245 X51.419 Y206.172 Z-16.411
N3250 G0 Z15

(2D Contour6)
N3260 M9
N3265 X523.863 Y381.206
N3270 Z15
N3275 Z7
N3280 G1 Z-5.4 F796.1
N3285 Y381.213 Z-5.494 F2388.4
N3290 Y381.235 Z-5.585
N3295 Y381.271 Z-5.672
N3300 Y381.321 Z-5.753
N3305 Y381.382 Z-5.824
N3310 Y381.453 Z-5.885
N3315 Y381.534 Z-5.935
N3320 Y381.621 Z-5.971
N3325 Y381.712 Z-5.993
N3330 Y381.806 Z-6
N3335 Y382.406
N3340 G3 X523.263 Y383.006 I-0.6
N3345 G1 X523.262 F1500
N3350 G2 X521.141 Y383.885 J3
N3355 G3 X521.105 I-0.018 J-0.018
N3360 Y383.849 I0.018 J-0.018
N3365 G2 X521.984 Y381.727 I-2.121 J-2.122
N3370 G1 Y371.006
N3375 G2 X518.984 Y368.006 I-3
N3380 G1 X378.984
N3385 G2 X375.984 Y371.006 J3
N3390 G1 Y381.727
N3395 G2 X376.863 Y383.849 I3
N3400 G3 Y383.885 I-0.018 J0.018
N3405 X376.827 I-0.018 J-0.018
N3410 G2 X374.705 Y383.006 I-2.122 J2.121
N3415 G1 X313.657
N3420 G2 X311.987 Y388.498 J3
N3425 G1 X314.522 Y390.197
N3430 X317.163 Y392.012
N3435 X318.493 Y392.944
N3440 X319.821 Y393.888
N3445 X321.13 Y394.834
N3450 X322.411 Y395.775
N3455 X323.65 Y396.704
N3460 X324.849 Y397.622
N3465 X326.013 Y398.535
N3470 X327.141 Y399.442
N3475 X328.234 Y400.345
N3480 X329.288 Y401.242
N3485 X330.302 Y402.135
N3490 X331.28 Y403.025
N3495 X332.217 Y403.913
N3500 X333.113 Y404.795
N3505 X333.968 Y405.677
N3510 X334.783 Y406.556
N3515 X335.552 Y407.432
N3520 X336.281 Y408.308
N3525 X336.963 Y409.178
N3530 X337.592 Y410.034
N3535 X338.169 Y410.877
N3540 X338.699 Y411.71
N3545 X339.181 Y412.531
N3550 X339.618 Y413.339
N3555 X340.011 Y414.138
N3560 X340.362 Y414.929
N3565 X340.674 Y415.713
N3570 X340.947 Y416.492
N3575 X341.185 Y417.269
N3580 X341.389 Y418.044
N3585 X341.559 Y418.817
N3590 X341.697 Y419.594
N3595 X341.804 Y420.376
N3600 X341.882 Y421.163
N3605 X341.93 Y421.958
N3610 X341.951 Y422.765
N3615 X341.944 Y423.582
N3620 X341.909 Y424.413
N3625 X341.85 Y425.257
N3630 X341.764 Y426.111
N3635 X341.655 Y426.977
N3640 X341.523 Y427.852
N3645 X341.37 Y428.739
N3650 X341.198 Y429.638
N3655 X341.006 Y430.55
N3660 X340.799 Y431.473
N3665 X340.575 Y432.407
N3670 X340.339 Y433.351
N3675 X339.826 Y435.293
N3680 X339.28 Y437.28
N3685 X338.708 Y439.336
N3690 G2 X338.705 Y439.346 I2.89 J0.804
N3695 G1 X338.122 Y441.47
N3700 G2 X338.114 Y441.501 I2.893 J0.794
N3705 G1 X337.54 Y443.685
N3710 G2 X337.531 Y443.719 I2.901 J0.763
N3715 G1 X337.252 Y444.833
N3720 G2 X337.245 Y444.861 I2.91 J0.729
N3725 G1 X336.974 Y445.989
N3730 G2 X336.966 Y446.022 I2.917 J0.701
N3735 G1 X336.705 Y447.164
N3740 G2 X336.697 Y447.202 I2.925 J0.668
N3745 G1 X336.449 Y448.357
N3750 G2 X336.441 Y448.395 I2.933 J0.63
N3755 G1 X336.206 Y449.563
N3760 G2 X336.196 Y449.613 I2.941 J0.592
N3765 G1 X335.979 Y450.794
N3770 G2 X335.971 Y450.84 I2.951 J0.542
N3775 G1 X335.771 Y452.034
N3780 G2 X335.763 Y452.09 I2.959 J0.496
N3785 G1 X335.583 Y453.296
N3790 G2 X335.575 Y453.355 I2.967 J0.44
N3795 G1 X335.419 Y454.572
N3800 G2 X335.412 Y454.633 I2.976 J0.381
N3805 G1 X335.28 Y455.862
N3810 G2 X335.274 Y455.929 I2.983 J0.32
N3815 G1 X335.169 Y457.17
N3820 G2 X335.164 Y457.241 I2.989 J0.253
N3825 G1 X335.088 Y458.491
N3830 G2 X335.084 Y458.564 I2.994 J0.182
N3835 G1 X335.038 Y459.826
N3840 G2 X335.036 Y459.904 I2.998 J0.109
N3845 G1 X335.023 Y461.174
N3850 G2 Y461.255 I3 J0.031
N3855 G1 X335.044 Y462.503
N3860 G2 X335.047 Y462.589 I3 J-0.05
N3865 G1 X335.102 Y463.802
N3870 G2 X335.107 Y463.884 I2.997 J-0.136
N3875 G1 X335.193 Y465.063
N3880 G2 X335.2 Y465.148 I2.992 J-0.218
N3885 G1 X335.316 Y466.291
N3890 G2 X335.327 Y466.38 I2.985 J-0.303
N3895 G1 X335.473 Y467.489
N3900 G2 X335.486 Y467.577 I2.974 J-0.392
N3905 G1 X335.66 Y468.65
N3910 G2 X335.675 Y468.738 I2.961 J-0.48
N3915 G1 X335.875 Y469.775
N3920 G2 X335.895 Y469.868 I2.946 J-0.568
N3925 G1 X336.121 Y470.869
N3930 G2 X336.144 Y470.963 I2.926 J-0.661
N3935 G1 X336.395 Y471.928
N3940 G2 X336.421 Y472.023 I2.903 J-0.755
N3945 G1 X336.695 Y472.95
N3950 G2 X336.724 Y473.043 I2.877 J-0.85
N3955 G1 X337.019 Y473.934
N3960 G2 X337.054 Y474.034 I2.848 J-0.943
N3965 G1 X337.371 Y474.889
N3970 G2 X337.411 Y474.99 I2.813 J-1.043
N3975 G1 X337.758 Y475.831
N3980 G2 X337.803 Y475.934 I2.773 J-1.144
N3985 G1 X338.182 Y476.763
N3990 G2 X338.237 Y476.877 I2.728 J-1.247
N3995 G1 X338.651 Y477.69
N4000 G2 X338.695 Y477.775 I2.673 J-1.361
N4005 G1 X338.915 Y478.175
N4010 G2 X338.947 Y478.232 I2.629 J-1.446
N4015 G1 X339.175 Y478.626
N4020 G2 X339.215 Y478.692 I2.597 J-1.503
N4025 G1 X339.453 Y479.08
N4030 G2 X339.491 Y479.14 I2.557 J-1.569
N4035 G1 X339.738 Y479.522
N4040 G2 X339.779 Y479.584 I2.519 J-1.629
N4045 G1 X340.035 Y479.959
N4050 G2 X340.079 Y480.021 I2.478 J-1.691
N4055 G1 X340.344 Y480.389
N4060 G2 X340.394 Y480.457 I2.434 J-1.753
N4065 G1 X340.669 Y480.817
N4070 G2 X340.721 Y480.884 I2.384 J-1.821
N4075 G1 X341.006 Y481.236
N4080 G2 X341.06 Y481.3 I2.332 J-1.888
N4085 G1 X341.354 Y481.643
N4090 G2 X341.417 Y481.714 I2.278 J-1.952
N4095 G1 X341.722 Y482.048
N4100 G2 X341.783 Y482.113 I2.215 J-2.023
N4105 G1 X342.096 Y482.436
N4110 G2 X342.162 Y482.503 I2.154 J-2.088
N4115 G1 X342.484 Y482.815
N4120 G2 X342.557 Y482.883 I2.088 J-2.155
N4125 G1 X342.889 Y483.184
N4130 G2 X342.964 Y483.25 I2.015 J-2.223
N4135 G1 X343.305 Y483.539
N4140 G2 X343.387 Y483.606 I1.94 J-2.289
N4145 G1 X343.737 Y483.882
N4150 G2 X343.818 Y483.943 I1.858 J-2.356
N4155 G1 X344.177 Y484.207
N4160 G2 X344.267 Y484.271 I1.777 J-2.417
N4165 G1 X344.636 Y484.522
N4170 G2 X344.732 Y484.585 I1.687 J-2.481
N4175 G1 X345.111 Y484.822
N4180 G2 X345.202 Y484.876 I1.591 J-2.544
N4185 G1 X345.59 Y485.1
N4190 G2 X345.69 Y485.155 I1.5 J-2.598
N4195 G1 X346.088 Y485.365
N4200 G2 X346.186 Y485.415 I1.4 J-2.653
N4205 G1 X346.593 Y485.611
N4210 G2 X346.7 Y485.66 I1.302 J-2.703
N4215 G1 X347.112 Y485.839
N4220 G2 X347.223 Y485.884 I1.195 J-2.752
N4225 G1 X347.641 Y486.046
N4230 G2 X347.744 Y486.084 I1.084 J-2.797
N4235 G1 X348.166 Y486.23
N4240 G2 X348.278 Y486.266 I0.981 J-2.835
N4245 G1 X348.704 Y486.395
N4250 G2 X348.806 Y486.424 I0.869 J-2.871
N4255 G1 X349.237 Y486.538
N4260 G2 X349.343 Y486.564 I0.767 J-2.9
N4265 G1 X349.777 Y486.662
N4270 G2 X349.881 Y486.684 I0.661 J-2.926
N4275 G1 X350.32 Y486.767
N4280 G2 X350.427 Y486.785 I0.557 J-2.948
N4285 G1 X350.869 Y486.852
N4290 G2 X350.965 Y486.865 I0.45 J-2.966
N4295 G1 X351.411 Y486.918
N4300 G2 X351.512 Y486.928 I0.354 J-2.979
N4305 G1 X351.961 Y486.966
N4310 G2 X352.062 Y486.973 I0.253 J-2.989
N4315 G1 X352.514 Y486.996
N4320 G2 X352.606 Y486.999 I0.152 J-2.996
N4325 G1 X353.058 Y487.008
N4330 G2 X353.145 Y487.009 I0.06 J-2.999
N4335 G1 X353.597 Y487.005
N4340 G2 X353.689 Y487.003 I-0.027 J-3
N4345 G1 X354.142 Y486.985
N4350 G2 X354.222 Y486.98 I-0.119 J-2.998
N4355 G1 X354.673 Y486.95
N4360 G2 X354.752 Y486.944 I-0.199 J-2.993
N4365 G1 X355.203 Y486.902
N4370 G2 X355.282 Y486.894 I-0.278 J-2.987
N4375 G1 X355.732 Y486.84
N4380 G2 X355.806 Y486.83 I-0.357 J-2.979
N4385 G1 X356.254 Y486.765
N4390 G2 X356.326 Y486.754 I-0.431 J-2.969
N4395 G1 X356.773 Y486.678
N4400 G2 X356.869 Y486.66 I-0.503 J-2.958
N4405 G1 X357.757 Y486.479
N4410 G2 X357.877 Y486.452 I-0.599 J-2.94
N4415 G1 X358.756 Y486.235
N4420 G2 X358.865 Y486.205 I-0.719 J-2.913
N4425 G1 X359.739 Y485.954
N4430 G2 X359.84 Y485.924 I-0.828 J-2.883
N4435 G1 X360.709 Y485.641
N4440 G2 X360.799 Y485.61 I-0.929 J-2.853
N4445 G1 X361.66 Y485.299
N4450 G2 X361.743 Y485.267 I-1.019 J-2.822
N4455 G1 X362.596 Y484.93
N4460 G2 X362.672 Y484.899 I-1.102 J-2.79
N4465 G1 X363.515 Y484.539
N4470 G2 X363.583 Y484.509 I-1.178 J-2.759
N4475 G1 X364.413 Y484.13
N4480 G2 X364.473 Y484.102 I-1.246 J-2.729
N4485 G1 X365.29 Y483.707
N4490 G2 X366.983 Y480.933 I-1.306 J-2.701
N4495 G1 X366.957 Y479.841
N4500 X366.942 Y478.761
N4505 X366.941 Y477.676
N4510 X366.953 Y476.585
N4515 X366.979 Y475.492
N4520 X367.019 Y474.398
N4525 X367.075 Y473.304
N4530 X367.147 Y472.212
N4535 X367.235 Y471.122
N4540 X367.341 Y470.037
N4545 X367.465 Y468.96
N4550 X367.609 Y467.887
N4555 X367.771 Y466.822
N4560 X367.953 Y465.768
N4565 X368.156 Y464.725
N4570 X368.379 Y463.694
N4575 X368.625 Y462.678
N4580 X368.893 Y461.676
N4585 X369.182 Y460.69
N4590 X369.498 Y459.717
N4595 X369.839 Y458.755
N4600 X370.205 Y457.813
N4605 X370.599 Y456.887
N4610 X371.021 Y455.979
N4615 X371.478 Y455.078
N4620 X371.706 Y454.655
N4625 X371.948 Y454.229
N4630 X372.2 Y453.802
N4635 X372.458 Y453.385
N4640 X372.722 Y452.975
N4645 X372.996 Y452.569
N4650 X373.274 Y452.173
N4655 X373.564 Y451.782
N4660 X373.862 Y451.394
N4665 X374.165 Y451.018
N4670 X374.474 Y450.651
N4675 X374.791 Y450.293
N4680 X375.116 Y449.942
N4685 X375.447 Y449.601
N4690 X375.785 Y449.268
N4695 X376.128 Y448.946
N4700 X376.479 Y448.632
N4705 X376.837 Y448.327
N4710 X377.199 Y448.033
N4715 X377.571 Y447.748
N4720 X377.951 Y447.47
N4725 X378.334 Y447.204
N4730 X378.726 Y446.948
N4735 X379.128 Y446.699
N4740 X379.535 Y446.461
N4745 X379.948 Y446.233
N4750 X380.366 Y446.016
N4755 X380.792 Y445.811
N4760 X381.223 Y445.614
N4765 X381.655 Y445.43
N4770 X382.094 Y445.257
N4775 X382.534 Y445.096
N4780 X382.98 Y444.946
N4785 X383.434 Y444.805
N4790 X383.888 Y444.676
N4795 X384.346 Y444.559
N4800 X384.804 Y444.453
N4805 X385.268 Y444.359
N4810 X385.735 Y444.274
N4815 X386.205 Y444.202
N4820 X386.677 Y444.141
N4825 X387.148 Y444.091
N4830 X387.622 Y444.053
N4835 X388.099 Y444.026
N4840 X388.575 Y444.011
N4845 X389.053 Y444.006
N4850 X389.527 Y444.013
N4855 X390 Y444.032
N4860 X390.477 Y444.063
N4865 X390.952 Y444.104
N4870 X391.426 Y444.157
N4875 X391.897 Y444.222
N4880 X392.365 Y444.297
N4885 X392.83 Y444.384
N4890 X393.297 Y444.483
N4895 X393.758 Y444.592
N4900 X394.216 Y444.714
N4905 X394.671 Y444.846
N4910 X395.119 Y444.988
N4915 X395.565 Y445.142
N4920 X396.001 Y445.306
N4925 X396.435 Y445.481
N4930 X396.866 Y445.668
N4935 X397.291 Y445.865
N4940 X397.71 Y446.072
N4945 X398.124 Y446.29
N4950 X398.532 Y446.518
N4955 X398.936 Y446.758
N4960 X399.332 Y447.006
N4965 X399.725 Y447.268
N4970 X400.112 Y447.539
N4975 X400.491 Y447.82
N4980 X400.866 Y448.112
N4985 X401.232 Y448.412
N4990 X401.592 Y448.724
N4995 X401.943 Y449.041
N5000 X402.286 Y449.369
N5005 X402.622 Y449.703
N5010 X402.949 Y450.046
N5015 X403.272 Y450.4
N5020 X403.585 Y450.76
N5025 X403.893 Y451.129
N5030 X404.192 Y451.504
N5035 X404.483 Y451.886
N5040 X404.767 Y452.278
N5045 X405.046 Y452.678
N5050 X405.317 Y453.086
N5055 X405.58 Y453.497
N5060 X405.837 Y453.918
N5065 X406.086 Y454.345
N5070 X406.329 Y454.78
N5075 X406.557 Y455.206
N5080 X407.009 Y456.11
N5085 X407.429 Y457.024
N5090 X407.819 Y457.955
N5095 X408.183 Y458.904
N5100 X408.521 Y459.87
N5105 X408.833 Y460.848
N5110 X409.12 Y461.838
N5115 X409.382 Y462.838
N5120 X409.622 Y463.847
N5125 X409.84 Y464.863
N5130 X410.037 Y465.893
N5135 X410.215 Y466.932
N5140 X410.372 Y467.983
N5145 X410.512 Y469.043
N5150 X410.633 Y470.109
N5155 X410.738 Y471.183
N5160 X410.825 Y472.259
N5165 X410.895 Y473.341
N5170 X410.95 Y474.425
N5175 X410.989 Y475.513
N5180 X411.015 Y476.599
N5185 X411.027 Y477.682
N5190 X411.025 Y478.763
N5195 X411.01 Y479.844
N5200 X410.985 Y480.936
N5205 G2 X412.828 Y483.774 I2.999 J0.07
N5210 G1 X413.587 Y484.091
N5215 G2 X413.642 Y484.113 I1.156 J-2.768
N5220 G1 X414.401 Y484.413
N5225 G2 X414.46 Y484.436 I1.102 J-2.79
N5230 G1 X415.218 Y484.717
N5235 G2 X415.279 Y484.739 I1.043 J-2.813
N5240 G1 X416.035 Y485.001
N5245 G2 X416.099 Y485.022 I0.982 J-2.835
N5250 G1 X416.852 Y485.264
N5255 G2 X416.929 Y485.288 I0.918 J-2.856
N5260 G1 X417.679 Y485.507
N5265 G2 X417.758 Y485.529 I0.841 J-2.88
N5270 G1 X418.504 Y485.725
N5275 G2 X418.588 Y485.745 I0.762 J-2.902
N5280 G1 X419.329 Y485.917
N5285 G2 X419.423 Y485.938 I0.678 J-2.922
N5290 G1 X420.159 Y486.084
N5295 G2 X420.26 Y486.102 I0.584 J-2.943
N5300 G1 X420.989 Y486.221
N5305 G2 X421.093 Y486.236 I0.483 J-2.961
N5310 G1 X421.816 Y486.328
N5315 G2 X421.932 Y486.34 I0.379 J-2.976
N5320 G1 X422.648 Y486.403
N5325 G2 X422.777 Y486.412 I0.263 J-2.988
N5330 G1 X423.494 Y486.444
N5335 G2 X423.632 Y486.447 I0.134 J-2.997
N5340 G1 X424.348 Y486.446
N5345 G2 X424.495 Y486.442 I-0.004 J-3
N5350 G1 X425.209 Y486.406
N5355 G2 X425.365 Y486.394 I-0.151 J-2.996
N5360 G1 X426.075 Y486.321
N5365 G2 X426.205 Y486.305 I-0.307 J-2.984
N5370 G1 X426.558 Y486.253
N5375 G2 X426.641 Y486.24 I-0.437 J-2.968
N5380 G1 X426.993 Y486.178
N5385 G2 X427.086 Y486.16 I-0.52 J-2.955
N5390 G1 X427.436 Y486.087
N5395 G2 X427.527 Y486.066 I-0.613 J-2.937
N5400 G1 X427.875 Y485.982
N5405 G2 X427.965 Y485.959 I-0.704 J-2.916
N5410 G1 X428.311 Y485.864
N5415 G2 X428.408 Y485.836 I-0.794 J-2.893
N5420 G1 X428.752 Y485.729
N5425 G2 X428.845 Y485.698 I-0.891 J-2.865
N5430 G1 X429.182 Y485.581
N5435 G2 X429.28 Y485.545 I-0.984 J-2.834
N5440 G1 X429.611 Y485.417
N5445 G2 X429.698 Y485.382 I-1.082 J-2.798
N5450 G1 X430.024 Y485.244
N5455 G2 X430.121 Y485.201 I-1.169 J-2.763
N5460 G1 X430.441 Y485.052
N5465 G2 X430.53 Y485.008 I-1.266 J-2.72
N5470 G1 X430.844 Y484.849
N5475 G2 X430.932 Y484.803 I-1.355 J-2.676
N5480 G1 X431.24 Y484.634
N5485 G2 X431.325 Y484.585 I-1.443 J-2.63
N5490 G1 X431.629 Y484.405
N5495 G2 X431.718 Y484.351 I-1.528 J-2.581
N5500 G1 X432.015 Y484.161
N5505 G2 X432.095 Y484.108 I-1.617 J-2.527
N5510 G1 X432.388 Y483.907
N5515 G2 X432.464 Y483.853 I-1.697 J-2.474
N5520 G1 X432.752 Y483.642
N5525 G2 X432.829 Y483.583 I-1.773 J-2.42
N5530 G1 X433.112 Y483.362
N5535 G2 X433.177 Y483.309 I-1.851 J-2.361
N5540 G1 X433.454 Y483.079
N5545 G2 X433.531 Y483.014 I-1.916 J-2.308
N5550 G1 X433.8 Y482.775
N5555 G2 X433.856 Y482.723 I-1.993 J-2.243
N5560 G1 X434.119 Y482.477
N5565 G2 X434.208 Y482.391 I-2.049 J-2.191
N5570 G1 X434.712 Y481.879
N5575 G2 X434.817 Y481.767 I-2.138 J-2.105
N5580 G1 X435.295 Y481.229
N5585 G2 X435.386 Y481.12 I-2.243 J-1.993
N5590 G1 X435.838 Y480.56
N5595 G2 X435.913 Y480.464 I-2.334 J-1.884
N5600 G1 X436.342 Y479.886
N5605 G2 X436.408 Y479.793 I-2.409 J-1.788
N5610 G1 X436.814 Y479.2
N5615 G2 X436.871 Y479.114 I-2.475 J-1.695
N5620 G1 X437.258 Y478.505
N5625 G2 X437.305 Y478.428 I-2.532 J-1.609
N5630 G1 X437.681 Y477.795
N5635 G2 X437.723 Y477.723 I-2.579 J-1.532
N5640 G1 X438.089 Y477.066
N5645 G2 X438.124 Y477 I-2.621 J-1.46
N5650 G1 X438.482 Y476.318
N5655 G2 X438.515 Y476.255 I-2.656 J-1.394
N5660 G1 X438.864 Y475.55
N5665 G2 X438.889 Y475.498 I-2.689 J-1.331
N5670 G1 X439.232 Y474.77
N5675 G2 X439.255 Y474.719 I-2.714 J-1.279
N5680 G1 X439.592 Y473.968
N5685 G2 X439.61 Y473.927 I-2.737 J-1.228
N5690 G1 X439.943 Y473.154
N5695 G2 X439.96 Y473.114 I-2.755 J-1.187
N5700 G1 X440.288 Y472.321
N5705 G2 X440.309 Y472.27 I-2.772 J-1.147
N5710 G1 X440.957 Y470.619
N5715 G2 X440.975 Y470.57 I-2.793 J-1.096
N5720 G1 X441.619 Y468.841
N5725 G2 X441.632 Y468.808 I-2.811 J-1.047
N5730 G1 X442.286 Y466.986
N5735 G2 X442.292 Y466.967 I-2.824 J-1.014
N5740 G1 X442.964 Y465.056
N5745 X442.967 Y465.049
N5750 X443.661 Y463.06
N5755 X444.382 Y461.007
N5760 X445.134 Y458.901
N5765 X445.924 Y456.753
N5770 X446.761 Y454.562
N5775 X447.193 Y453.464
N5780 X447.642 Y452.355
N5785 X448.103 Y451.24
N5790 X448.578 Y450.125
N5795 X449.069 Y449.006
N5800 X449.575 Y447.885
N5805 X450.097 Y446.766
N5810 X450.636 Y445.647
N5815 X451.193 Y444.53
N5820 X451.769 Y443.416
N5825 X452.362 Y442.306
N5830 X452.976 Y441.202
N5835 X453.609 Y440.105
N5840 X454.265 Y439.012
N5845 X454.943 Y437.928
N5850 X455.645 Y436.854
N5855 X456.37 Y435.794
N5860 X457.115 Y434.753
N5865 X457.881 Y433.734
N5870 X458.668 Y432.741
N5875 X459.476 Y431.777
N5880 X460.31 Y430.836
N5885 X460.725 Y430.39
N5890 X461.15 Y429.946
N5895 X461.577 Y429.514
N5900 X462.013 Y429.089
N5905 X462.45 Y428.677
N5910 X462.894 Y428.275
N5915 X463.347 Y427.88
N5920 X463.805 Y427.496
N5925 X464.268 Y427.123
N5930 X464.737 Y426.763
N5935 X465.211 Y426.414
N5940 X465.693 Y426.079
N5945 X466.178 Y425.757
N5950 X466.668 Y425.451
N5955 X467.168 Y425.156
N5960 X467.669 Y424.879
N5965 X468.172 Y424.618
N5970 X468.681 Y424.375
N5975 X469.199 Y424.145
N5980 X469.718 Y423.935
N5985 X470.239 Y423.744
N5990 X470.76 Y423.571
N5995 X471.284 Y423.418
N6000 X471.808 Y423.282
N6005 X472.334 Y423.167
N6010 X472.864 Y423.069
N6015 X473.396 Y422.99
N6020 X473.933 Y422.93
N6025 X474.474 Y422.888
N6030 X475.02 Y422.866
N6035 X475.571 Y422.861
N6040 X476.125 Y422.876
N6045 X476.68 Y422.91
N6050 X477.235 Y422.962
N6055 X477.79 Y423.033
N6060 X478.345 Y423.12
N6065 X478.899 Y423.224
N6070 X479.456 Y423.346
N6075 X480.012 Y423.482
N6080 X480.567 Y423.635
N6085 X481.123 Y423.803
N6090 X481.677 Y423.986
N6095 X482.233 Y424.183
N6100 X482.787 Y424.393
N6105 X483.339 Y424.615
N6110 X483.889 Y424.851
N6115 X484.441 Y425.099
N6120 X484.988 Y425.357
N6125 X485.528 Y425.623
N6130 X486.057 Y425.896
N6135 X487.138 Y426.485
N6140 X488.19 Y427.099
N6145 X489.22 Y427.736
N6150 X490.225 Y428.393
N6155 X491.205 Y429.063
N6160 X492.154 Y429.741
N6165 X493.071 Y430.421
N6170 X493.997 Y431.13
N6175 X494.955 Y431.89
N6180 X495.944 Y432.7
N6185 X496.964 Y433.565
N6190 X498.012 Y434.483
N6195 X499.087 Y435.458
N6200 X500.189 Y436.491
N6205 X501.317 Y437.585
N6210 X502.469 Y438.74
N6215 X503.642 Y439.96
N6220 X504.838 Y441.244
N6225 X506.054 Y442.596
N6230 X507.289 Y444.018
N6235 X508.543 Y445.511
N6240 X509.812 Y447.075
N6245 X511.097 Y448.715
N6250 X512.397 Y450.433
N6255 X513.695 Y452.206
N6260 X514.961 Y453.986
N6265 X516.194 Y455.767
N6270 X517.399 Y457.548
N6275 X518.579 Y459.325
N6280 X519.735 Y461.095
N6285 X520.87 Y462.854
N6290 X523.097 Y466.336
N6295 X523.098 Y466.339
N6300 X525.272 Y469.73
N6305 G2 X525.282 Y469.745 I2.526 J-1.619
N6310 G1 X526.355 Y471.397
N6315 G2 X526.367 Y471.415 I2.516 J-1.634
N6320 G1 X527.435 Y473.034
N6325 G2 X527.45 Y473.057 I2.504 J-1.652
N6330 G1 X528.515 Y474.639
N6335 G2 X528.536 Y474.669 I2.489 J-1.675
N6340 G1 X529.602 Y476.212
N6345 G2 X529.628 Y476.249 I2.468 J-1.705
N6350 G1 X530.698 Y477.749
N6355 G2 X530.729 Y477.792 I2.442 J-1.742
N6360 G1 X531.805 Y479.246
N6365 G2 X531.842 Y479.296 I2.411 J-1.785
N6370 G1 X532.928 Y480.701
N6375 G2 X532.96 Y480.741 I2.374 J-1.835
N6380 G1 X533.507 Y481.424
N6385 G2 X533.532 Y481.455 I2.342 J-1.875
N6390 G1 X534.083 Y482.125
N6395 G2 X534.109 Y482.156 I2.317 J-1.906
N6400 G1 X534.663 Y482.811
N6405 G2 X534.691 Y482.844 I2.291 J-1.937
N6410 G1 X535.25 Y483.486
N6415 G2 X535.283 Y483.522 I2.263 J-1.97
N6420 G1 X535.847 Y484.149
N6425 G2 X535.878 Y484.184 I2.23 J-2.006
N6430 G1 X536.446 Y484.796
N6435 G2 X536.482 Y484.834 I2.199 J-2.041
N6440 G1 X537.056 Y485.431
N6445 G2 X537.096 Y485.471 I2.163 J-2.079
N6450 G1 X537.675 Y486.051
N6455 G2 X537.716 Y486.092 I2.123 J-2.119
N6460 G1 X538.302 Y486.657
N6465 G2 X538.346 Y486.699 I2.082 J-2.16
N6470 G1 X538.938 Y487.247
N6475 G2 X538.986 Y487.29 I2.038 J-2.202
N6480 G1 X539.585 Y487.821
N6485 G2 X539.633 Y487.862 I1.99 J-2.245
N6490 G1 X540.238 Y488.376
N6495 G2 X540.297 Y488.426 I1.942 J-2.286
N6500 G1 X540.911 Y488.921
N6505 G2 X540.964 Y488.962 I1.883 J-2.336
N6510 G1 X541.585 Y489.44
N6515 G2 X541.648 Y489.488 I1.83 J-2.377
N6520 G1 X542.278 Y489.947
N6525 G2 X542.342 Y489.992 I1.767 J-2.425
N6530 G1 X542.98 Y490.432
N6535 G2 X543.049 Y490.478 I1.703 J-2.47
N6540 G1 X543.697 Y490.899
N6545 G2 X543.768 Y490.944 I1.634 J-2.516
N6550 G1 X544.443 Y491.356
N6555 G2 X544.52 Y491.401 I1.563 J-2.561
N6560 G1 X545.237 Y491.81
N6565 G2 X545.324 Y491.858 I1.487 J-2.606
N6570 G1 X546.083 Y492.258
N6575 G2 X546.177 Y492.305 I1.399 J-2.654
N6580 G1 X546.98 Y492.693
N6585 G2 X547.084 Y492.741 I1.305 J-2.701
N6590 G1 X547.931 Y493.111
N6595 G2 X548.042 Y493.157 I1.201 J-2.749
N6600 G1 X548.932 Y493.504
N6605 G2 X549.016 Y493.535 I1.09 J-2.795
N6610 G1 X549.477 Y493.699
N6615 G2 X549.538 Y493.72 I1.005 J-2.826
N6620 G1 X550.011 Y493.877
N6625 G2 X550.072 Y493.897 I0.945 J-2.847
N6630 G1 X550.555 Y494.046
N6635 G2 X550.617 Y494.064 I0.884 J-2.867
N6640 G1 X551.112 Y494.205
N6645 G2 X551.182 Y494.224 I0.822 J-2.885
N6650 G1 X551.688 Y494.355
N6655 G2 X551.752 Y494.371 I0.752 J-2.904
N6660 G1 X552.27 Y494.493
N6665 G2 X552.336 Y494.508 I0.688 J-2.92
N6670 G1 X552.863 Y494.62
N6675 G2 X552.934 Y494.634 I0.623 J-2.935
N6680 G1 X553.474 Y494.735
N6685 G2 X553.545 Y494.747 I0.552 J-2.949
N6690 G1 X554.093 Y494.836
N6695 G2 X554.169 Y494.848 I0.481 J-2.961
N6700 G1 X554.719 Y494.922
N6705 G2 X554.783 Y494.931 I0.405 J-2.972
N6710 G1 X555.334 Y494.994
N6715 G2 X555.404 Y495.001 I0.341 J-2.981
N6720 G1 X555.956 Y495.051
N6725 G2 X556.032 Y495.057 I0.271 J-2.988
N6730 G1 X556.584 Y495.093
N6735 G2 X556.649 Y495.096 I0.195 J-2.994
N6740 G1 X557.202 Y495.12
N6745 G2 X557.272 Y495.122 I0.13 J-2.997
N6750 G1 X557.825 Y495.133
N6755 G2 X557.89 Y495.134 I0.06 J-2.999
N6760 G1 X558.443 Y495.133
N6765 G2 X558.514 Y495.132 I-0.005 J-3
N6770 G1 X559.067 Y495.118
N6775 G2 X559.132 Y495.116 I-0.076 J-2.999
N6780 G1 X559.684 Y495.09
N6785 G2 X559.749 Y495.086 I-0.141 J-2.997
N6790 G1 X560.301 Y495.048
N6795 G2 X560.372 Y495.042 I-0.206 J-2.993
N6800 G1 X560.922 Y494.991
N6805 G2 X560.981 Y494.985 I-0.277 J-2.987
N6810 G1 X561.531 Y494.923
N6815 G2 X561.596 Y494.915 I-0.336 J-2.981
N6820 G1 X562.144 Y494.841
N6825 G2 X562.21 Y494.831 I-0.401 J-2.973
N6830 G1 X562.756 Y494.745
N6835 G2 X562.821 Y494.734 I-0.467 J-2.963
N6840 G1 X563.365 Y494.636
N6845 G2 X563.424 Y494.625 I-0.532 J-2.952
N6850 G1 X563.966 Y494.516
N6855 G2 X564.027 Y494.503 I-0.591 J-2.941
N6860 G1 X564.566 Y494.383
N6865 G2 X564.629 Y494.369 I-0.652 J-2.928
N6870 G1 X565.163 Y494.238
N6875 G2 X565.224 Y494.222 I-0.715 J-2.914
N6880 G1 X565.754 Y494.08
N6885 G2 X565.812 Y494.064 I-0.776 J-2.898
N6890 G1 X566.337 Y493.912
N6895 G2 X566.4 Y493.893 I-0.834 J-2.882
N6900 G1 X566.92 Y493.73
N6905 G2 X566.978 Y493.711 I-0.897 J-2.863
N6910 G1 X567.493 Y493.538
N6915 G2 X567.548 Y493.519 I-0.955 J-2.844
N6920 G1 X568.057 Y493.337
N6925 G2 X568.117 Y493.315 I-1.01 J-2.825
N6930 G1 X568.62 Y493.123
N6935 G2 X568.68 Y493.099 I-1.07 J-2.803
N6940 G1 X569.177 Y492.897
N6945 G2 X569.236 Y492.873 I-1.13 J-2.779
N6950 G1 X569.725 Y492.661
N6955 G2 X569.775 Y492.639 I-1.189 J-2.754
N6960 G1 X570.258 Y492.42
N6965 G2 X570.324 Y492.389 I-1.239 J-2.732
N6970 G1 X570.798 Y492.16
N6975 G2 X570.855 Y492.132 I-1.305 J-2.701
N6980 G1 X571.322 Y491.894
N6985 G2 X571.373 Y491.868 I-1.362 J-2.673
N6990 G1 X571.832 Y491.623
N6995 G2 X571.894 Y491.589 I-1.413 J-2.647
N7000 G1 X572.344 Y491.335
N7005 G2 X572.406 Y491.299 I-1.475 J-2.613
N7010 G1 X572.847 Y491.036
N7015 G2 X572.896 Y491.006 I-1.537 J-2.577
N7020 G1 X573.328 Y490.737
N7025 G2 X573.394 Y490.694 I-1.586 J-2.547
N7030 G1 X573.817 Y490.415
N7035 G2 X573.871 Y490.379 I-1.652 J-2.504
N7040 G1 X574.289 Y490.09
N7045 G2 X574.352 Y490.045 I-1.706 J-2.468
N7050 G1 X574.763 Y489.745
N7055 G2 X574.819 Y489.703 I-1.769 J-2.423
N7060 G1 X575.222 Y489.394
N7065 G2 X575.289 Y489.341 I-1.825 J-2.381
N7070 G1 X575.684 Y489.02
N7075 G2 X575.741 Y488.972 I-1.892 J-2.328
N7080 G1 X576.127 Y488.642
N7085 G2 X576.19 Y488.587 I-1.949 J-2.28
N7090 G1 X576.567 Y488.246
N7095 G2 X576.629 Y488.189 I-2.012 J-2.225
N7100 G1 X576.996 Y487.838
N7105 G2 X577.061 Y487.774 I-2.074 J-2.168
N7110 G1 X577.417 Y487.412
N7115 G2 X577.48 Y487.345 I-2.139 J-2.104
N7120 G1 X577.825 Y486.972
N7125 G2 X577.884 Y486.906 I-2.202 J-2.037
N7130 G1 X578.217 Y486.524
N7135 G2 X578.285 Y486.444 I-2.261 J-1.971
N7140 G1 X578.605 Y486.05
N7145 G2 X578.665 Y485.974 I-2.329 J-1.891
N7150 G1 X578.972 Y485.57
N7155 G2 X579.032 Y485.488 I-2.389 J-1.815
N7160 G1 X579.325 Y485.074
N7165 G2 X579.385 Y484.986 I-2.449 J-1.733
N7170 G1 X579.663 Y484.562
N7175 G2 X579.719 Y484.473 I-2.509 J-1.645
N7180 G1 X579.981 Y484.041
N7185 G2 X580.037 Y483.944 I-2.565 J-1.556
N7190 G1 X580.282 Y483.504
N7195 G2 X580.335 Y483.406 I-2.621 J-1.459
N7200 G1 X580.564 Y482.956
N7205 G2 X580.615 Y482.85 I-2.674 J-1.361
N7210 G1 X580.826 Y482.392
N7215 G2 X580.868 Y482.295 I-2.725 J-1.255
N7220 G1 X581.063 Y481.829
N7225 G2 X581.108 Y481.717 I-2.767 J-1.158
N7230 G1 X581.285 Y481.241
N7235 G2 X581.323 Y481.131 I-2.812 J-1.046
N7240 G1 X581.481 Y480.65
N7245 G2 X581.515 Y480.541 I-2.85 J-0.936
N7250 G1 X581.654 Y480.056
N7255 G2 X581.682 Y479.948 I-2.884 J-0.827
N7260 G1 X581.804 Y479.458
N7265 G2 X581.829 Y479.347 I-2.913 J-0.719
N7270 G1 X581.931 Y478.854
N7275 G2 X581.951 Y478.746 I-2.938 J-0.608
N7280 G1 X582.035 Y478.249
N7285 G2 X582.052 Y478.135 I-2.958 J-0.5
N7290 G1 X582.117 Y477.634
N7295 G2 X582.129 Y477.532 I-2.975 J-0.386
N7300 G1 X582.177 Y477.027
N7305 G2 X582.186 Y476.889 I-2.987 J-0.284
N7310 G1 X582.234 Y475.906
N7315 X582.235 Y475.902
N7320 X582.281 Y474.915
N7325 X582.33 Y473.919
N7330 Y473.918
N7335 X582.379 Y472.912
N7340 X582.38 Y472.911
N7345 X582.428 Y471.9
N7350 X582.479 Y470.882
N7355 Y470.881
N7360 X582.53 Y469.854
N7365 X582.582 Y468.821
N7370 X582.636 Y467.779
N7375 Y467.778
N7380 X582.69 Y466.728
N7385 X582.746 Y465.671
N7390 X582.803 Y464.607
N7395 X582.861 Y463.534
N7400 X582.921 Y462.454
N7405 X582.983 Y461.366
N7410 X583.046 Y460.27
N7415 X583.112 Y459.167
N7420 X583.178 Y458.054
N7425 X583.247 Y456.934
N7430 X583.318 Y455.807
N7435 X583.392 Y454.672
N7440 X583.467 Y453.528
N7445 X583.545 Y452.376
N7450 X583.626 Y451.214
N7455 G2 X580.633 Y448.006 I-2.993 J-0.208
N7460 G1 X553.262
N7465 G2 X551.141 Y448.885 J3
N7470 G3 X551.105 I-0.018 J-0.018
N7475 Y448.849 I0.018 J-0.018
N7480 G2 X551.984 Y446.727 I-2.121 J-2.122
N7485 G1 Y440.284
N7490 G2 X551.105 Y438.163 I-3
N7495 G3 Y438.127 I0.018 J-0.018
N7500 X551.141 I0.018 J0.018
N7505 G2 X553.262 Y439.006 I2.121 J-2.121
N7510 G1 X581.862
N7515 G2 X584.848 Y436.294 J-3
N7520 G1 X585.027 Y434.441
N7525 X585.213 Y432.575
N7530 X585.408 Y430.69
N7535 X585.611 Y428.785
N7540 X585.822 Y426.863
N7545 X586.044 Y424.921
N7550 X586.275 Y422.96
N7555 X586.515 Y420.981
N7560 X586.767 Y418.981
N7565 X587.027 Y416.962
N7570 X587.3 Y414.924
N7575 X587.582 Y412.864
N7580 X587.877 Y410.786
N7585 X588.182 Y408.687
N7590 X588.499 Y406.568
N7595 X588.828 Y404.43
N7600 X589.17 Y402.27
N7605 X589.524 Y400.089
N7610 X589.891 Y397.889
N7615 X590.272 Y395.667
N7620 X590.666 Y393.424
N7625 X591.073 Y391.16
N7630 X591.494 Y388.876
N7635 X591.932 Y386.564
N7640 G2 X588.984 Y383.006 I-2.948 J-0.558
N7645 G1 X523.263
N7650 G3 X522.663 Y382.406 J-0.6 F2388.4
N7655 G1 Y381.806
N7660 Y381.712 Z-5.993
N7665 Y381.621 Z-5.971
N7670 Y381.534 Z-5.935
N7675 Y381.453 Z-5.885
N7680 Y381.382 Z-5.824
N7685 Y381.321 Z-5.753
N7690 Y381.271 Z-5.672
N7695 Y381.235 Z-5.585
N7700 Y381.213 Z-5.494
N7705 Y381.206 Z-5.4
N7710 G0 Z5
N7715 X523.863
N7720 G1 Z1 F796.1
N7725 Z-11.4
N7730 Y381.213 Z-11.494 F2388.4
N7735 Y381.235 Z-11.585
N7740 Y381.271 Z-11.672
N7745 Y381.321 Z-11.753
N7750 Y381.382 Z-11.824
N7755 Y381.453 Z-11.885
N7760 Y381.534 Z-11.935
N7765 Y381.621 Z-11.971
N7770 Y381.712 Z-11.993
N7775 Y381.806 Z-12
N7780 Y382.406
N7785 G3 X523.263 Y383.006 I-0.6
N7790 G1 X523.262 F1500
N7795 G2 X521.141 Y383.885 J3
N7800 G3 X521.105 I-0.018 J-0.018
N7805 Y383.849 I0.018 J-0.018
N7810 G2 X521.984 Y381.727 I-2.121 J-2.122
N7815 G1 Y371.006
N7820 G2 X518.984 Y368.006 I-3
N7825 G1 X378.984
N7830 G2 X375.984 Y371.006 J3
N7835 G1 Y381.727
N7840 G2 X376.863 Y383.849 I3
N7845 G3 Y383.885 I-0.018 J0.018
N7850 X376.827 I-0.018 J-0.018
N7855 G2 X374.705 Y383.006 I-2.122 J2.121
N7860 G1 X313.657
N7865 G2 X311.987 Y388.498 J3
N7870 G1 X314.522 Y390.197
N7875 X317.163 Y392.012
N7880 X318.493 Y392.944
N7885 X319.821 Y393.888
N7890 X321.13 Y394.834
N7895 X322.411 Y395.775
N7900 X323.65 Y396.704
N7905 X324.849 Y397.622
N7910 X326.013 Y398.535
N7915 X327.141 Y399.442
N7920 X328.234 Y400.345
N7925 X329.288 Y401.242
N7930 X330.302 Y402.135
N7935 X331.28 Y403.025
N7940 X332.217 Y403.913
N7945 X333.113 Y404.795
N7950 X333.968 Y405.677
N7955 X334.783 Y406.556
N7960 X335.552 Y407.432
N7965 X336.281 Y408.308
N7970 X336.963 Y409.178
N7975 X337.592 Y410.034
N7980 X338.169 Y410.877
N7985 X338.699 Y411.71
N7990 X339.181 Y412.531
N7995 X339.618 Y413.339
N8000 X340.011 Y414.138
N8005 X340.362 Y414.929
N8010 X340.674 Y415.713
N8015 X340.947 Y416.492
N8020 X341.185 Y417.269
N8025 X341.389 Y418.044
N8030 X341.559 Y418.817
N8035 X341.697 Y419.594
N8040 X341.804 Y420.376
N8045 X341.882 Y421.163
N8050 X341.93 Y421.958
N8055 X341.951 Y422.765
N8060 X341.944 Y423.582
N8065 X341.909 Y424.413
N8070 X341.85 Y425.257
N8075 X341.764 Y426.111
N8080 X341.655 Y426.977
N8085 X341.523 Y427.852
N8090 X341.37 Y428.739
N8095 X341.198 Y429.638
N8100 X341.006 Y430.55
N8105 X340.799 Y431.473
N8110 X340.575 Y432.407
N8115 X340.339 Y433.351
N8120 X339.826 Y435.293
N8125 X339.28 Y437.28
N8130 X338.708 Y439.336
N8135 G2 X338.705 Y439.346 I2.89 J0.804
N8140 G1 X338.122 Y441.47
N8145 G2 X338.114 Y441.501 I2.893 J0.794
N8150 G1 X337.54 Y443.685
N8155 G2 X337.531 Y443.719 I2.901 J0.763
N8160 G1 X337.252 Y444.833
N8165 G2 X337.245 Y444.861 I2.91 J0.729
N8170 G1 X336.974 Y445.989
N8175 G2 X336.966 Y446.022 I2.917 J0.701
N8180 G1 X336.705 Y447.164
N8185 G2 X336.697 Y447.202 I2.925 J0.668
N8190 G1 X336.449 Y448.357
N8195 G2 X336.441 Y448.395 I2.933 J0.63
N8200 G1 X336.206 Y449.563
N8205 G2 X336.196 Y449.613 I2.941 J0.592
N8210 G1 X335.979 Y450.794
N8215 G2 X335.971 Y450.84 I2.951 J0.542
N8220 G1 X335.771 Y452.034
N8225 G2 X335.763 Y452.09 I2.959 J0.496
N8230 G1 X335.583 Y453.296
N8235 G2 X335.575 Y453.355 I2.967 J0.44
N8240 G1 X335.419 Y454.572
N8245 G2 X335.412 Y454.633 I2.976 J0.381
N8250 G1 X335.28 Y455.862
N8255 G2 X335.274 Y455.929 I2.983 J0.32
N8260 G1 X335.169 Y457.17
N8265 G2 X335.164 Y457.241 I2.989 J0.253
N8270 G1 X335.088 Y458.491
N8275 G2 X335.084 Y458.564 I2.994 J0.182
N8280 G1 X335.038 Y459.826
N8285 G2 X335.036 Y459.904 I2.998 J0.109
N8290 G1 X335.023 Y461.174
N8295 G2 Y461.255 I3 J0.031
N8300 G1 X335.044 Y462.503
N8305 G2 X335.047 Y462.589 I3 J-0.05
N8310 G1 X335.102 Y463.802
N8315 G2 X335.107 Y463.884 I2.997 J-0.136
N8320 G1 X335.193 Y465.063
N8325 G2 X335.2 Y465.148 I2.992 J-0.218
N8330 G1 X335.316 Y466.291
N8335 G2 X335.327 Y466.38 I2.985 J-0.303
N8340 G1 X335.473 Y467.489
N8345 G2 X335.486 Y467.577 I2.974 J-0.392
N8350 G1 X335.66 Y468.65
N8355 G2 X335.675 Y468.738 I2.961 J-0.48
N8360 G1 X335.875 Y469.775
N8365 G2 X335.895 Y469.868 I2.946 J-0.568
N8370 G1 X336.121 Y470.869
N8375 G2 X336.144 Y470.963 I2.926 J-0.661
N8380 G1 X336.395 Y471.928
N8385 G2 X336.421 Y472.023 I2.903 J-0.755
N8390 G1 X336.695 Y472.95
N8395 G2 X336.724 Y473.043 I2.877 J-0.85
N8400 G1 X337.019 Y473.934
N8405 G2 X337.054 Y474.034 I2.848 J-0.943
N8410 G1 X337.371 Y474.889
N8415 G2 X337.411 Y474.99 I2.813 J-1.043
N8420 G1 X337.758 Y475.831
N8425 G2 X337.803 Y475.934 I2.773 J-1.144
N8430 G1 X338.182 Y476.763
N8435 G2 X338.237 Y476.877 I2.728 J-1.247
N8440 G1 X338.651 Y477.69
N8445 G2 X338.695 Y477.775 I2.673 J-1.361
N8450 G1 X338.915 Y478.175
N8455 G2 X338.947 Y478.232 I2.629 J-1.446
N8460 G1 X339.175 Y478.626
N8465 G2 X339.215 Y478.692 I2.597 J-1.503
N8470 G1 X339.453 Y479.08
N8475 G2 X339.491 Y479.14 I2.557 J-1.569
N8480 G1 X339.738 Y479.522
N8485 G2 X339.779 Y479.584 I2.519 J-1.629
N8490 G1 X340.035 Y479.959
N8495 G2 X340.079 Y480.021 I2.478 J-1.691
N8500 G1 X340.344 Y480.389
N8505 G2 X340.394 Y480.457 I2.434 J-1.753
N8510 G1 X340.669 Y480.817
N8515 G2 X340.721 Y480.884 I2.384 J-1.821
N8520 G1 X341.006 Y481.236
N8525 G2 X341.06 Y481.3 I2.332 J-1.888
N8530 G1 X341.354 Y481.643
N8535 G2 X341.417 Y481.714 I2.278 J-1.952
N8540 G1 X341.722 Y482.048
N8545 G2 X341.783 Y482.113 I2.215 J-2.023
N8550 G1 X342.096 Y482.436
N8555 G2 X342.162 Y482.503 I2.154 J-2.088
N8560 G1 X342.484 Y482.815
N8565 G2 X342.557 Y482.883 I2.088 J-2.155
N8570 G1 X342.889 Y483.184
N8575 G2 X342.964 Y483.25 I2.015 J-2.223
N8580 G1 X343.305 Y483.539
N8585 G2 X343.387 Y483.606 I1.94 J-2.289
N8590 G1 X343.737 Y483.882
N8595 G2 X343.818 Y483.943 I1.858 J-2.356
N8600 G1 X344.177 Y484.207
N8605 G2 X344.267 Y484.271 I1.777 J-2.417
N8610 G1 X344.636 Y484.522
N8615 G2 X344.732 Y484.585 I1.687 J-2.481
N8620 G1 X345.111 Y484.822
N8625 G2 X345.202 Y484.876 I1.591 J-2.544
N8630 G1 X345.59 Y485.1
N8635 G2 X345.69 Y485.155 I1.5 J-2.598
N8640 G1 X346.088 Y485.365
N8645 G2 X346.186 Y485.415 I1.4 J-2.653
N8650 G1 X346.593 Y485.611
N8655 G2 X346.7 Y485.66 I1.302 J-2.703
N8660 G1 X347.112 Y485.839
N8665 G2 X347.223 Y485.884 I1.195 J-2.752
N8670 G1 X347.641 Y486.046
N8675 G2 X347.744 Y486.084 I1.084 J-2.797
N8680 G1 X348.166 Y486.23
N8685 G2 X348.278 Y486.266 I0.981 J-2.835
N8690 G1 X348.704 Y486.395
N8695 G2 X348.806 Y486.424 I0.869 J-2.871
N8700 G1 X349.237 Y486.538
N8705 G2 X349.343 Y486.564 I0.767 J-2.9
N8710 G1 X349.777 Y486.662
N8715 G2 X349.881 Y486.684 I0.661 J-2.926
N8720 G1 X350.32 Y486.767
N8725 G2 X350.427 Y486.785 I0.557 J-2.948
N8730 G1 X350.869 Y486.852
N8735 G2 X350.965 Y486.865 I0.45 J-2.966
N8740 G1 X351.411 Y486.918
N8745 G2 X351.512 Y486.928 I0.354 J-2.979
N8750 G1 X351.961 Y486.966
N8755 G2 X352.062 Y486.973 I0.253 J-2.989
N8760 G1 X352.514 Y486.996
N8765 G2 X352.606 Y486.999 I0.152 J-2.996
N8770 G1 X353.058 Y487.008
N8775 G2 X353.145 Y487.009 I0.06 J-2.999
N8780 G1 X353.597 Y487.005
N8785 G2 X353.689 Y487.003 I-0.027 J-3
N8790 G1 X354.142 Y486.985
N8795 G2 X354.222 Y486.98 I-0.119 J-2.998
N8800 G1 X354.673 Y486.95
N8805 G2 X354.752 Y486.944 I-0.199 J-2.993
N8810 G1 X355.203 Y486.902
N8815 G2 X355.282 Y486.894 I-0.278 J-2.987
N8820 G1 X355.732 Y486.84
N8825 G2 X355.806 Y486.83 I-0.357 J-2.979
N8830 G1 X356.254 Y486.765
N8835 G2 X356.326 Y486.754 I-0.431 J-2.969
N8840 G1 X356.773 Y486.678
N8845 G2 X356.869 Y486.66 I-0.503 J-2.958
N8850 G1 X357.757 Y486.479
N8855 G2 X357.877 Y486.452 I-0.599 J-2.94
N8860 G1 X358.756 Y486.235
N8865 G2 X358.865 Y486.205 I-0.719 J-2.913
N8870 G1 X359.739 Y485.954
N8875 G2 X359.84 Y485.924 I-0.828 J-2.883
N8880 G1 X360.709 Y485.641
N8885 G2 X360.799 Y485.61 I-0.929 J-2.853
N8890 G1 X361.66 Y485.299
N8895 G2 X361.743 Y485.267 I-1.019 J-2.822
N8900 G1 X362.596 Y484.93
N8905 G2 X362.672 Y484.899 I-1.102 J-2.79
N8910 G1 X363.515 Y484.539
N8915 G2 X363.583 Y484.509 I-1.178 J-2.759
N8920 G1 X364.413 Y484.13
N8925 G2 X364.473 Y484.102 I-1.246 J-2.729
N8930 G1 X365.29 Y483.707
N8935 G2 X366.983 Y480.933 I-1.306 J-2.701
N8940 G1 X366.957 Y479.841
N8945 X366.942 Y478.761
N8950 X366.941 Y477.676
N8955 X366.953 Y476.585
N8960 X366.979 Y475.492
N8965 X367.019 Y474.398
N8970 X367.075 Y473.304
N8975 X367.147 Y472.212
N8980 X367.235 Y471.122
N8985 X367.341 Y470.037
N8990 X367.465 Y468.96
N8995 X367.609 Y467.887
N9000 X367.771 Y466.822
N9005 X367.953 Y465.768
N9010 X368.156 Y464.725
N9015 X368.379 Y463.694
N9020 X368.625 Y462.678
N9025 X368.893 Y461.676
N9030 X369.182 Y460.69
N9035 X369.498 Y459.717
N9040 X369.839 Y458.755
N9045 X370.205 Y457.813
N9050 X370.599 Y456.887
N9055 X371.021 Y455.979
N9060 X371.478 Y455.078
N9065 X371.706 Y454.655
N9070 X371.948 Y454.229
N9075 X372.2 Y453.802
N9080 X372.458 Y453.385
N9085 X372.722 Y452.975
N9090 X372.996 Y452.569
N9095 X373.274 Y452.173
N9100 X373.564 Y451.782
N9105 X373.862 Y451.394
N9110 X374.165 Y451.018
N9115 X374.474 Y450.651
N9120 X374.791 Y450.293
N9125 X375.116 Y449.942
N9130 X375.447 Y449.601
N9135 X375.785 Y449.268
N9140 X376.128 Y448.946
N9145 X376.479 Y448.632
N9150 X376.837 Y448.327
N9155 X377.199 Y448.033
N9160 X377.571 Y447.748
N9165 X377.951 Y447.47
N9170 X378.334 Y447.204
N9175 X378.726 Y446.948
N9180 X379.128 Y446.699
N9185 X379.535 Y446.461
N9190 X379.948 Y446.233
N9195 X380.366 Y446.016
N9200 X380.792 Y445.811
N9205 X381.223 Y445.614
N9210 X381.655 Y445.43
N9215 X382.094 Y445.257
N9220 X382.534 Y445.096
N9225 X382.98 Y444.946
N9230 X383.434 Y444.805
N9235 X383.888 Y444.676
N9240 X384.346 Y444.559
N9245 X384.804 Y444.453
N9250 X385.268 Y444.359
N9255 X385.735 Y444.274
N9260 X386.205 Y444.202
N9265 X386.677 Y444.141
N9270 X387.148 Y444.091
N9275 X387.622 Y444.053
N9280 X388.099 Y444.026
N9285 X388.575 Y444.011
N9290 X389.053 Y444.006
N9295 X389.527 Y444.013
N9300 X390 Y444.032
N9305 X390.477 Y444.063
N9310 X390.952 Y444.104
N9315 X391.426 Y444.157
N9320 X391.897 Y444.222
N9325 X392.365 Y444.297
N9330 X392.83 Y444.384
N9335 X393.297 Y444.483
N9340 X393.758 Y444.592
N9345 X394.216 Y444.714
N9350 X394.671 Y444.846
N9355 X395.119 Y444.988
N9360 X395.565 Y445.142
N9365 X396.001 Y445.306
N9370 X396.435 Y445.481
N9375 X396.866 Y445.668
N9380 X397.291 Y445.865
N9385 X397.71 Y446.072
N9390 X398.124 Y446.29
N9395 X398.532 Y446.518
N9400 X398.936 Y446.758
N9405 X399.332 Y447.006
N9410 X399.725 Y447.268
N9415 X400.112 Y447.539
N9420 X400.491 Y447.82
N9425 X400.866 Y448.112
N9430 X401.232 Y448.412
N9435 X401.592 Y448.724
N9440 X401.943 Y449.041
N9445 X402.286 Y449.369
N9450 X402.622 Y449.703
N9455 X402.949 Y450.046
N9460 X403.272 Y450.4
N9465 X403.585 Y450.76
N9470 X403.893 Y451.129
N9475 X404.192 Y451.504
N9480 X404.483 Y451.886
N9485 X404.767 Y452.278
N9490 X405.046 Y452.678
N9495 X405.317 Y453.086
N9500 X405.58 Y453.497
N9505 X405.837 Y453.918
N9510 X406.086 Y454.345
N9515 X406.329 Y454.78
N9520 X406.557 Y455.206
N9525 X407.009 Y456.11
N9530 X407.429 Y457.024
N9535 X407.819 Y457.955
N9540 X408.183 Y458.904
N9545 X408.521 Y459.87
N9550 X408.833 Y460.848
N9555 X409.12 Y461.838
N9560 X409.382 Y462.838
N9565 X409.622 Y463.847
N9570 X409.84 Y464.863
N9575 X410.037 Y465.893
N9580 X410.215 Y466.932
N9585 X410.372 Y467.983
N9590 X410.512 Y469.043
N9595 X410.633 Y470.109
N9600 X410.738 Y471.183
N9605 X410.825 Y472.259
N9610 X410.895 Y473.341
N9615 X410.95 Y474.425
N9620 X410.989 Y475.513
N9625 X411.015 Y476.599
N9630 X411.027 Y477.682
N9635 X411.025 Y478.763
N9640 X411.01 Y479.844
N9645 X410.985 Y480.936
N9650 G2 X412.828 Y483.774 I2.999 J0.07
N9655 G1 X413.587 Y484.091
N9660 G2 X413.642 Y484.113 I1.156 J-2.768
N9665 G1 X414.401 Y484.413
N9670 G2 X414.46 Y484.436 I1.102 J-2.79
N9675 G1 X415.218 Y484.717
N9680 G2 X415.279 Y484.739 I1.043 J-2.813
N9685 G1 X416.035 Y485.001
N9690 G2 X416.099 Y485.022 I0.982 J-2.835
N9695 G1 X416.852 Y485.264
N9700 G2 X416.929 Y485.288 I0.918 J-2.856
N9705 G1 X417.679 Y485.507
N9710 G2 X417.758 Y485.529 I0.841 J-2.88
N9715 G1 X418.504 Y485.725
N9720 G2 X418.588 Y485.745 I0.762 J-2.902
N9725 G1 X419.329 Y485.917
N9730 G2 X419.423 Y485.938 I0.678 J-2.922
N9735 G1 X420.159 Y486.084
N9740 G2 X420.26 Y486.102 I0.584 J-2.943
N9745 G1 X420.989 Y486.221
N9750 G2 X421.093 Y486.236 I0.483 J-2.961
N9755 G1 X421.816 Y486.328
N9760 G2 X421.932 Y486.34 I0.379 J-2.976
N9765 G1 X422.648 Y486.403
N9770 G2 X422.777 Y486.412 I0.263 J-2.988
N9775 G1 X423.494 Y486.444
N9780 G2 X423.632 Y486.447 I0.134 J-2.997
N9785 G1 X424.348 Y486.446
N9790 G2 X424.495 Y486.442 I-0.004 J-3
N9795 G1 X425.209 Y486.406
N9800 G2 X425.365 Y486.394 I-0.151 J-2.996
N9805 G1 X426.075 Y486.321
N9810 G2 X426.205 Y486.305 I-0.307 J-2.984
N9815 G1 X426.558 Y486.253
N9820 G2 X426.641 Y486.24 I-0.437 J-2.968
N9825 G1 X426.993 Y486.178
N9830 G2 X427.086 Y486.16 I-0.52 J-2.955
N9835 G1 X427.436 Y486.087
N9840 G2 X427.527 Y486.066 I-0.613 J-2.937
N9845 G1 X427.875 Y485.982
N9850 G2 X427.965 Y485.959 I-0.704 J-2.916
N9855 G1 X428.311 Y485.864
N9860 G2 X428.408 Y485.836 I-0.794 J-2.893
N9865 G1 X428.752 Y485.729
N9870 G2 X428.845 Y485.698 I-0.891 J-2.865
N9875 G1 X429.182 Y485.581
N9880 G2 X429.28 Y485.545 I-0.984 J-2.834
N9885 G1 X429.611 Y485.417
N9890 G2 X429.698 Y485.382 I-1.082 J-2.798
N9895 G1 X430.024 Y485.244
N9900 G2 X430.121 Y485.201 I-1.169 J-2.763
N9905 G1 X430.441 Y485.052
N9910 G2 X430.53 Y485.008 I-1.266 J-2.72
N9915 G1 X430.844 Y484.849
N9920 G2 X430.932 Y484.803 I-1.355 J-2.676
N9925 G1 X431.24 Y484.634
N9930 G2 X431.325 Y484.585 I-1.443 J-2.63
N9935 G1 X431.629 Y484.405
N9940 G2 X431.718 Y484.351 I-1.528 J-2.581
N9945 G1 X432.015 Y484.161
N9950 G2 X432.095 Y484.108 I-1.617 J-2.527
N9955 G1 X432.388 Y483.907
N9960 G2 X432.464 Y483.853 I-1.697 J-2.474
N9965 G1 X432.752 Y483.642
N9970 G2 X432.829 Y483.583 I-1.773 J-2.42
N9975 G1 X433.112 Y483.362
N9980 G2 X433.177 Y483.309 I-1.851 J-2.361
N9985 G1 X433.454 Y483.079
N9990 G2 X433.531 Y483.014 I-1.916 J-2.308
N9995 G1 X433.8 Y482.775
N10000 G2 X433.856 Y482.723 I-1.993 J-2.243
N10005 G1 X434.119 Y482.477
N10010 G2 X434.208 Y482.391 I-2.049 J-2.191
N10015 G1 X434.712 Y481.879
N10020 G2 X434.817 Y481.767 I-2.138 J-2.105
N10025 G1 X435.295 Y481.229
N10030 G2 X435.386 Y481.12 I-2.243 J-1.993
N10035 G1 X435.838 Y480.56
N10040 G2 X435.913 Y480.464 I-2.334 J-1.884
N10045 G1 X436.342 Y479.886
N10050 G2 X436.408 Y479.793 I-2.409 J-1.788
N10055 G1 X436.814 Y479.2
N10060 G2 X436.871 Y479.114 I-2.475 J-1.695
N10065 G1 X437.258 Y478.505
N10070 G2 X437.305 Y478.428 I-2.532 J-1.609
N10075 G1 X437.681 Y477.795
N10080 G2 X437.723 Y477.723 I-2.579 J-1.532
N10085 G1 X438.089 Y477.066
N10090 G2 X438.124 Y477 I-2.621 J-1.46
N10095 G1 X438.482 Y476.318
N10100 G2 X438.515 Y476.255 I-2.656 J-1.394
N10105 G1 X438.864 Y475.55
N10110 G2 X438.889 Y475.498 I-2.689 J-1.331
N10115 G1 X439.232 Y474.77
N10120 G2 X439.255 Y474.719 I-2.714 J-1.279
N10125 G1 X439.592 Y473.968
N10130 G2 X439.61 Y473.927 I-2.737 J-1.228
N10135 G1 X439.943 Y473.154
N10140 G2 X439.96 Y473.114 I-2.755 J-1.187
N10145 G1 X440.288 Y472.321
N10150 G2 X440.309 Y472.27 I-2.772 J-1.147
N10155 G1 X440.957 Y470.619
N10160 G2 X440.975 Y470.57 I-2.793 J-1.096
N10165 G1 X441.619 Y468.841
N10170 G2 X441.632 Y468.808 I-2.811 J-1.047
N10175 G1 X442.286 Y466.986
N10180 G2 X442.292 Y466.967 I-2.824 J-1.014
N10185 G1 X442.964 Y465.056
N10190 X442.967 Y465.049
N10195 X443.661 Y463.06
N10200 X444.382 Y461.007
N10205 X445.134 Y458.901
N10210 X445.924 Y456.753
N10215 X446.761 Y454.562
N10220 X447.193 Y453.464
N10225 X447.642 Y452.355
N10230 X448.103 Y451.24
N10235 X448.578 Y450.125
N10240 X449.069 Y449.006
N10245 X449.575 Y447.885
N10250 X450.097 Y446.766
N10255 X450.636 Y445.647
N10260 X451.193 Y444.53
N10265 X451.769 Y443.416
N10270 X452.362 Y442.306
N10275 X452.976 Y441.202
N10280 X453.609 Y440.105
N10285 X454.265 Y439.012
N10290 X454.943 Y437.928
N10295 X455.645 Y436.854
N10300 X456.37 Y435.794
N10305 X457.115 Y434.753
N10310 X457.881 Y433.734
N10315 X458.668 Y432.741
N10320 X459.476 Y431.777
N10325 X460.31 Y430.836
N10330 X460.725 Y430.39
N10335 X461.15 Y429.946
N10340 X461.577 Y429.514
N10345 X462.013 Y429.089
N10350 X462.45 Y428.677
N10355 X462.894 Y428.275
N10360 X463.347 Y427.88
N10365 X463.805 Y427.496
N10370 X464.268 Y427.123
N10375 X464.737 Y426.763
N10380 X465.211 Y426.414
N10385 X465.693 Y426.079
N10390 X466.178 Y425.757
N10395 X466.668 Y425.451
N10400 X467.168 Y425.156
N10405 X467.669 Y424.879
N10410 X468.172 Y424.618
N10415 X468.681 Y424.375
N10420 X469.199 Y424.145
N10425 X469.718 Y423.935
N10430 X470.239 Y423.744
N10435 X470.76 Y423.571
N10440 X471.284 Y423.418
N10445 X471.808 Y423.282
N10450 X472.334 Y423.167
N10455 X472.864 Y423.069
N10460 X473.396 Y422.99
N10465 X473.933 Y422.93
N10470 X474.474 Y422.888
N10475 X475.02 Y422.866
N10480 X475.571 Y422.861
N10485 X476.125 Y422.876
N10490 X476.68 Y422.91
N10495 X477.235 Y422.962
N10500 X477.79 Y423.033
N10505 X478.345 Y423.12
N10510 X478.899 Y423.224
N10515 X479.456 Y423.346
N10520 X480.012 Y423.482
N10525 X480.567 Y423.635
N10530 X481.123 Y423.803
N10535 X481.677 Y423.986
N10540 X482.233 Y424.183
N10545 X482.787 Y424.393
N10550 X483.339 Y424.615
N10555 X483.889 Y424.851
N10560 X484.441 Y425.099
N10565 X484.988 Y425.357
N10570 X485.528 Y425.623
N10575 X486.057 Y425.896
N10580 X487.138 Y426.485
N10585 X488.19 Y427.099
N10590 X489.22 Y427.736
N10595 X490.225 Y428.393
N10600 X491.205 Y429.063
N10605 X492.154 Y429.741
N10610 X493.071 Y430.421
N10615 X493.997 Y431.13
N10620 X494.955 Y431.89
N10625 X495.944 Y432.7
N10630 X496.964 Y433.565
N10635 X498.012 Y434.483
N10640 X499.087 Y435.458
N10645 X500.189 Y436.491
N10650 X501.317 Y437.585
N10655 X502.469 Y438.74
N10660 X503.642 Y439.96
N10665 X504.838 Y441.244
N10670 X506.054 Y442.596
N10675 X507.289 Y444.018
N10680 X508.543 Y445.511
N10685 X509.812 Y447.075
N10690 X511.097 Y448.715
N10695 X512.397 Y450.433
N10700 X513.695 Y452.206
N10705 X514.961 Y453.986
N10710 X516.194 Y455.767
N10715 X517.399 Y457.548
N10720 X518.579 Y459.325
N10725 X519.735 Y461.095
N10730 X520.87 Y462.854
N10735 X523.097 Y466.336
N10740 X523.098 Y466.339
N10745 X525.272 Y469.73
N10750 G2 X525.282 Y469.745 I2.526 J-1.619
N10755 G1 X526.355 Y471.397
N10760 G2 X526.367 Y471.415 I2.516 J-1.634
N10765 G1 X527.435 Y473.034
N10770 G2 X527.45 Y473.057 I2.504 J-1.652
N10775 G1 X528.515 Y474.639
N10780 G2 X528.536 Y474.669 I2.489 J-1.675
N10785 G1 X529.602 Y476.212
N10790 G2 X529.628 Y476.249 I2.468 J-1.705
N10795 G1 X530.698 Y477.749
N10800 G2 X530.729 Y477.792 I2.442 J-1.742
N10805 G1 X531.805 Y479.246
N10810 G2 X531.842 Y479.296 I2.411 J-1.785
N10815 G1 X532.928 Y480.701
N10820 G2 X532.96 Y480.741 I2.374 J-1.835
N10825 G1 X533.507 Y481.424
N10830 G2 X533.532 Y481.455 I2.342 J-1.875
N10835 G1 X534.083 Y482.125
N10840 G2 X534.109 Y482.156 I2.317 J-1.906
N10845 G1 X534.663 Y482.811
N10850 G2 X534.691 Y482.844 I2.291 J-1.937
N10855 G1 X535.25 Y483.486
N10860 G2 X535.283 Y483.522 I2.263 J-1.97
N10865 G1 X535.847 Y484.149
N10870 G2 X535.878 Y484.184 I2.23 J-2.006
N10875 G1 X536.446 Y484.796
N10880 G2 X536.482 Y484.834 I2.199 J-2.041
N10885 G1 X537.056 Y485.431
N10890 G2 X537.096 Y485.471 I2.163 J-2.079
N10895 G1 X537.675 Y486.051
N10900 G2 X537.716 Y486.092 I2.123 J-2.119
N10905 G1 X538.302 Y486.657
N10910 G2 X538.346 Y486.699 I2.082 J-2.16
N10915 G1 X538.938 Y487.247
N10920 G2 X538.986 Y487.29 I2.038 J-2.202
N10925 G1 X539.585 Y487.821
N10930 G2 X539.633 Y487.862 I1.99 J-2.245
N10935 G1 X540.238 Y488.376
N10940 G2 X540.297 Y488.426 I1.942 J-2.286
N10945 G1 X540.911 Y488.921
N10950 G2 X540.964 Y488.962 I1.883 J-2.336
N10955 G1 X541.585 Y489.44
N10960 G2 X541.648 Y489.488 I1.83 J-2.377
N10965 G1 X542.278 Y489.947
N10970 G2 X542.342 Y489.992 I1.767 J-2.425
N10975 G1 X542.98 Y490.432
N10980 G2 X543.049 Y490.478 I1.703 J-2.47
N10985 G1 X543.697 Y490.899
N10990 G2 X543.768 Y490.944 I1.634 J-2.516
N10995 G1 X544.443 Y491.356
N11000 G2 X544.52 Y491.401 I1.563 J-2.561
N11005 G1 X545.237 Y491.81
N11010 G2 X545.324 Y491.858 I1.487 J-2.606
N11015 G1 X546.083 Y492.258
N11020 G2 X546.177 Y492.305 I1.399 J-2.654
N11025 G1 X546.98 Y492.693
N11030 G2 X547.084 Y492.741 I1.305 J-2.701
N11035 G1 X547.931 Y493.111
N11040 G2 X548.042 Y493.157 I1.201 J-2.749
N11045 G1 X548.932 Y493.504
N11050 G2 X549.016 Y493.535 I1.09 J-2.795
N11055 G1 X549.477 Y493.699
N11060 G2 X549.538 Y493.72 I1.005 J-2.826
N11065 G1 X550.011 Y493.877
N11070 G2 X550.072 Y493.897 I0.945 J-2.847
N11075 G1 X550.555 Y494.046
N11080 G2 X550.617 Y494.064 I0.884 J-2.867
N11085 G1 X551.112 Y494.205
N11090 G2 X551.182 Y494.224 I0.822 J-2.885
N11095 G1 X551.688 Y494.355
N11100 G2 X551.752 Y494.371 I0.752 J-2.904
N11105 G1 X552.27 Y494.493
N11110 G2 X552.336 Y494.508 I0.688 J-2.92
N11115 G1 X552.863 Y494.62
N11120 G2 X552.934 Y494.634 I0.623 J-2.935
N11125 G1 X553.474 Y494.735
N11130 G2 X553.545 Y494.747 I0.552 J-2.949
N11135 G1 X554.093 Y494.836
N11140 G2 X554.169 Y494.848 I0.481 J-2.961
N11145 G1 X554.719 Y494.922
N11150 G2 X554.783 Y494.931 I0.405 J-2.972
N11155 G1 X555.334 Y494.994
N11160 G2 X555.404 Y495.001 I0.341 J-2.981
N11165 G1 X555.956 Y495.051
N11170 G2 X556.032 Y495.057 I0.271 J-2.988
N11175 G1 X556.584 Y495.093
N11180 G2 X556.649 Y495.096 I0.195 J-2.994
N11185 G1 X557.202 Y495.12
N11190 G2 X557.272 Y495.122 I0.13 J-2.997
N11195 G1 X557.825 Y495.133
N11200 G2 X557.89 Y495.134 I0.06 J-2.999
N11205 G1 X558.443 Y495.133
N11210 G2 X558.514 Y495.132 I-0.005 J-3
N11215 G1 X559.067 Y495.118
N11220 G2 X559.132 Y495.116 I-0.076 J-2.999
N11225 G1 X559.684 Y495.09
N11230 G2 X559.749 Y495.086 I-0.141 J-2.997
N11235 G1 X560.301 Y495.048
N11240 G2 X560.372 Y495.042 I-0.206 J-2.993
N11245 G1 X560.922 Y494.991
N11250 G2 X560.981 Y494.985 I-0.277 J-2.987
N11255 G1 X561.531 Y494.923
N11260 G2 X561.596 Y494.915 I-0.336 J-2.981
N11265 G1 X562.144 Y494.841
N11270 G2 X562.21 Y494.831 I-0.401 J-2.973
N11275 G1 X562.756 Y494.745
N11280 G2 X562.821 Y494.734 I-0.467 J-2.963
N11285 G1 X563.365 Y494.636
N11290 G2 X563.424 Y494.625 I-0.532 J-2.952
N11295 G1 X563.966 Y494.516
N11300 G2 X564.027 Y494.503 I-0.591 J-2.941
N11305 G1 X564.566 Y494.383
N11310 G2 X564.629 Y494.369 I-0.652 J-2.928
N11315 G1 X565.163 Y494.238
N11320 G2 X565.224 Y494.222 I-0.715 J-2.914
N11325 G1 X565.754 Y494.08
N11330 G2 X565.812 Y494.064 I-0.776 J-2.898
N11335 G1 X566.337 Y493.912
N11340 G2 X566.4 Y493.893 I-0.834 J-2.882
N11345 G1 X566.92 Y493.73
N11350 G2 X566.978 Y493.711 I-0.897 J-2.863
N11355 G1 X567.493 Y493.538
N11360 G2 X567.548 Y493.519 I-0.955 J-2.844
N11365 G1 X568.057 Y493.337
N11370 G2 X568.117 Y493.315 I-1.01 J-2.825
N11375 G1 X568.62 Y493.123
N11380 G2 X568.68 Y493.099 I-1.07 J-2.803
N11385 G1 X569.177 Y492.897
N11390 G2 X569.236 Y492.873 I-1.13 J-2.779
N11395 G1 X569.725 Y492.661
N11400 G2 X569.775 Y492.639 I-1.189 J-2.754
N11405 G1 X570.258 Y492.42
N11410 G2 X570.324 Y492.389 I-1.239 J-2.732
N11415 G1 X570.798 Y492.16
N11420 G2 X570.855 Y492.132 I-1.305 J-2.701
N11425 G1 X571.322 Y491.894
N11430 G2 X571.373 Y491.868 I-1.362 J-2.673
N11435 G1 X571.832 Y491.623
N11440 G2 X571.894 Y491.589 I-1.413 J-2.647
N11445 G1 X572.344 Y491.335
N11450 G2 X572.406 Y491.299 I-1.475 J-2.613
N11455 G1 X572.847 Y491.036
N11460 G2 X572.896 Y491.006 I-1.537 J-2.577
N11465 G1 X573.328 Y490.737
N11470 G2 X573.394 Y490.694 I-1.586 J-2.547
N11475 G1 X573.817 Y490.415
N11480 G2 X573.871 Y490.379 I-1.652 J-2.504
N11485 G1 X574.289 Y490.09
N11490 G2 X574.352 Y490.045 I-1.706 J-2.468
N11495 G1 X574.763 Y489.745
N11500 G2 X574.819 Y489.703 I-1.769 J-2.423
N11505 G1 X575.222 Y489.394
N11510 G2 X575.289 Y489.341 I-1.825 J-2.381
N11515 G1 X575.684 Y489.02
N11520 G2 X575.741 Y488.972 I-1.892 J-2.328
N11525 G1 X576.127 Y488.642
N11530 G2 X576.19 Y488.587 I-1.949 J-2.28
N11535 G1 X576.567 Y488.246
N11540 G2 X576.629 Y488.189 I-2.012 J-2.225
N11545 G1 X576.996 Y487.838
N11550 G2 X577.061 Y487.774 I-2.074 J-2.168
N11555 G1 X577.417 Y487.412
N11560 G2 X577.48 Y487.345 I-2.139 J-2.104
N11565 G1 X577.825 Y486.972
N11570 G2 X577.884 Y486.906 I-2.202 J-2.037
N11575 G1 X578.217 Y486.524
N11580 G2 X578.285 Y486.444 I-2.261 J-1.971
N11585 G1 X578.605 Y486.05
N11590 G2 X578.665 Y485.974 I-2.329 J-1.891
N11595 G1 X578.972 Y485.57
N11600 G2 X579.032 Y485.488 I-2.389 J-1.815
N11605 G1 X579.325 Y485.074
N11610 G2 X579.385 Y484.986 I-2.449 J-1.733
N11615 G1 X579.663 Y484.562
N11620 G2 X579.719 Y484.473 I-2.509 J-1.645
N11625 G1 X579.981 Y484.041
N11630 G2 X580.037 Y483.944 I-2.565 J-1.556
N11635 G1 X580.282 Y483.504
N11640 G2 X580.335 Y483.406 I-2.621 J-1.459
N11645 G1 X580.564 Y482.956
N11650 G2 X580.615 Y482.85 I-2.674 J-1.361
N11655 G1 X580.826 Y482.392
N11660 G2 X580.868 Y482.295 I-2.725 J-1.255
N11665 G1 X581.063 Y481.829
N11670 G2 X581.108 Y481.717 I-2.767 J-1.158
N11675 G1 X581.285 Y481.241
N11680 G2 X581.323 Y481.131 I-2.812 J-1.046
N11685 G1 X581.481 Y480.65
N11690 G2 X581.515 Y480.541 I-2.85 J-0.936
N11695 G1 X581.654 Y480.056
N11700 G2 X581.682 Y479.948 I-2.884 J-0.827
N11705 G1 X581.804 Y479.458
N11710 G2 X581.829 Y479.347 I-2.913 J-0.719
N11715 G1 X581.931 Y478.854
N11720 G2 X581.951 Y478.746 I-2.938 J-0.608
N11725 G1 X582.035 Y478.249
N11730 G2 X582.052 Y478.135 I-2.958 J-0.5
N11735 G1 X582.117 Y477.634
N11740 G2 X582.129 Y477.532 I-2.975 J-0.386
N11745 G1 X582.177 Y477.027
N11750 G2 X582.186 Y476.889 I-2.987 J-0.284
N11755 G1 X582.234 Y475.906
N11760 X582.235 Y475.902
N11765 X582.281 Y474.915
N11770 X582.33 Y473.919
N11775 Y473.918
N11780 X582.379 Y472.912
N11785 X582.38 Y472.911
N11790 X582.428 Y471.9
N11795 X582.479 Y470.882
N11800 Y470.881
N11805 X582.53 Y469.854
N11810 X582.582 Y468.821
N11815 X582.636 Y467.779
N11820 Y467.778
N11825 X582.69 Y466.728
N11830 X582.746 Y465.671
N11835 X582.803 Y464.607
N11840 X582.861 Y463.534
N11845 X582.921 Y462.454
N11850 X582.983 Y461.366
N11855 X583.046 Y460.27
N11860 X583.112 Y459.167
N11865 X583.178 Y458.054
N11870 X583.247 Y456.934
N11875 X583.318 Y455.807
N11880 X583.392 Y454.672
N11885 X583.467 Y453.528
N11890 X583.545 Y452.376
N11895 X583.626 Y451.214
N11900 G2 X580.633 Y448.006 I-2.993 J-0.208
N11905 G1 X553.262
N11910 G2 X551.141 Y448.885 J3
N11915 G3 X551.105 I-0.018 J-0.018
N11920 Y448.849 I0.018 J-0.018
N11925 G2 X551.984 Y446.727 I-2.121 J-2.122
N11930 G1 Y440.284
N11935 G2 X551.105 Y438.163 I-3
N11940 G3 Y438.127 I0.018 J-0.018
N11945 X551.141 I0.018 J0.018
N11950 G2 X553.262 Y439.006 I2.121 J-2.121
N11955 G1 X581.862
N11960 G2 X584.848 Y436.294 J-3
N11965 G1 X585.027 Y434.441
N11970 X585.213 Y432.575
N11975 X585.408 Y430.69
N11980 X585.611 Y428.785
N11985 X585.822 Y426.863
N11990 X586.044 Y424.921
N11995 X586.275 Y422.96
N12000 X586.515 Y420.981
N12005 X586.767 Y418.981
N12010 X587.027 Y416.962
N12015 X587.3 Y414.924
N12020 X587.582 Y412.864
N12025 X587.877 Y410.786
N12030 X588.182 Y408.687
N12035 X588.499 Y406.568
N12040 X588.828 Y404.43
N12045 X589.17 Y402.27
N12050 X589.524 Y400.089
N12055 X589.891 Y397.889
N12060 X590.272 Y395.667
N12065 X590.666 Y393.424
N12070 X591.073 Y391.16
N12075 X591.494 Y388.876
N12080 X591.932 Y386.564
N12085 G2 X588.984 Y383.006 I-2.948 J-0.558
N12090 G1 X523.263
N12095 G3 X522.663 Y382.406 J-0.6 F2388.4
N12100 G1 Y381.806
N12105 Y381.712 Z-11.993
N12110 Y381.621 Z-11.971
N12115 Y381.534 Z-11.935
N12120 Y381.453 Z-11.885
N12125 Y381.382 Z-11.824
N12130 Y381.321 Z-11.753
N12135 Y381.271 Z-11.672
N12140 Y381.235 Z-11.585
N12145 Y381.213 Z-11.494
N12150 Y381.206 Z-11.4
N12155 G0 Z5
N12160 X523.863
N12165 G1 Z-5 F796.1
N12170 Z-16.4
N12175 Y381.213 Z-16.494 F2388.4
N12180 Y381.235 Z-16.585
N12185 Y381.271 Z-16.672
N12190 Y381.321 Z-16.753
N12195 Y381.382 Z-16.824
N12200 Y381.453 Z-16.885
N12205 Y381.534 Z-16.935
N12210 Y381.621 Z-16.971
N12215 Y381.712 Z-16.993
N12220 Y381.806 Z-17
N12225 Y382.406
N12230 G3 X523.263 Y383.006 I-0.6
N12235 G1 X523.262 F1500
N12240 G2 X521.141 Y383.885 J3
N12245 G3 X521.105 I-0.018 J-0.018
N12250 Y383.849 I0.018 J-0.018
N12255 G2 X521.984 Y381.727 I-2.121 J-2.122
N12260 G1 Y371.006
N12265 G2 X518.984 Y368.006 I-3
N12270 G1 X491.984
N12275 Z-15
N12280 X475.984
N12285 Z-17 F796.1
N12290 X421.984 F1500
N12295 Z-15
N12300 X405.984
N12305 Z-17 F796.1
N12310 X378.984 F1500
N12315 G2 X375.984 Y371.006 J3
N12320 G1 Y381.727
N12325 G2 X376.863 Y383.849 I3
N12330 G3 Y383.885 I-0.018 J0.018
N12335 X376.827 I-0.018 J-0.018
N12340 G2 X374.705 Y383.006 I-2.122 J2.121
N12345 G1 X352.181
N12350 Z-15
N12355 X336.181
N12360 Z-17 F796.1
N12365 X313.657 F1500
N12370 G2 X311.987 Y388.498 J3
N12375 G1 X314.522 Y390.197
N12380 X317.163 Y392.012
N12385 X318.493 Y392.944
N12390 X319.821 Y393.888
N12395 X321.13 Y394.834
N12400 X322.411 Y395.775
N12405 X323.65 Y396.704
N12410 X324.849 Y397.622
N12415 X326.013 Y398.535
N12420 X327.141 Y399.442
N12425 X328.234 Y400.345
N12430 X329.288 Y401.242
N12435 X330.302 Y402.135
N12440 X331.28 Y403.025
N12445 X332.217 Y403.913
N12450 X333.113 Y404.795
N12455 X333.968 Y405.677
N12460 X334.783 Y406.556
N12465 X335.552 Y407.432
N12470 X336.071 Y408.055
N12475 Z-15
N12480 X336.281 Y408.308
N12485 X336.963 Y409.178
N12490 X337.592 Y410.034
N12495 X338.169 Y410.877
N12500 X338.699 Y411.71
N12505 X339.181 Y412.531
N12510 X339.618 Y413.339
N12515 X340.011 Y414.138
N12520 X340.362 Y414.929
N12525 X340.674 Y415.713
N12530 X340.947 Y416.492
N12535 X341.185 Y417.269
N12540 X341.389 Y418.044
N12545 X341.559 Y418.817
N12550 X341.697 Y419.594
N12555 X341.804 Y420.376
N12560 X341.882 Y421.163
N12565 X341.93 Y421.958
N12570 X341.951 Y422.765
N12575 X341.949 Y422.941
N12580 Z-17 F796.1
N12585 X341.944 Y423.582 F1500
N12590 X341.909 Y424.413
N12595 X341.85 Y425.257
N12600 X341.764 Y426.111
N12605 X341.655 Y426.977
N12610 X341.523 Y427.852
N12615 X341.37 Y428.739
N12620 X341.198 Y429.638
N12625 X341.006 Y430.55
N12630 X340.799 Y431.473
N12635 X340.575 Y432.407
N12640 X340.339 Y433.351
N12645 X339.826 Y435.293
N12650 X339.28 Y437.28
N12655 X338.708 Y439.336
N12660 G2 X338.705 Y439.346 I2.89 J0.804
N12665 G1 X338.122 Y441.47
N12670 G2 X338.114 Y441.501 I2.893 J0.794
N12675 G1 X337.54 Y443.685
N12680 G2 X337.531 Y443.719 I2.901 J0.763
N12685 G1 X337.252 Y444.833
N12690 G2 X337.245 Y444.861 I2.91 J0.729
N12695 G1 X336.974 Y445.989
N12700 G2 X336.966 Y446.022 I2.917 J0.701
N12705 G1 X336.705 Y447.164
N12710 G2 X336.697 Y447.202 I2.925 J0.668
N12715 G1 X336.449 Y448.357
N12720 G2 X336.441 Y448.395 I2.933 J0.63
N12725 G1 X336.206 Y449.563
N12730 G2 X336.196 Y449.613 I2.941 J0.592
N12735 G1 X335.979 Y450.794
N12740 G2 X335.971 Y450.84 I2.951 J0.542
N12745 G1 X335.771 Y452.034
N12750 G2 X335.763 Y452.09 I2.959 J0.496
N12755 G1 X335.583 Y453.296
N12760 G2 X335.575 Y453.355 I2.967 J0.44
N12765 G1 X335.419 Y454.572
N12770 G2 X335.412 Y454.633 I2.976 J0.381
N12775 G1 X335.28 Y455.862
N12780 G2 X335.274 Y455.929 I2.983 J0.32
N12785 G1 X335.169 Y457.17
N12790 G2 X335.164 Y457.241 I2.989 J0.253
N12795 G1 X335.088 Y458.491
N12800 G2 X335.084 Y458.564 I2.994 J0.182
N12805 G1 X335.038 Y459.826
N12810 G2 X335.036 Y459.904 I2.998 J0.109
N12815 G1 X335.023 Y461.174
N12820 G2 Y461.255 I3 J0.031
N12825 G1 X335.044 Y462.503
N12830 G2 X335.047 Y462.589 I3 J-0.05
N12835 G1 X335.102 Y463.802
N12840 G2 X335.107 Y463.884 I2.997 J-0.136
N12845 G1 X335.193 Y465.063
N12850 G2 X335.2 Y465.148 I2.992 J-0.218
N12855 G1 X335.316 Y466.291
N12860 G2 X335.327 Y466.38 I2.985 J-0.303
N12865 G1 X335.473 Y467.489
N12870 G2 X335.486 Y467.577 I2.974 J-0.392
N12875 G1 X335.66 Y468.65
N12880 G2 X335.675 Y468.738 I2.961 J-0.48
N12885 G1 X335.75 Y469.123
N12890 Z-15
N12895 X335.875 Y469.775
N12900 G2 X335.895 Y469.868 I2.946 J-0.568
N12905 G1 X336.121 Y470.869
N12910 G2 X336.144 Y470.963 I2.926 J-0.661
N12915 G1 X336.395 Y471.928
N12920 G2 X336.421 Y472.023 I2.903 J-0.755
N12925 G1 X336.695 Y472.95
N12930 G2 X336.724 Y473.043 I2.877 J-0.85
N12935 G1 X337.019 Y473.934
N12940 G2 X337.054 Y474.034 I2.848 J-0.943
N12945 G1 X337.371 Y474.889
N12950 G2 X337.411 Y474.99 I2.813 J-1.043
N12955 G1 X337.758 Y475.831
N12960 G2 X337.803 Y475.934 I2.773 J-1.144
N12965 G1 X338.182 Y476.763
N12970 G2 X338.237 Y476.877 I2.728 J-1.247
N12975 G1 X338.651 Y477.69
N12980 G2 X338.695 Y477.775 I2.673 J-1.361
N12985 G1 X338.915 Y478.175
N12990 G2 X338.947 Y478.232 I2.629 J-1.446
N12995 G1 X339.175 Y478.626
N13000 G2 X339.215 Y478.692 I2.597 J-1.503
N13005 G1 X339.453 Y479.08
N13010 G2 X339.491 Y479.14 I2.557 J-1.569
N13015 G1 X339.738 Y479.522
N13020 G2 X339.779 Y479.584 I2.519 J-1.629
N13025 G1 X340.035 Y479.959
N13030 G2 X340.079 Y480.021 I2.478 J-1.691
N13035 G1 X340.344 Y480.389
N13040 G2 X340.394 Y480.457 I2.434 J-1.753
N13045 G1 X340.669 Y480.817
N13050 G2 X340.721 Y480.884 I2.384 J-1.821
N13055 G1 X341.006 Y481.236
N13060 G2 X341.06 Y481.3 I2.332 J-1.888
N13065 G1 X341.354 Y481.643
N13070 G2 X341.417 Y481.714 I2.278 J-1.952
N13075 G1 X341.722 Y482.048
N13080 G2 X341.783 Y482.113 I2.215 J-2.023
N13085 G1 X342.096 Y482.436
N13090 G2 X342.162 Y482.503 I2.154 J-2.088
N13095 G1 X342.484 Y482.815
N13100 G2 X342.557 Y482.883 I2.088 J-2.155
N13105 G1 X342.889 Y483.184
N13110 G2 X342.964 Y483.25 I2.015 J-2.223
N13115 G1 X343.083 Y483.35
N13120 Z-17 F796.1
N13125 X343.305 Y483.539 F1500
N13130 G2 X343.387 Y483.606 I1.94 J-2.289
N13135 G1 X343.737 Y483.882
N13140 G2 X343.818 Y483.943 I1.858 J-2.356
N13145 G1 X344.177 Y484.207
N13150 G2 X344.267 Y484.271 I1.777 J-2.417
N13155 G1 X344.636 Y484.522
N13160 G2 X344.732 Y484.585 I1.687 J-2.481
N13165 G1 X345.111 Y484.822
N13170 G2 X345.202 Y484.876 I1.591 J-2.544
N13175 G1 X345.59 Y485.1
N13180 G2 X345.69 Y485.155 I1.5 J-2.598
N13185 G1 X346.088 Y485.365
N13190 G2 X346.186 Y485.415 I1.4 J-2.653
N13195 G1 X346.593 Y485.611
N13200 G2 X346.7 Y485.66 I1.302 J-2.703
N13205 G1 X347.112 Y485.839
N13210 G2 X347.223 Y485.884 I1.195 J-2.752
N13215 G1 X347.641 Y486.046
N13220 G2 X347.744 Y486.084 I1.084 J-2.797
N13225 G1 X348.166 Y486.23
N13230 G2 X348.278 Y486.266 I0.981 J-2.835
N13235 G1 X348.704 Y486.395
N13240 G2 X348.806 Y486.424 I0.869 J-2.871
N13245 G1 X349.237 Y486.538
N13250 G2 X349.343 Y486.564 I0.767 J-2.9
N13255 G1 X349.777 Y486.662
N13260 G2 X349.881 Y486.684 I0.661 J-2.926
N13265 G1 X350.32 Y486.767
N13270 G2 X350.427 Y486.785 I0.557 J-2.948
N13275 G1 X350.869 Y486.852
N13280 G2 X350.965 Y486.865 I0.45 J-2.966
N13285 G1 X351.411 Y486.918
N13290 G2 X351.512 Y486.928 I0.354 J-2.979
N13295 G1 X351.961 Y486.966
N13300 G2 X352.062 Y486.973 I0.253 J-2.989
N13305 G1 X352.514 Y486.996
N13310 G2 X352.606 Y486.999 I0.152 J-2.996
N13315 G1 X353.058 Y487.008
N13320 G2 X353.145 Y487.009 I0.06 J-2.999
N13325 G1 X353.597 Y487.005
N13330 G2 X353.689 Y487.003 I-0.027 J-3
N13335 G1 X354.142 Y486.985
N13340 G2 X354.222 Y486.98 I-0.119 J-2.998
N13345 G1 X354.673 Y486.95
N13350 G2 X354.752 Y486.944 I-0.199 J-2.993
N13355 G1 X355.203 Y486.902
N13360 G2 X355.282 Y486.894 I-0.278 J-2.987
N13365 G1 X355.732 Y486.84
N13370 G2 X355.806 Y486.83 I-0.357 J-2.979
N13375 G1 X356.254 Y486.765
N13380 G2 X356.326 Y486.754 I-0.431 J-2.969
N13385 G1 X356.773 Y486.678
N13390 G2 X356.869 Y486.66 I-0.503 J-2.958
N13395 G1 X357.757 Y486.479
N13400 G2 X357.877 Y486.452 I-0.599 J-2.94
N13405 G1 X358.756 Y486.235
N13410 G2 X358.865 Y486.205 I-0.719 J-2.913
N13415 G1 X359.739 Y485.954
N13420 G2 X359.84 Y485.924 I-0.828 J-2.883
N13425 G1 X360.709 Y485.641
N13430 G2 X360.799 Y485.61 I-0.929 J-2.853
N13435 G1 X361.66 Y485.299
N13440 G2 X361.743 Y485.267 I-1.019 J-2.822
N13445 G1 X362.596 Y484.93
N13450 G2 X362.672 Y484.899 I-1.102 J-2.79
N13455 G1 X363.515 Y484.539
N13460 G2 X363.583 Y484.509 I-1.178 J-2.759
N13465 G1 X364.413 Y484.13
N13470 G2 X364.473 Y484.102 I-1.246 J-2.729
N13475 G1 X365.29 Y483.707
N13480 G2 X366.983 Y480.933 I-1.306 J-2.701
N13485 G1 X366.957 Y479.841
N13490 X366.942 Y478.761
N13495 X366.941 Y477.676
N13500 X366.953 Y476.585
N13505 X366.979 Y475.492
N13510 X367.019 Y474.398
N13515 X367.075 Y473.304
N13520 X367.147 Y472.212
N13525 X367.235 Y471.122
N13530 X367.341 Y470.037
N13535 X367.465 Y468.96
N13540 X367.609 Y467.887
N13545 X367.771 Y466.822
N13550 X367.953 Y465.768
N13555 X368.156 Y464.725
N13560 X368.379 Y463.694
N13565 X368.625 Y462.678
N13570 X368.893 Y461.676
N13575 X369.182 Y460.69
N13580 X369.498 Y459.717
N13585 X369.839 Y458.755
N13590 X370.205 Y457.813
N13595 X370.599 Y456.887
N13600 X371.021 Y455.979
N13605 X371.478 Y455.078
N13610 X371.706 Y454.655
N13615 X371.948 Y454.229
N13620 X372.2 Y453.802
N13625 X372.458 Y453.385
N13630 X372.722 Y452.975
N13635 X372.996 Y452.569
N13640 X373.274 Y452.173
N13645 X373.564 Y451.782
N13650 X373.862 Y451.394
N13655 X374.165 Y451.018
N13660 X374.474 Y450.651
N13665 X374.791 Y450.293
N13670 X375.116 Y449.942
N13675 X375.447 Y449.601
N13680 X375.785 Y449.268
N13685 X376.128 Y448.946
N13690 X376.479 Y448.632
N13695 X376.837 Y448.327
N13700 X377.199 Y448.033
N13705 X377.571 Y447.748
N13710 X377.951 Y447.47
N13715 X378.334 Y447.204
N13720 X378.726 Y446.948
N13725 X379.128 Y446.699
N13730 X379.535 Y446.461
N13735 X379.948 Y446.233
N13740 X380.366 Y446.016
N13745 X380.792 Y445.811
N13750 X381.045 Y445.695
N13755 Z-15
N13760 X381.223 Y445.614
N13765 X381.655 Y445.43
N13770 X382.094 Y445.257
N13775 X382.534 Y445.096
N13780 X382.98 Y444.946
N13785 X383.434 Y444.805
N13790 X383.888 Y444.676
N13795 X384.346 Y444.559
N13800 X384.804 Y444.453
N13805 X385.268 Y444.359
N13810 X385.735 Y444.274
N13815 X386.205 Y444.202
N13820 X386.677 Y444.141
N13825 X387.148 Y444.091
N13830 X387.622 Y444.053
N13835 X388.099 Y444.026
N13840 X388.575 Y444.011
N13845 X389.053 Y444.006
N13850 X389.527 Y444.013
N13855 X390 Y444.032
N13860 X390.477 Y444.063
N13865 X390.952 Y444.104
N13870 X391.426 Y444.157
N13875 X391.897 Y444.222
N13880 X392.365 Y444.297
N13885 X392.83 Y444.384
N13890 X393.297 Y444.483
N13895 X393.758 Y444.592
N13900 X394.216 Y444.714
N13905 X394.671 Y444.846
N13910 X395.119 Y444.988
N13915 X395.565 Y445.142
N13920 X396.001 Y445.306
N13925 X396.435 Y445.481
N13930 X396.866 Y445.668
N13935 X397.045 Y445.751
N13940 Z-17 F796.1
N13945 X397.291 Y445.865 F1500
N13950 X397.71 Y446.072
N13955 X398.124 Y446.29
N13960 X398.532 Y446.518
N13965 X398.936 Y446.758
N13970 X399.332 Y447.006
N13975 X399.725 Y447.268
N13980 X400.112 Y447.539
N13985 X400.491 Y447.82
N13990 X400.866 Y448.112
N13995 X401.232 Y448.412
N14000 X401.592 Y448.724
N14005 X401.943 Y449.041
N14010 X402.286 Y449.369
N14015 X402.622 Y449.703
N14020 X402.949 Y450.046
N14025 X403.272 Y450.4
N14030 X403.585 Y450.76
N14035 X403.893 Y451.129
N14040 X404.192 Y451.504
N14045 X404.483 Y451.886
N14050 X404.767 Y452.278
N14055 X405.046 Y452.678
N14060 X405.317 Y453.086
N14065 X405.58 Y453.497
N14070 X405.837 Y453.918
N14075 X406.086 Y454.345
N14080 X406.329 Y454.78
N14085 X406.557 Y455.206
N14090 X407.009 Y456.11
N14095 X407.429 Y457.024
N14100 X407.819 Y457.955
N14105 X408.183 Y458.904
N14110 X408.521 Y459.87
N14115 X408.833 Y460.848
N14120 X409.12 Y461.838
N14125 X409.382 Y462.838
N14130 X409.622 Y463.847
N14135 X409.84 Y464.863
N14140 X410.037 Y465.893
N14145 X410.215 Y466.932
N14150 X410.372 Y467.983
N14155 X410.512 Y469.043
N14160 X410.633 Y470.109
N14165 X410.738 Y471.183
N14170 X410.825 Y472.259
N14175 X410.895 Y473.341
N14180 X410.95 Y474.425
N14185 X410.989 Y475.513
N14190 X411.015 Y476.599
N14195 X411.027 Y477.682
N14200 X411.025 Y478.763
N14205 X411.01 Y479.844
N14210 X410.985 Y480.936
N14215 G2 X412.828 Y483.774 I2.999 J0.07
N14220 G1 X413.587 Y484.091
N14225 G2 X413.642 Y484.113 I1.156 J-2.768
N14230 G1 X414.401 Y484.413
N14235 G2 X414.46 Y484.436 I1.102 J-2.79
N14240 G1 X415.218 Y484.717
N14245 G2 X415.279 Y484.739 I1.043 J-2.813
N14250 G1 X416.035 Y485.001
N14255 G2 X416.099 Y485.022 I0.982 J-2.835
N14260 G1 X416.852 Y485.264
N14265 G2 X416.929 Y485.288 I0.918 J-2.856
N14270 G1 X417.679 Y485.507
N14275 G2 X417.758 Y485.529 I0.841 J-2.88
N14280 G1 X418.504 Y485.725
N14285 G2 X418.588 Y485.745 I0.762 J-2.902
N14290 G1 X419.329 Y485.917
N14295 G2 X419.423 Y485.938 I0.678 J-2.922
N14300 G1 X420.159 Y486.084
N14305 G2 X420.26 Y486.102 I0.584 J-2.943
N14310 G1 X420.989 Y486.221
N14315 G2 X421.093 Y486.236 I0.483 J-2.961
N14320 G1 X421.816 Y486.328
N14325 G2 X421.932 Y486.34 I0.379 J-2.976
N14330 G1 X422.648 Y486.403
N14335 G2 X422.777 Y486.412 I0.263 J-2.988
N14340 G1 X423.11 Y486.427
N14345 Z-15
N14350 X423.494 Y486.444
N14355 G2 X423.632 Y486.447 I0.134 J-2.997
N14360 G1 X424.348 Y486.446
N14365 G2 X424.495 Y486.442 I-0.004 J-3
N14370 G1 X425.209 Y486.406
N14375 G2 X425.365 Y486.394 I-0.151 J-2.996
N14380 G1 X426.075 Y486.321
N14385 G2 X426.205 Y486.305 I-0.307 J-2.984
N14390 G1 X426.558 Y486.253
N14395 G2 X426.641 Y486.24 I-0.437 J-2.968
N14400 G1 X426.993 Y486.178
N14405 G2 X427.086 Y486.16 I-0.52 J-2.955
N14410 G1 X427.436 Y486.087
N14415 G2 X427.527 Y486.066 I-0.613 J-2.937
N14420 G1 X427.875 Y485.982
N14425 G2 X427.965 Y485.959 I-0.704 J-2.916
N14430 G1 X428.311 Y485.864
N14435 G2 X428.408 Y485.836 I-0.794 J-2.893
N14440 G1 X428.752 Y485.729
N14445 G2 X428.845 Y485.698 I-0.891 J-2.865
N14450 G1 X429.182 Y485.581
N14455 G2 X429.28 Y485.545 I-0.984 J-2.834
N14460 G1 X429.611 Y485.417
N14465 G2 X429.698 Y485.382 I-1.082 J-2.798
N14470 G1 X430.024 Y485.244
N14475 G2 X430.121 Y485.201 I-1.169 J-2.763
N14480 G1 X430.441 Y485.052
N14485 G2 X430.53 Y485.008 I-1.266 J-2.72
N14490 G1 X430.844 Y484.849
N14495 G2 X430.932 Y484.803 I-1.355 J-2.676
N14500 G1 X431.24 Y484.634
N14505 G2 X431.325 Y484.585 I-1.443 J-2.63
N14510 G1 X431.629 Y484.405
N14515 G2 X431.718 Y484.351 I-1.528 J-2.581
N14520 G1 X432.015 Y484.161
N14525 G2 X432.095 Y484.108 I-1.617 J-2.527
N14530 G1 X432.388 Y483.907
N14535 G2 X432.464 Y483.853 I-1.697 J-2.474
N14540 G1 X432.752 Y483.642
N14545 G2 X432.829 Y483.583 I-1.773 J-2.42
N14550 G1 X433.112 Y483.362
N14555 G2 X433.177 Y483.309 I-1.851 J-2.361
N14560 G1 X433.454 Y483.079
N14565 G2 X433.531 Y483.014 I-1.916 J-2.308
N14570 G1 X433.8 Y482.775
N14575 G2 X433.856 Y482.723 I-1.993 J-2.243
N14580 G1 X434.119 Y482.477
N14585 G2 X434.208 Y482.391 I-2.049 J-2.191
N14590 G1 X434.712 Y481.879
N14595 G2 X434.817 Y481.767 I-2.138 J-2.105
N14600 G1 X435.295 Y481.229
N14605 G2 X435.386 Y481.12 I-2.243 J-1.993
N14610 G1 X435.838 Y480.56
N14615 G2 X435.913 Y480.464 I-2.334 J-1.884
N14620 G1 X436.342 Y479.886
N14625 G2 X436.408 Y479.793 I-2.409 J-1.788
N14630 G1 X436.814 Y479.2
N14635 G2 X436.871 Y479.114 I-2.475 J-1.695
N14640 G1 X437.128 Y478.709
N14645 Z-17 F796.1
N14650 X437.258 Y478.505 F1500
N14655 G2 X437.305 Y478.428 I-2.532 J-1.609
N14660 G1 X437.681 Y477.795
N14665 G2 X437.723 Y477.723 I-2.579 J-1.532
N14670 G1 X438.089 Y477.066
N14675 G2 X438.124 Y477 I-2.621 J-1.46
N14680 G1 X438.482 Y476.318
N14685 G2 X438.515 Y476.255 I-2.656 J-1.394
N14690 G1 X438.864 Y475.55
N14695 G2 X438.889 Y475.498 I-2.689 J-1.331
N14700 G1 X439.232 Y474.77
N14705 G2 X439.255 Y474.719 I-2.714 J-1.279
N14710 G1 X439.592 Y473.968
N14715 G2 X439.61 Y473.927 I-2.737 J-1.228
N14720 G1 X439.943 Y473.154
N14725 G2 X439.96 Y473.114 I-2.755 J-1.187
N14730 G1 X440.288 Y472.321
N14735 G2 X440.309 Y472.27 I-2.772 J-1.147
N14740 G1 X440.957 Y470.619
N14745 G2 X440.975 Y470.57 I-2.793 J-1.096
N14750 G1 X441.619 Y468.841
N14755 G2 X441.632 Y468.808 I-2.811 J-1.047
N14760 G1 X442.286 Y466.986
N14765 G2 X442.292 Y466.967 I-2.824 J-1.014
N14770 G1 X442.964 Y465.056
N14775 X442.967 Y465.049
N14780 X443.661 Y463.06
N14785 X444.382 Y461.007
N14790 X445.134 Y458.901
N14795 X445.924 Y456.753
N14800 X446.761 Y454.562
N14805 X447.193 Y453.464
N14810 X447.394 Y452.966
N14815 Z-15
N14820 X447.642 Y452.355
N14825 X448.103 Y451.24
N14830 X448.578 Y450.125
N14835 X449.069 Y449.006
N14840 X449.575 Y447.885
N14845 X450.097 Y446.766
N14850 X450.636 Y445.647
N14855 X451.193 Y444.53
N14860 X451.769 Y443.416
N14865 X452.362 Y442.306
N14870 X452.976 Y441.202
N14875 X453.609 Y440.105
N14880 X454.265 Y439.012
N14885 X454.503 Y438.632
N14890 Z-17 F796.1
N14895 X454.943 Y437.928 F1500
N14900 X455.645 Y436.854
N14905 X456.37 Y435.794
N14910 X457.115 Y434.753
N14915 X457.881 Y433.734
N14920 X458.668 Y432.741
N14925 X459.476 Y431.777
N14930 X460.31 Y430.836
N14935 X460.725 Y430.39
N14940 X461.15 Y429.946
N14945 X461.577 Y429.514
N14950 X462.013 Y429.089
N14955 X462.45 Y428.677
N14960 X462.894 Y428.275
N14965 X463.347 Y427.88
N14970 X463.805 Y427.496
N14975 X464.268 Y427.123
N14980 X464.737 Y426.763
N14985 X465.211 Y426.414
N14990 X465.693 Y426.079
N14995 X466.178 Y425.757
N15000 X466.668 Y425.451
N15005 X467.168 Y425.156
N15010 X467.669 Y424.879
N15015 X468.172 Y424.618
N15020 X468.681 Y424.375
N15025 X469.199 Y424.145
N15030 X469.718 Y423.935
N15035 X470.239 Y423.744
N15040 X470.76 Y423.571
N15045 X471.284 Y423.418
N15050 X471.808 Y423.282
N15055 X472.334 Y423.167
N15060 X472.864 Y423.069
N15065 X473.396 Y422.99
N15070 X473.933 Y422.93
N15075 X474.474 Y422.888
N15080 X475.02 Y422.866
N15085 X475.571 Y422.861
N15090 X476.125 Y422.876
N15095 X476.68 Y422.91
N15100 X477.235 Y422.962
N15105 X477.79 Y423.033
N15110 X478.345 Y423.12
N15115 X478.899 Y423.224
N15120 X479.456 Y423.346
N15125 X480.012 Y423.482
N15130 X480.567 Y423.635
N15135 X481.123 Y423.803
N15140 X481.677 Y423.986
N15145 X482.233 Y424.183
N15150 X482.787 Y424.393
N15155 X483.339 Y424.615
N15160 X483.889 Y424.851
N15165 X484.267 Y425.021
N15170 Z-15
N15175 X484.441 Y425.099
N15180 X484.988 Y425.357
N15185 X485.528 Y425.623
N15190 X486.057 Y425.896
N15195 X487.138 Y426.485
N15200 X488.19 Y427.099
N15205 X489.22 Y427.736
N15210 X490.225 Y428.393
N15215 X491.205 Y429.063
N15220 X492.154 Y429.741
N15225 X493.071 Y430.421
N15230 X493.997 Y431.13
N15235 X494.955 Y431.89
N15240 X495.944 Y432.7
N15245 X496.964 Y433.565
N15250 X497.493 Y434.028
N15255 Z-17 F796.1
N15260 X498.012 Y434.483 F1500
N15265 X499.087 Y435.458
N15270 X500.189 Y436.491
N15275 X501.317 Y437.585
N15280 X502.469 Y438.74
N15285 X503.642 Y439.96
N15290 X504.838 Y441.244
N15295 X506.054 Y442.596
N15300 X507.289 Y444.018
N15305 X508.543 Y445.511
N15310 X509.812 Y447.075
N15315 X511.097 Y448.715
N15320 X512.397 Y450.433
N15325 X513.695 Y452.206
N15330 X514.961 Y453.986
N15335 X516.194 Y455.767
N15340 X517.399 Y457.548
N15345 X518.579 Y459.325
N15350 X519.735 Y461.095
N15355 X520.87 Y462.854
N15360 X523.097 Y466.336
N15365 X523.098 Y466.339
N15370 X525.272 Y469.73
N15375 G2 X525.282 Y469.745 I2.526 J-1.619
N15380 G1 X526.355 Y471.397
N15385 G2 X526.367 Y471.415 I2.516 J-1.634
N15390 G1 X527.435 Y473.034
N15395 G2 X527.45 Y473.057 I2.504 J-1.652
N15400 G1 X528.515 Y474.639
N15405 G2 X528.536 Y474.669 I2.489 J-1.675
N15410 G1 X529.602 Y476.212
N15415 G2 X529.628 Y476.249 I2.468 J-1.705
N15420 G1 X530.698 Y477.749
N15425 G2 X530.729 Y477.792 I2.442 J-1.742
N15430 G1 X531.805 Y479.246
N15435 G2 X531.842 Y479.296 I2.411 J-1.785
N15440 G1 X532.928 Y480.701
N15445 G2 X532.96 Y480.741 I2.374 J-1.835
N15450 G1 X533.507 Y481.424
N15455 G2 X533.532 Y481.455 I2.342 J-1.875
N15460 G1 X534.083 Y482.125
N15465 G2 X534.109 Y482.156 I2.317 J-1.906
N15470 G1 X534.663 Y482.811
N15475 G2 X534.691 Y482.844 I2.291 J-1.937
N15480 G1 X535.25 Y483.486
N15485 G2 X535.283 Y483.522 I2.263 J-1.97
N15490 G1 X535.713 Y484.001
N15495 Z-15
N15500 X535.847 Y484.149
N15505 G2 X535.878 Y484.184 I2.23 J-2.006
N15510 G1 X536.446 Y484.796
N15515 G2 X536.482 Y484.834 I2.199 J-2.041
N15520 G1 X537.056 Y485.431
N15525 G2 X537.096 Y485.471 I2.163 J-2.079
N15530 G1 X537.675 Y486.051
N15535 G2 X537.716 Y486.092 I2.123 J-2.119
N15540 G1 X538.302 Y486.657
N15545 G2 X538.346 Y486.699 I2.082 J-2.16
N15550 G1 X538.938 Y487.247
N15555 G2 X538.986 Y487.29 I2.038 J-2.202
N15560 G1 X539.585 Y487.821
N15565 G2 X539.633 Y487.862 I1.99 J-2.245
N15570 G1 X540.238 Y488.376
N15575 G2 X540.297 Y488.426 I1.942 J-2.286
N15580 G1 X540.911 Y488.921
N15585 G2 X540.964 Y488.962 I1.883 J-2.336
N15590 G1 X541.585 Y489.44
N15595 G2 X541.648 Y489.488 I1.83 J-2.377
N15600 G1 X542.278 Y489.947
N15605 G2 X542.342 Y489.992 I1.767 J-2.425
N15610 G1 X542.98 Y490.432
N15615 G2 X543.049 Y490.478 I1.703 J-2.47
N15620 G1 X543.697 Y490.899
N15625 G2 X543.768 Y490.944 I1.634 J-2.516
N15630 G1 X544.443 Y491.356
N15635 G2 X544.52 Y491.401 I1.563 J-2.561
N15640 G1 X545.237 Y491.81
N15645 G2 X545.324 Y491.858 I1.487 J-2.606
N15650 G1 X546.083 Y492.258
N15655 G2 X546.177 Y492.305 I1.399 J-2.654
N15660 G1 X546.98 Y492.693
N15665 G2 X547.084 Y492.741 I1.305 J-2.701
N15670 G1 X547.931 Y493.111
N15675 G2 X548.042 Y493.157 I1.201 J-2.749
N15680 G1 X548.664 Y493.4
N15685 Z-17 F796.1
N15690 X548.932 Y493.504 F1500
N15695 G2 X549.016 Y493.535 I1.09 J-2.795
N15700 G1 X549.477 Y493.699
N15705 G2 X549.538 Y493.72 I1.005 J-2.826
N15710 G1 X550.011 Y493.877
N15715 G2 X550.072 Y493.897 I0.945 J-2.847
N15720 G1 X550.555 Y494.046
N15725 G2 X550.617 Y494.064 I0.884 J-2.867
N15730 G1 X551.112 Y494.205
N15735 G2 X551.182 Y494.224 I0.822 J-2.885
N15740 G1 X551.688 Y494.355
N15745 G2 X551.752 Y494.371 I0.752 J-2.904
N15750 G1 X552.27 Y494.493
N15755 G2 X552.336 Y494.508 I0.688 J-2.92
N15760 G1 X552.863 Y494.62
N15765 G2 X552.934 Y494.634 I0.623 J-2.935
N15770 G1 X553.474 Y494.735
N15775 G2 X553.545 Y494.747 I0.552 J-2.949
N15780 G1 X554.093 Y494.836
N15785 G2 X554.169 Y494.848 I0.481 J-2.961
N15790 G1 X554.719 Y494.922
N15795 G2 X554.783 Y494.931 I0.405 J-2.972
N15800 G1 X555.334 Y494.994
N15805 G2 X555.404 Y495.001 I0.341 J-2.981
N15810 G1 X555.956 Y495.051
N15815 G2 X556.032 Y495.057 I0.271 J-2.988
N15820 G1 X556.584 Y495.093
N15825 G2 X556.649 Y495.096 I0.195 J-2.994
N15830 G1 X557.202 Y495.12
N15835 G2 X557.272 Y495.122 I0.13 J-2.997
N15840 G1 X557.825 Y495.133
N15845 G2 X557.89 Y495.134 I0.06 J-2.999
N15850 G1 X558.443 Y495.133
N15855 G2 X558.514 Y495.132 I-0.005 J-3
N15860 G1 X559.067 Y495.118
N15865 G2 X559.132 Y495.116 I-0.076 J-2.999
N15870 G1 X559.684 Y495.09
N15875 G2 X559.749 Y495.086 I-0.141 J-2.997
N15880 G1 X560.301 Y495.048
N15885 G2 X560.372 Y495.042 I-0.206 J-2.993
N15890 G1 X560.922 Y494.991
N15895 G2 X560.981 Y494.985 I-0.277 J-2.987
N15900 G1 X561.531 Y494.923
N15905 G2 X561.596 Y494.915 I-0.336 J-2.981
N15910 G1 X562.144 Y494.841
N15915 G2 X562.21 Y494.831 I-0.401 J-2.973
N15920 G1 X562.756 Y494.745
N15925 G2 X562.821 Y494.734 I-0.467 J-2.963
N15930 G1 X563.365 Y494.636
N15935 G2 X563.424 Y494.625 I-0.532 J-2.952
N15940 G1 X563.966 Y494.516
N15945 G2 X564.027 Y494.503 I-0.591 J-2.941
N15950 G1 X564.566 Y494.383
N15955 G2 X564.629 Y494.369 I-0.652 J-2.928
N15960 G1 X565.163 Y494.238
N15965 G2 X565.224 Y494.222 I-0.715 J-2.914
N15970 G1 X565.754 Y494.08
N15975 G2 X565.812 Y494.064 I-0.776 J-2.898
N15980 G1 X566.337 Y493.912
N15985 G2 X566.4 Y493.893 I-0.834 J-2.882
N15990 G1 X566.92 Y493.73
N15995 G2 X566.978 Y493.711 I-0.897 J-2.863
N16000 G1 X567.493 Y493.538
N16005 G2 X567.548 Y493.519 I-0.955 J-2.844
N16010 G1 X568.057 Y493.337
N16015 G2 X568.117 Y493.315 I-1.01 J-2.825
N16020 G1 X568.62 Y493.123
N16025 G2 X568.68 Y493.099 I-1.07 J-2.803
N16030 G1 X569.177 Y492.897
N16035 G2 X569.236 Y492.873 I-1.13 J-2.779
N16040 G1 X569.725 Y492.661
N16045 G2 X569.775 Y492.639 I-1.189 J-2.754
N16050 G1 X570.258 Y492.42
N16055 G2 X570.324 Y492.389 I-1.239 J-2.732
N16060 G1 X570.798 Y492.16
N16065 G2 X570.855 Y492.132 I-1.305 J-2.701
N16070 G1 X571.322 Y491.894
N16075 G2 X571.373 Y491.868 I-1.362 J-2.673
N16080 G1 X571.832 Y491.623
N16085 G2 X571.894 Y491.589 I-1.413 J-2.647
N16090 G1 X572.344 Y491.335
N16095 G2 X572.406 Y491.299 I-1.475 J-2.613
N16100 G1 X572.847 Y491.036
N16105 G2 X572.896 Y491.006 I-1.537 J-2.577
N16110 G1 X573.328 Y490.737
N16115 G2 X573.394 Y490.694 I-1.586 J-2.547
N16120 G1 X573.817 Y490.415
N16125 G2 X573.871 Y490.379 I-1.652 J-2.504
N16130 G1 X574.289 Y490.09
N16135 G2 X574.352 Y490.045 I-1.706 J-2.468
N16140 G1 X574.763 Y489.745
N16145 G2 X574.819 Y489.703 I-1.769 J-2.423
N16150 G1 X575.222 Y489.394
N16155 G2 X575.289 Y489.341 I-1.825 J-2.381
N16160 G1 X575.684 Y489.02
N16165 G2 X575.741 Y488.972 I-1.892 J-2.328
N16170 G1 X576.127 Y488.642
N16175 G2 X576.19 Y488.587 I-1.949 J-2.28
N16180 G1 X576.567 Y488.246
N16185 G2 X576.629 Y488.189 I-2.012 J-2.225
N16190 G1 X576.996 Y487.838
N16195 G2 X577.061 Y487.774 I-2.074 J-2.168
N16200 G1 X577.417 Y487.412
N16205 G2 X577.48 Y487.345 I-2.139 J-2.104
N16210 G1 X577.825 Y486.972
N16215 G2 X577.884 Y486.906 I-2.202 J-2.037
N16220 G1 X578.217 Y486.524
N16225 G2 X578.285 Y486.444 I-2.261 J-1.971
N16230 G1 X578.605 Y486.05
N16235 G2 X578.665 Y485.974 I-2.329 J-1.891
N16240 G1 X578.972 Y485.57
N16245 G2 X579.032 Y485.488 I-2.389 J-1.815
N16250 G1 X579.325 Y485.074
N16255 G2 X579.385 Y484.986 I-2.449 J-1.733
N16260 G1 X579.663 Y484.562
N16265 G2 X579.719 Y484.473 I-2.509 J-1.645
N16270 G1 X579.981 Y484.041
N16275 G2 X580.037 Y483.944 I-2.565 J-1.556
N16280 G1 X580.282 Y483.504
