(1001)
(T1  D=6. CR=0. - ZMIN=-17. - FLAT END MILL)
G90 G94 G91.1 G40 G49 G17
G21
G28 G91 Z0.
G90

(2D CONTOUR1)
M5
T1 M6
S12000 M3
G54
G0 X25.01 Y115.8
G43 Z15. H1
Z7.
G1 Z-5.4 F796.
G19 G2 Y115.2 Z-6. J-0.6 K0. F2388.
G1 Y114.6
G17 G3 X25.61 Y114. I0.6 J0.
G1 X46.721 F1500.
G2 X48.843 Y113.121 I0. J-3.
G1 X48.861 Y113.114
X48.879 Y113.121
X48.887 Y113.139
X48.879 Y113.157
G2 X48. Y115.279 I2.121 J2.122
G1 Y126.721
G2 X48.879 Y128.843 I3. J0.
G1 X48.887 Y128.861
X48.879 Y128.879
X48.861 Y128.886
X48.843 Y128.879
G2 X46.721 Y128. I-2.122 J2.121
G1 X25.279
G2 X23.157 Y128.879 I0. J3.
G1 X23.139 Y128.886
X23.121 Y128.879
X23.113 Y128.861
X23.121 Y128.843
G2 X24. Y126.721 I-2.121 J-2.122
G1 Y115.279
G2 X23.121 Y113.157 I-3. J0.
G1 X23.113 Y113.139
X23.121 Y113.121
X23.139 Y113.114
X23.157 Y113.121
G2 X25.279 Y114. I2.122 J-2.121
G1 X25.61
G3 X26.21 Y114.6 I0. J0.6 F2388.
G1 Y115.2
G19 G3 Y115.8 Z-5.4 J0. K0.6
G0 Z5.
X25.01
G1 Z1. F796.
Z-11.4
G2 Y115.2 Z-12. J-0.6 K0. F2388.
G1 Y114.6
G17 G3 X25.61 Y114. I0.6 J0.
G1 X46.721 F1500.
G2 X48.843 Y113.121 I0. J-3.
G1 X48.861 Y113.114
X48.879 Y113.121
X48.887 Y113.139
X48.879 Y113.157
G2 X48. Y115.279 I2.121 J2.122
G1 Y126.721
G2 X48.879 Y128.843 I3. J0.
G1 X48.887 Y128.861
X48.879 Y128.879
X48.861 Y128.886
X48.843 Y128.879
G2 X46.721 Y128. I-2.122 J2.121
G1 X25.279
G2 X23.157 Y128.879 I0. J3.
G1 X23.139 Y128.886
X23.121 Y128.879
X23.113 Y128.861
X23.121 Y128.843
G2 X24. Y126.721 I-2.121 J-2.122
G1 Y115.279
G2 X23.121 Y113.157 I-3. J0.
G1 X23.113 Y113.139
X23.121 Y113.121
X23.139 Y113.114
X23.157 Y113.121
G2 X25.279 Y114. I2.122 J-2.121
G1 X25.61
G3 X26.21 Y114.6 I0. J0.6 F2388.
G1 Y115.2
G19 G3 Y115.8 Z-11.4 J0. K0.6
G0 Z5.
X25.01
G1 Z-5. F796.
Z-16.4
G2 Y115.2 Z-17. J-0.6 K0. F2388.
G1 Y114.6
G17 G3 X25.61 Y114. I0.6 J0.
G1 X28. F1500.
Z-15.
X44.
Z-17. F796.
X46.721 F1500.
G2 X48.843 Y113.121 I0. J-3.
G1 X48.861 Y113.114
X48.879 Y113.121
X48.887 Y113.139
X48.879 Y113.157
G2 X48. Y115.279 I2.121 J2.122
G1 Y126.721
G2 X48.879 Y128.843 I3. J0.
G1 X48.887 Y128.861
X48.879 Y128.879
X48.861 Y128.886
X48.843 Y128.879
G2 X46.721 Y128. I-2.122 J2.121
G1 X44.
Z-15.
X28.
Z-17. F796.
X25.279 F1500.
G2 X23.157 Y128.879 I0. J3.
G1 X23.139 Y128.886
X23.121 Y128.879
X23.113 Y128.861
X23.121 Y128.843
G2 X24. Y126.721 I-2.121 J-2.122
G1 Y115.279
G2 X23.121 Y113.157 I-3. J0.
G1 X23.113 Y113.139
X23.121 Y113.121
X23.139 Y113.114
X23.157 Y113.121
G2 X25.279 Y114. I2.122 J-2.121
G1 X25.61
G3 X26.21 Y114.6 I0. J0.6 F2388.
G1 Y115.2
G19 G3 Y115.8 Z-16.4 J0. K0.6
G0 Z7.
X25.345 Y36.163
G1 Z-5.4 F796.
X25.346 Y36.17 Z-5.494 F2388.
X25.348 Y36.192 Z-5.585
X25.352 Y36.228 Z-5.672
X25.358 Y36.277 Z-5.753
X25.365 Y36.338 Z-5.824
X25.372 Y36.409 Z-5.885
X25.381 Y36.489 Z-5.935
X25.391 Y36.575 Z-5.971
X25.401 Y36.666 Z-5.993
X25.411 Y36.759 Z-6.
X25.478 Y37.356
G17 G3 X24.947 Y38.018 I-0.596 J0.066
G2 X23.157 Y38.879 I0.331 J2.982 F1500.
G1 X23.139 Y38.886
X23.121 Y38.879
X23.114 Y38.861
X23.121 Y38.843
G2 X24. Y36.721 I-2.121 J-2.121
G1 Y25.279
G2 X23.121 Y23.157 I-3. J0.
G1 X23.114 Y23.139
X23.121 Y23.121
X23.139 Y23.114
X23.157 Y23.121
G2 X25.279 Y24. I2.121 J-2.121
G1 X46.721
G2 X48.843 Y23.121 I0. J-3.
G1 X48.861 Y23.114
X48.879 Y23.121
X48.886 Y23.139
X48.879 Y23.157
G2 X48. Y25.279 I2.121 J2.121
G1 Y36.721
G2 X48.879 Y38.843 I3. J0.
G1 X48.886 Y38.861
X48.879 Y38.879
X48.861 Y38.886
X48.843 Y38.879
G2 X46.721 Y38. I-2.121 J2.121
G1 X25.279
G2 X24.947 Y38.018 I0. J3.
G3 X24.285 Y37.488 I-0.066 J-0.596 F2388.
G1 X24.219 Y36.892
X24.208 Y36.799 Z-5.993
X24.198 Y36.708 Z-5.971
X24.189 Y36.621 Z-5.935
X24.18 Y36.541 Z-5.885
X24.172 Y36.47 Z-5.824
X24.165 Y36.409 Z-5.753
X24.16 Y36.361 Z-5.672
X24.156 Y36.325 Z-5.585
X24.153 Y36.303 Z-5.494
X24.152 Y36.296 Z-5.4
G0 Z5.
X25.345 Y36.163
G1 Z1. F796.
Z-11.4
X25.346 Y36.17 Z-11.494 F2388.
X25.348 Y36.192 Z-11.585
X25.352 Y36.228 Z-11.672
X25.358 Y36.277 Z-11.753
X25.365 Y36.338 Z-11.824
X25.372 Y36.409 Z-11.885
X25.381 Y36.489 Z-11.935
X25.391 Y36.575 Z-11.971
X25.401 Y36.666 Z-11.993
X25.411 Y36.759 Z-12.
X25.478 Y37.356
G3 X24.947 Y38.018 I-0.596 J0.066
G2 X23.157 Y38.879 I0.331 J2.982 F1500.
G1 X23.139 Y38.886
X23.121 Y38.879
X23.114 Y38.861
X23.121 Y38.843
G2 X24. Y36.721 I-2.121 J-2.121
G1 Y25.279
G2 X23.121 Y23.157 I-3. J0.
G1 X23.114 Y23.139
X23.121 Y23.121
X23.139 Y23.114
X23.157 Y23.121
G2 X25.279 Y24. I2.121 J-2.121
G1 X46.721
G2 X48.843 Y23.121 I0. J-3.
G1 X48.861 Y23.114
X48.879 Y23.121
X48.886 Y23.139
X48.879 Y23.157
G2 X48. Y25.279 I2.121 J2.121
G1 Y36.721
G2 X48.879 Y38.843 I3. J0.
G1 X48.886 Y38.861
X48.879 Y38.879
X48.861 Y38.886
X48.843 Y38.879
G2 X46.721 Y38. I-2.121 J2.121
G1 X25.279
G2 X24.947 Y38.018 I0. J3.
G3 X24.285 Y37.488 I-0.066 J-0.596 F2388.
G1 X24.219 Y36.892
X24.208 Y36.799 Z-11.993
X24.198 Y36.708 Z-11.971
X24.189 Y36.621 Z-11.935
X24.18 Y36.541 Z-11.885
X24.172 Y36.47 Z-11.824
X24.165 Y36.409 Z-11.753
X24.16 Y36.361 Z-11.672
X24.156 Y36.325 Z-11.585
X24.153 Y36.303 Z-11.494
X24.152 Y36.296 Z-11.4
G0 Z5.
X25.345 Y36.163
G1 Z-5. F796.
Z-16.4
X25.346 Y36.17 Z-16.494 F2388.
X25.348 Y36.192 Z-16.585
X25.352 Y36.228 Z-16.672
X25.358 Y36.277 Z-16.753
X25.365 Y36.338 Z-16.824
X25.372 Y36.409 Z-16.885
X25.381 Y36.489 Z-16.935
X25.391 Y36.575 Z-16.971
X25.401 Y36.666 Z-16.993
X25.411 Y36.759 Z-17.
X25.478 Y37.356
G3 X24.947 Y38.018 I-0.596 J0.066
G2 X23.157 Y38.879 I0.331 J2.982 F1500.
G1 X23.139 Y38.886
X23.121 Y38.879
X23.114 Y38.861
X23.121 Y38.843
G2 X24. Y36.721 I-2.121 J-2.121
G1 Y25.279
G2 X23.121 Y23.157 I-3. J0.
G1 X23.114 Y23.139
X23.121 Y23.121
X23.139 Y23.114
X23.157 Y23.121
G2 X25.279 Y24. I2.121 J-2.121
G1 X28.
Z-15.
X44.
Z-17. F796.
X46.721 F1500.
G2 X48.843 Y23.121 I0. J-3.
G1 X48.861 Y23.114
X48.879 Y23.121
X48.886 Y23.139
X48.879 Y23.157
G2 X48. Y25.279 I2.121 J2.121
G1 Y36.721
G2 X48.879 Y38.843 I3. J0.
G1 X48.886 Y38.861
X48.879 Y38.879
X48.861 Y38.886
X48.843 Y38.879
G2 X46.721 Y38. I-2.121 J2.121
G1 X44.
Z-15.
X28.
Z-17. F796.
X25.279 F1500.
G2 X24.947 Y38.018 I0. J3.
G3 X24.285 Y37.488 I-0.066 J-0.596 F2388.
G1 X24.219 Y36.892
X24.208 Y36.799 Z-16.993
X24.198 Y36.708 Z-16.971
X24.189 Y36.621 Z-16.935
X24.18 Y36.541 Z-16.885
X24.172 Y36.47 Z-16.824
X24.165 Y36.409 Z-16.753
X24.16 Y36.361 Z-16.672
X24.156 Y36.325 Z-16.585
X24.153 Y36.303 Z-16.494
X24.152 Y36.296 Z-16.4
G0 Z15.

(2D CONTOUR2)
G0 X80.8 Y149.769
Z15.
Z7.
G1 Z-5.4 F796.
G18 G3 X80.2 Z-6. I-0.6 K0. F2388.
G1 X79.6
G17 G3 X79. Y149.169 I0. J-0.6
G1 Y1. F1500.
G2 X76. Y-2. I-3. J0.
G1 X1.
G2 X-2. Y1. I0. J3.
G1 Y151.
G2 X1. Y154. I3. J0.
G1 X76.
G2 X79. Y151. I0. J-3.
G1 Y149.169
G3 X79.6 Y148.569 I0.6 J0. F2388.
G1 X80.2
G18 G2 X80.8 Z-5.4 I0. K0.6
G0 Z5.
Y149.769
G1 Z1. F796.
Z-11.4
G3 X80.2 Z-12. I-0.6 K0. F2388.
G1 X79.6
G17 G3 X79. Y149.169 I0. J-0.6
G1 Y1. F1500.
G2 X76. Y-2. I-3. J0.
G1 X1.
G2 X-2. Y1. I0. J3.
G1 Y151.
G2 X1. Y154. I3. J0.
G1 X76.
G2 X79. Y151. I0. J-3.
G1 Y149.169
G3 X79.6 Y148.569 I0.6 J0. F2388.
G1 X80.2
G18 G2 X80.8 Z-11.4 I0. K0.6
G0 Z5.
Y149.769
G1 Z-5. F796.
Z-16.4
G3 X80.2 Z-17. I-0.6 K0. F2388.
G1 X79.6
G17 G3 X79. Y149.169 I0. J-0.6
G1 Y134. F1500.
Z-15.
Y118.
Z-17. F796.
Y84. F1500.
Z-15.
Y68.
Z-17. F796.
Y34. F1500.
Z-15.
Y18.
Z-17. F796.
Y1. F1500.
G2 X76. Y-2. I-3. J0.
G1 X46.5
Z-15.
X30.5
Z-17. F796.
X1. F1500.
G2 X-2. Y1. I0. J3.
G1 Y18.
Z-15.
Y34.
Z-17. F796.
Y68. F1500.
Z-15.
Y84.
Z-17. F796.
Y118. F1500.
Z-15.
Y134.
Z-17. F796.
Y151. F1500.
G2 X1. Y154. I3. J0.
G1 X30.5
Z-15.
X46.5
Z-17. F796.
X76. F1500.
G2 X79. Y151. I0. J-3.
G1 Y149.169
G3 X79.6 Y148.569 I0.6 J0. F2388.
G1 X80.2
G18 G2 X80.8 Z-16.4 I0. K0.6
G0 Z15.
G17

G28 G91 Z0.
G90
G28 G91 X0. Y0.
G90
M30
